(G-CODE GENERATED BY FLATCAM v8.993 - www.flatcam.org - Version Date: 2020/06/05)

(Name: b_cu)
(Type: G-code from Geometry)
(Units: MM)

(Created on quarta, 01 julho 2020 at 22:58)

(This preprocessor is the default preprocessor used by FlatCAM.)
(It is made to work with MACH3 compatible motion controllers.)

(TOOL DIAMETER: 0.2657 mm)
(Feedrate_XY: 120.0 mm/min)
(Feedrate_Z: 60.0 mm/min)
(Feedrate rapids 1500.0 mm/min)

(Z_Cut: -0.2 mm)
(Z_Move: 2.0 mm)
(Z Start: None mm)
(Z End: 15.0 mm)
(Steps per circle: 64)
(Preprocessor Geometry: default)

(X range:    0.2171 ...  114.6409  mm)
(Y range:    0.2171 ...   59.7769  mm)

(Spindle Speed: 12000 RPM)
G21
G90
G94



G01 F120.00
G00 Z2.0000

M03 S12000
G00 X0.2171 Y0.4770
G01 F60.00
G01 Z-0.2000
G01 F120.00
G01 X0.2184 Y0.4515
G01 X0.2221 Y0.4263
G01 X0.2283 Y0.4016
G01 X0.2369 Y0.3775
G01 X0.2478 Y0.3545
G01 X0.2609 Y0.3326
G01 X0.2761 Y0.3121
G01 X0.2932 Y0.2932
G01 X0.3121 Y0.2761
G01 X0.3326 Y0.2609
G01 X0.3545 Y0.2478
G01 X0.3775 Y0.2369
G01 X0.4016 Y0.2283
G01 X0.4263 Y0.2221
G01 X0.4515 Y0.2184
G01 X0.4770 Y0.2171
G01 X114.3810 Y0.2171
G01 X114.4000 Y0.2179
G01 X114.4097 Y0.2187
G01 X114.4285 Y0.2215
G01 X114.4381 Y0.2235
G01 X114.4565 Y0.2283
G01 X114.4744 Y0.2345
G01 X114.4835 Y0.2382
G01 X114.5006 Y0.2463
G01 X114.5199 Y0.2574
G01 X114.5281 Y0.2627
G01 X114.5459 Y0.2761
G01 X114.5601 Y0.2887
G01 X114.5671 Y0.2956
G01 X114.5819 Y0.3121
G01 X114.5953 Y0.3299
G01 X114.6006 Y0.3381
G01 X114.6102 Y0.3545
G01 X114.6185 Y0.3716
G01 X114.6224 Y0.3806
G01 X114.6297 Y0.4016
G01 X114.6353 Y0.4231
G01 X114.6370 Y0.4327
G01 X114.6397 Y0.4515
G01 X114.6409 Y0.4770
G01 X114.6409 Y59.5170
G01 X114.6402 Y59.5360
G01 X114.6393 Y59.5457
G01 X114.6365 Y59.5645
G01 X114.6345 Y59.5741
G01 X114.6297 Y59.5925
G01 X114.6235 Y59.6104
G01 X114.6199 Y59.6195
G01 X114.6117 Y59.6366
G01 X114.6038 Y59.6506
G01 X114.5953 Y59.6641
G01 X114.5820 Y59.6818
G01 X114.5693 Y59.6961
G01 X114.5625 Y59.7031
G01 X114.5460 Y59.7179
G01 X114.5307 Y59.7294
G01 X114.5199 Y59.7366
G01 X114.5043 Y59.7459
G01 X114.4864 Y59.7545
G01 X114.4774 Y59.7584
G01 X114.4565 Y59.7657
G01 X114.4349 Y59.7713
G01 X114.4253 Y59.7730
G01 X114.4065 Y59.7757
G01 X114.3810 Y59.7769
G01 X0.4770 Y59.7769
G01 X0.4580 Y59.7762
G01 X0.4483 Y59.7753
G01 X0.4295 Y59.7725
G01 X0.4199 Y59.7705
G01 X0.4016 Y59.7657
G01 X0.3836 Y59.7595
G01 X0.3746 Y59.7559
G01 X0.3574 Y59.7477
G01 X0.3488 Y59.7430
G01 X0.3299 Y59.7313
G01 X0.3121 Y59.7179
G01 X0.2979 Y59.7053
G01 X0.2909 Y59.6985
G01 X0.2761 Y59.6819
G01 X0.2627 Y59.6641
G01 X0.2574 Y59.6559
G01 X0.2478 Y59.6395
G01 X0.2395 Y59.6224
G01 X0.2357 Y59.6134
G01 X0.2283 Y59.5925
G01 X0.2228 Y59.5709
G01 X0.2210 Y59.5613
G01 X0.2184 Y59.5425
G01 X0.2171 Y59.5170
G01 X0.2171 Y0.4770
G00 Z2.0000
G00 X3.2379 Y4.9211
G01 F60.00
G01 Z-0.2000
G01 F120.00
G01 X3.3097 Y4.5604
G01 X3.4504 Y4.2206
G01 X3.6548 Y3.9148
G01 X3.9148 Y3.6548
G01 X4.2206 Y3.4504
G01 X4.5604 Y3.3097
G01 X4.9211 Y3.2379
G01 X5.2889 Y3.2379
G01 X5.6496 Y3.3097
G01 X5.9894 Y3.4504
G01 X6.2952 Y3.6548
G01 X6.5553 Y3.9148
G01 X6.7596 Y4.2206
G01 X6.9003 Y4.5604
G01 X6.9721 Y4.9211
G01 X6.9721 Y5.2889
G01 X6.9003 Y5.6496
G01 X6.7596 Y5.9894
G01 X6.5553 Y6.2952
G01 X6.2952 Y6.5553
G01 X5.9894 Y6.7596
G01 X5.6496 Y6.9003
G01 X5.2889 Y6.9721
G01 X4.9211 Y6.9721
G01 X4.5604 Y6.9003
G01 X4.2206 Y6.7596
G01 X3.9148 Y6.5553
G01 X3.6548 Y6.2952
G01 X3.4504 Y5.9894
G01 X3.3097 Y5.6496
G01 X3.2379 Y5.2889
G01 X3.2379 Y4.9211
G00 Z2.0000
G00 X1.2967 Y20.3945
G01 F60.00
G01 Z-0.2000
G01 F120.00
G01 X1.2918 Y20.3450
G01 X1.3163 Y20.0966
G01 X1.3887 Y19.8578
G01 X1.5064 Y19.6377
G01 X1.6647 Y19.4447
G01 X1.7057 Y19.4110
G01 X1.7221 Y19.3960
G01 X3.9655 Y17.1526
G01 X3.9805 Y17.1362
G01 X4.0142 Y17.0952
G01 X4.2072 Y16.9369
G01 X4.4273 Y16.8192
G01 X4.6661 Y16.7468
G01 X4.8005 Y16.7335
G01 X4.8193 Y16.7309
G01 X4.8289 Y16.7291
G01 X4.8505 Y16.7236
G01 X4.8715 Y16.7162
G01 X4.8805 Y16.7123
G01 X4.8976 Y16.7041
G01 X4.9139 Y16.6945
G01 X4.9221 Y16.6891
G01 X4.9374 Y16.6778
G01 X4.9565 Y16.6609
G01 X4.9946 Y16.6229
G01 X5.2840 Y16.4295
G01 X5.6056 Y16.2963
G01 X5.9470 Y16.2284
G01 X6.2951 Y16.2284
G01 X6.6365 Y16.2963
G01 X6.9580 Y16.4295
G01 X7.2475 Y16.6229
G01 X7.4936 Y16.8691
G01 X7.6870 Y17.1585
G01 X7.8202 Y17.4801
G01 X7.8881 Y17.8215
G01 X7.8881 Y18.1696
G01 X7.8202 Y18.5110
G01 X7.6870 Y18.8325
G01 X7.4936 Y19.1220
G01 X7.2475 Y19.3681
G01 X6.9580 Y19.5615
G01 X6.6365 Y19.6947
G01 X6.2951 Y19.7626
G01 X5.9470 Y19.7626
G01 X5.6056 Y19.6947
G01 X5.3399 Y19.5847
G01 X5.3189 Y19.5773
G01 X5.2942 Y19.5711
G01 X5.2690 Y19.5674
G01 X5.2468 Y19.5662
G01 X5.2245 Y19.5669
G01 X5.2115 Y19.5682
G01 X5.1928 Y19.5711
G01 X5.1680 Y19.5773
G01 X5.1440 Y19.5859
G01 X5.1268 Y19.5939
G01 X5.1153 Y19.6000
G01 X5.0964 Y19.6118
G01 X5.0786 Y19.6251
G01 X5.0597 Y19.6423
G01 X3.9082 Y20.7937
G01 X3.8954 Y20.8077
G01 X3.8891 Y20.8152
G01 X3.8777 Y20.8304
G01 X3.8724 Y20.8386
G01 X3.8628 Y20.8550
G01 X3.8545 Y20.8721
G01 X3.8507 Y20.8811
G01 X3.8443 Y20.8990
G01 X3.8385 Y20.9204
G01 X3.8360 Y20.9332
G01 X3.8334 Y20.9520
G01 X3.8321 Y20.9775
G01 X3.8321 Y22.4075
G01 X3.8334 Y22.4299
G01 X3.8360 Y22.4488
G01 X3.8378 Y22.4585
G01 X3.8434 Y22.4802
G01 X3.8509 Y22.5013
G01 X3.8548 Y22.5104
G01 X3.8632 Y22.5276
G01 X3.8765 Y22.5495
G01 X3.8919 Y22.5701
G01 X3.9069 Y22.5867
G01 X3.9234 Y22.6019
G01 X3.9336 Y22.6102
G01 X3.9491 Y22.6213
G01 X3.9712 Y22.6344
G01 X3.9945 Y22.6452
G01 X4.0157 Y22.6527
G01 X4.0405 Y22.6590
G01 X4.0627 Y22.6624
G01 X4.0758 Y22.6636
G01 X4.0982 Y22.6641
G01 X4.1205 Y22.6626
G01 X4.1459 Y22.6585
G01 X4.1707 Y22.6519
G01 X4.1887 Y22.6454
G01 X4.2007 Y22.6402
G01 X4.2207 Y22.6300
G01 X4.2397 Y22.6181
G01 X4.2601 Y22.6025
G01 X4.2788 Y22.5850
G01 X4.2915 Y22.5707
G01 X4.2997 Y22.5604
G01 X4.3124 Y22.5420
G01 X4.3249 Y22.5195
G01 X4.3352 Y22.4960
G01 X4.3422 Y22.4747
G01 X4.3662 Y22.3894
G01 X4.5063 Y22.1142
G01 X4.5774 Y22.0791
G01 X4.7270 Y22.2287
G01 X4.6842 Y22.3001
G01 X4.6795 Y22.3087
G01 X4.6137 Y22.4477
G01 X4.6101 Y22.4567
G01 X4.5605 Y22.5953
G01 X4.5576 Y22.6047
G01 X4.5195 Y22.7570
G01 X4.4968 Y22.9090
G01 X4.4955 Y22.9220
G01 X4.4882 Y23.0755
G01 X4.4955 Y23.2291
G01 X4.4968 Y23.2420
G01 X4.5195 Y23.3941
G01 X4.5576 Y23.5464
G01 X4.5605 Y23.5557
G01 X4.6101 Y23.6943
G01 X4.6137 Y23.7034
G01 X4.6795 Y23.8423
G01 X4.6842 Y23.8509
G01 X4.7270 Y23.9223
G01 X4.5774 Y24.0719
G01 X4.5037 Y24.0355
G01 X4.3958 Y23.8336
G01 X4.3381 Y23.6563
G01 X4.3288 Y23.6329
G01 X4.3205 Y23.6160
G01 X4.3156 Y23.6076
G01 X4.3055 Y23.5916
G01 X4.2901 Y23.5716
G01 X4.2727 Y23.5531
G01 X4.2537 Y23.5364
G01 X4.2331 Y23.5216
G01 X4.2112 Y23.5089
G01 X4.1882 Y23.4984
G01 X4.1642 Y23.4902
G01 X4.1396 Y23.4844
G01 X4.1145 Y23.4809
G01 X4.0891 Y23.4800
G01 X4.0639 Y23.4815
G01 X4.0389 Y23.4855
G01 X4.0143 Y23.4919
G01 X3.9906 Y23.5006
G01 X3.9678 Y23.5116
G01 X3.9461 Y23.5248
G01 X3.9259 Y23.5400
G01 X3.9072 Y23.5571
G01 X3.8903 Y23.5760
G01 X3.8753 Y23.5964
G01 X3.8624 Y23.6182
G01 X3.8516 Y23.6411
G01 X3.8441 Y23.6619
G01 X3.8384 Y23.6832
G01 X3.8359 Y23.6959
G01 X3.8333 Y23.7146
G01 X3.8321 Y23.7399
G01 X3.8321 Y26.6499
G01 X3.8334 Y26.6754
G01 X3.8360 Y26.6942
G01 X3.8378 Y26.7038
G01 X3.8424 Y26.7223
G01 X3.8453 Y26.7316
G01 X3.8519 Y26.7494
G01 X3.8599 Y26.7666
G01 X3.8644 Y26.7753
G01 X3.8724 Y26.7888
G01 X3.8777 Y26.7970
G01 X3.8891 Y26.8123
G01 X3.8954 Y26.8198
G01 X3.9082 Y26.8337
G01 X3.9271 Y26.8509
G01 X3.9423 Y26.8623
G01 X3.9503 Y26.8678
G01 X3.9666 Y26.8776
G01 X3.9753 Y26.8821
G01 X3.9925 Y26.8901
G01 X4.0104 Y26.8966
G01 X4.0197 Y26.8996
G01 X4.0381 Y26.9042
G01 X4.0477 Y26.9060
G01 X4.0665 Y26.9086
G01 X4.0855 Y26.9097
G01 X4.0953 Y26.9098
G01 X4.1142 Y26.9089
G01 X4.1240 Y26.9078
G01 X4.1395 Y26.9055
G01 X4.1491 Y26.9034
G01 X4.1675 Y26.8987
G01 X4.1854 Y26.8924
G01 X4.1945 Y26.8888
G01 X4.2087 Y26.8821
G01 X4.2202 Y26.8759
G01 X4.2391 Y26.8642
G01 X4.2594 Y26.8488
G01 X4.2758 Y26.8337
G01 X4.2929 Y26.8148
G01 X4.3081 Y26.7943
G01 X4.3197 Y26.7753
G01 X4.3295 Y26.7554
G01 X4.3334 Y26.7464
G01 X4.3407 Y26.7254
G01 X4.3455 Y26.7070
G01 X4.3475 Y26.6974
G01 X4.3503 Y26.6787
G01 X4.3578 Y26.6032
G01 X4.3731 Y26.5528
G01 X4.3979 Y26.5064
G01 X4.4312 Y26.4657
G01 X4.4719 Y26.4324
G01 X4.5183 Y26.4076
G01 X4.5687 Y26.3923
G01 X4.6338 Y26.3859
G01 X7.6082 Y26.3859
G01 X7.6734 Y26.3923
G01 X7.7237 Y26.4076
G01 X7.7701 Y26.4324
G01 X7.8108 Y26.4657
G01 X7.8442 Y26.5064
G01 X7.8490 Y26.5153
G01 X7.8587 Y26.5316
G01 X7.8737 Y26.5523
G01 X7.8905 Y26.5714
G01 X7.9068 Y26.5866
G01 X7.9143 Y26.5929
G01 X7.9295 Y26.6042
G01 X7.9512 Y26.6176
G01 X7.9741 Y26.6288
G01 X7.9981 Y26.6377
G01 X8.0074 Y26.6404
G01 X8.0259 Y26.6448
G01 X8.0447 Y26.6478
G01 X8.0544 Y26.6489
G01 X8.0733 Y26.6498
G01 X8.0831 Y26.6497
G01 X8.1021 Y26.6486
G01 X8.1241 Y26.6454
G01 X8.1337 Y26.6434
G01 X8.1521 Y26.6386
G01 X8.1700 Y26.6324
G01 X8.1791 Y26.6288
G01 X8.1991 Y26.6191
G01 X8.2155 Y26.6095
G01 X8.2237 Y26.6042
G01 X8.2389 Y26.5929
G01 X8.2464 Y26.5866
G01 X8.2604 Y26.5737
G01 X9.8601 Y24.9740
G01 X9.8749 Y24.9574
G01 X9.8883 Y24.9396
G01 X9.9000 Y24.9207
G01 X9.9062 Y24.9092
G01 X9.9141 Y24.8920
G01 X9.9227 Y24.8680
G01 X9.9289 Y24.8432
G01 X9.9319 Y24.8245
G01 X9.9330 Y24.8147
G01 X9.9339 Y24.7925
G01 X9.9339 Y18.6315
G01 X9.9330 Y18.6093
G01 X9.9319 Y18.5996
G01 X9.9289 Y18.5808
G01 X9.9227 Y18.5561
G01 X9.9165 Y18.5382
G01 X9.9129 Y18.5291
G01 X9.9047 Y18.5119
G01 X9.9000 Y18.5033
G01 X9.8901 Y18.4871
G01 X9.8770 Y18.4692
G01 X9.7246 Y18.2835
G01 X9.5605 Y17.9765
G01 X9.4595 Y17.6434
G01 X9.4254 Y17.2970
G01 X9.4595 Y16.9506
G01 X9.5605 Y16.6175
G01 X9.7246 Y16.3105
G01 X9.8901 Y16.1089
G01 X22.0731 Y3.9259
G01 X22.0881 Y3.9095
G01 X22.1374 Y3.8494
G01 X22.4065 Y3.6286
G01 X22.7135 Y3.4645
G01 X23.0466 Y3.3635
G01 X23.3930 Y3.3294
G01 X23.4704 Y3.3370
G01 X23.4926 Y3.3379
G01 X57.0078 Y3.3379
G01 X57.2674 Y3.3635
G01 X57.6005 Y3.4645
G01 X57.9075 Y3.6286
G01 X58.1766 Y3.8494
G01 X58.3974 Y4.1185
G01 X58.5615 Y4.4255
G01 X58.6625 Y4.7586
G01 X58.6966 Y5.1050
G01 X58.6625 Y5.4514
G01 X58.6355 Y5.5404
G01 X58.6300 Y5.5620
G01 X58.6282 Y5.5716
G01 X58.6256 Y5.5904
G01 X58.6245 Y5.6093
G01 X58.6244 Y5.6191
G01 X58.6256 Y5.6413
G01 X58.6293 Y5.6666
G01 X58.6355 Y5.6913
G01 X58.6418 Y5.7092
G01 X58.6468 Y5.7213
G01 X58.6566 Y5.7412
G01 X58.6681 Y5.7603
G01 X58.6833 Y5.7807
G01 X58.7005 Y5.7996
G01 X61.5616 Y8.6607
G01 X61.5782 Y8.6756
G01 X61.5987 Y8.6908
G01 X61.6205 Y8.7039
G01 X61.6436 Y8.7148
G01 X61.6676 Y8.7234
G01 X61.6923 Y8.7296
G01 X61.7176 Y8.7333
G01 X61.7431 Y8.7346
G01 X61.7685 Y8.7333
G01 X61.7938 Y8.7296
G01 X61.8185 Y8.7234
G01 X61.8364 Y8.7171
G01 X61.8485 Y8.7121
G01 X61.8684 Y8.7023
G01 X61.8875 Y8.6908
G01 X61.9079 Y8.6756
G01 X61.9268 Y8.6584
G01 X61.9419 Y8.6420
G01 X61.9554 Y8.6244
G01 X61.9627 Y8.6135
G01 X61.9723 Y8.5972
G01 X61.9832 Y8.5741
G01 X61.9918 Y8.5501
G01 X61.9973 Y8.5286
G01 X62.0014 Y8.5034
G01 X62.0028 Y8.4812
G01 X62.0028 Y8.4681
G01 X62.0020 Y8.4524
G01 X62.0009 Y8.4427
G01 X61.9980 Y8.4239
G01 X61.9927 Y8.4023
G01 X61.9428 Y8.2378
G01 X61.9203 Y8.0090
G01 X61.9428 Y7.7802
G01 X62.0095 Y7.5602
G01 X62.1179 Y7.3575
G01 X62.2638 Y7.1798
G01 X62.4437 Y7.0319
G01 X62.4577 Y7.0190
G01 X62.4727 Y7.0026
G01 X62.4788 Y6.9949
G01 X62.4918 Y6.9769
G01 X62.5031 Y6.9577
G01 X62.5114 Y6.9406
G01 X62.5153 Y6.9316
G01 X62.5226 Y6.9106
G01 X62.5274 Y6.8923
G01 X62.5294 Y6.8827
G01 X62.5322 Y6.8639
G01 X62.5356 Y6.8302
G01 X62.5737 Y6.7045
G01 X62.6357 Y6.5886
G01 X62.7190 Y6.4870
G01 X62.7371 Y6.4721
G01 X62.7535 Y6.4571
G01 X64.5451 Y4.6655
G01 X64.5601 Y4.6491
G01 X64.5750 Y4.6310
G01 X64.6766 Y4.5477
G01 X64.7925 Y4.4857
G01 X64.9182 Y4.4476
G01 X65.0490 Y4.4347
G01 X65.0723 Y4.4370
G01 X65.0945 Y4.4379
G01 X84.5681 Y4.4379
G01 X84.5903 Y4.4367
G01 X84.6155 Y4.4329
G01 X84.6403 Y4.4267
G01 X84.6613 Y4.4194
G01 X84.6815 Y4.4102
G01 X84.6930 Y4.4040
G01 X84.7119 Y4.3923
G01 X84.7322 Y4.3768
G01 X84.7486 Y4.3618
G01 X84.7657 Y4.3429
G01 X84.7809 Y4.3224
G01 X84.7908 Y4.3062
G01 X84.7955 Y4.2976
G01 X84.8023 Y4.2834
G01 X84.8073 Y4.2714
G01 X84.8135 Y4.2535
G01 X84.8291 Y4.2023
G01 X84.8539 Y4.1559
G01 X84.8872 Y4.1152
G01 X84.9279 Y4.0819
G01 X84.9743 Y4.0571
G01 X85.0247 Y4.0418
G01 X85.0898 Y4.0354
G01 X86.6642 Y4.0354
G01 X86.7294 Y4.0418
G01 X86.7797 Y4.0571
G01 X86.8261 Y4.0819
G01 X86.8668 Y4.1152
G01 X86.9002 Y4.1559
G01 X86.9250 Y4.2023
G01 X86.9402 Y4.2527
G01 X86.9466 Y4.3178
G01 X86.9466 Y4.4682
G01 X86.9479 Y4.4937
G01 X86.9516 Y4.5189
G01 X86.9578 Y4.5436
G01 X86.9664 Y4.5676
G01 X86.9773 Y4.5907
G01 X86.9887 Y4.6098
G01 X86.9942 Y4.6179
G01 X87.0056 Y4.6331
G01 X87.0228 Y4.6520
G01 X87.0392 Y4.6670
G01 X87.0468 Y4.6731
G01 X87.0622 Y4.6843
G01 X87.0784 Y4.6942
G01 X87.0869 Y4.6989
G01 X87.1071 Y4.7083
G01 X87.1280 Y4.7159
G01 X87.1374 Y4.7186
G01 X87.1559 Y4.7231
G01 X87.1778 Y4.7265
G01 X87.2000 Y4.7279
G01 X87.2098 Y4.7281
G01 X87.2320 Y4.7268
G01 X87.2573 Y4.7231
G01 X87.2820 Y4.7169
G01 X87.3030 Y4.7095
G01 X87.3262 Y4.6989
G01 X87.3455 Y4.6878
G01 X87.3563 Y4.6805
G01 X87.3739 Y4.6670
G01 X87.3880 Y4.6542
G01 X87.3948 Y4.6472
G01 X87.4075 Y4.6331
G01 X87.4208 Y4.6153
G01 X87.5482 Y4.4248
G01 X87.6968 Y4.2762
G01 X87.8716 Y4.1594
G01 X88.0658 Y4.0789
G01 X88.2719 Y4.0379
G01 X88.4821 Y4.0379
G01 X88.6883 Y4.0789
G01 X88.8825 Y4.1594
G01 X89.0572 Y4.2762
G01 X89.1429 Y4.3618
G01 X89.1568 Y4.3747
G01 X89.1643 Y4.3810
G01 X89.1796 Y4.3923
G01 X89.2013 Y4.4057
G01 X89.2100 Y4.4102
G01 X89.2272 Y4.4181
G01 X89.2481 Y4.4257
G01 X89.2575 Y4.4285
G01 X89.2760 Y4.4329
G01 X89.2947 Y4.4359
G01 X89.3044 Y4.4370
G01 X89.3267 Y4.4379
G01 X91.0234 Y4.4379
G01 X91.0423 Y4.4372
G01 X91.0521 Y4.4363
G01 X91.0709 Y4.4335
G01 X91.0804 Y4.4315
G01 X91.0988 Y4.4267
G01 X91.1167 Y4.4205
G01 X91.1258 Y4.4169
G01 X91.1430 Y4.4087
G01 X91.1515 Y4.4040
G01 X91.1678 Y4.3941
G01 X91.1882 Y4.3789
G01 X91.2048 Y4.3641
G01 X91.2928 Y4.2762
G01 X91.4676 Y4.1594
G01 X91.6618 Y4.0789
G01 X91.8679 Y4.0379
G01 X92.0781 Y4.0379
G01 X92.2843 Y4.0789
G01 X92.4785 Y4.1594
G01 X92.6532 Y4.2762
G01 X92.8019 Y4.4248
G01 X92.9187 Y4.5996
G01 X92.9991 Y4.7938
G01 X93.0401 Y4.9999
G01 X93.0401 Y5.2101
G01 X92.9991 Y5.4163
G01 X92.9187 Y5.6105
G01 X92.8019 Y5.7852
G01 X92.6532 Y5.9339
G01 X92.4785 Y6.0507
G01 X92.2843 Y6.1311
G01 X92.0781 Y6.1721
G01 X91.8679 Y6.1721
G01 X91.6618 Y6.1311
G01 X91.4676 Y6.0507
G01 X91.2928 Y5.9339
G01 X91.2048 Y5.8459
G01 X91.1882 Y5.8311
G01 X91.1678 Y5.8159
G01 X91.1515 Y5.8060
G01 X91.1430 Y5.8013
G01 X91.1258 Y5.7932
G01 X91.1167 Y5.7895
G01 X91.0988 Y5.7833
G01 X91.0804 Y5.7785
G01 X91.0709 Y5.7765
G01 X91.0521 Y5.7737
G01 X91.0423 Y5.7729
G01 X91.0234 Y5.7721
G01 X89.3267 Y5.7721
G01 X89.3044 Y5.7731
G01 X89.2947 Y5.7741
G01 X89.2760 Y5.7771
G01 X89.2575 Y5.7816
G01 X89.2481 Y5.7843
G01 X89.2272 Y5.7919
G01 X89.2100 Y5.7999
G01 X89.2013 Y5.8044
G01 X89.1796 Y5.8177
G01 X89.1643 Y5.8291
G01 X89.1568 Y5.8354
G01 X89.1429 Y5.8482
G01 X89.0572 Y5.9339
G01 X88.8825 Y6.0507
G01 X88.6883 Y6.1311
G01 X88.4821 Y6.1721
G01 X88.2719 Y6.1721
G01 X88.0658 Y6.1311
G01 X87.8716 Y6.0507
G01 X87.6968 Y5.9339
G01 X87.5482 Y5.7852
G01 X87.4227 Y5.5974
G01 X87.4095 Y5.5795
G01 X87.4032 Y5.5720
G01 X87.3880 Y5.5558
G01 X87.3739 Y5.5430
G01 X87.3663 Y5.5369
G01 X87.3537 Y5.5276
G01 X87.3455 Y5.5222
G01 X87.3291 Y5.5126
G01 X87.3120 Y5.5044
G01 X87.2999 Y5.4994
G01 X87.2789 Y5.4922
G01 X87.2573 Y5.4869
G01 X87.2320 Y5.4832
G01 X87.2066 Y5.4819
G01 X87.1876 Y5.4827
G01 X87.1746 Y5.4840
G01 X87.1527 Y5.4876
G01 X87.1311 Y5.4931
G01 X87.1071 Y5.5017
G01 X87.0840 Y5.5126
G01 X87.0677 Y5.5222
G01 X87.0568 Y5.5295
G01 X87.0392 Y5.5430
G01 X87.0228 Y5.5581
G01 X87.0056 Y5.5770
G01 X86.9942 Y5.5921
G01 X86.9887 Y5.6002
G01 X86.9789 Y5.6165
G01 X86.9744 Y5.6251
G01 X86.9664 Y5.6424
G01 X86.9599 Y5.6602
G01 X86.9569 Y5.6695
G01 X86.9523 Y5.6879
G01 X86.9483 Y5.7131
G01 X86.9467 Y5.7386
G01 X86.9466 Y5.8922
G01 X86.9402 Y5.9574
G01 X86.9250 Y6.0077
G01 X86.9002 Y6.0541
G01 X86.8668 Y6.0948
G01 X86.8261 Y6.1282
G01 X86.7797 Y6.1530
G01 X86.7224 Y6.1705
G01 X86.7045 Y6.1771
G01 X86.6844 Y6.1865
G01 X86.6651 Y6.1976
G01 X86.6543 Y6.2048
G01 X86.6391 Y6.2163
G01 X86.6202 Y6.2334
G01 X86.6031 Y6.2523
G01 X86.5879 Y6.2728
G01 X86.5748 Y6.2947
G01 X86.5639 Y6.3177
G01 X86.5553 Y6.3418
G01 X86.5491 Y6.3665
G01 X86.5454 Y6.3917
G01 X86.5441 Y6.4172
G01 X86.5441 Y9.7434
G01 X86.5454 Y9.7688
G01 X86.5480 Y9.7876
G01 X86.5498 Y9.7972
G01 X86.5544 Y9.8157
G01 X86.5573 Y9.8250
G01 X86.5639 Y9.8428
G01 X86.5719 Y9.8600
G01 X86.5764 Y9.8687
G01 X86.5879 Y9.8878
G01 X86.6031 Y9.9082
G01 X86.6179 Y9.9248
G01 X86.7059 Y10.0128
G01 X86.8227 Y10.1876
G01 X86.9031 Y10.3818
G01 X86.9441 Y10.5879
G01 X86.9441 Y10.7981
G01 X86.9031 Y11.0043
G01 X86.8227 Y11.1985
G01 X86.7059 Y11.3732
G01 X86.5572 Y11.5219
G01 X86.3825 Y11.6387
G01 X86.1883 Y11.7191
G01 X85.9821 Y11.7601
G01 X85.7719 Y11.7601
G01 X85.5658 Y11.7191
G01 X85.3716 Y11.6387
G01 X85.1968 Y11.5219
G01 X85.0482 Y11.3732
G01 X84.9314 Y11.1985
G01 X84.8509 Y11.0043
G01 X84.8099 Y10.7981
G01 X84.8099 Y10.5879
G01 X84.8509 Y10.3818
G01 X84.9314 Y10.1876
G01 X85.0482 Y10.0128
G01 X85.1361 Y9.9248
G01 X85.1509 Y9.9082
G01 X85.1661 Y9.8878
G01 X85.1777 Y9.8687
G01 X85.1822 Y9.8600
G01 X85.1901 Y9.8428
G01 X85.1967 Y9.8250
G01 X85.1996 Y9.8157
G01 X85.2049 Y9.7941
G01 X85.2079 Y9.7753
G01 X85.2090 Y9.7656
G01 X85.2099 Y9.7434
G01 X85.2099 Y6.6320
G01 X85.2087 Y6.6065
G01 X85.2049 Y6.5813
G01 X85.1987 Y6.5565
G01 X85.1901 Y6.5325
G01 X85.1822 Y6.5153
G01 X85.1760 Y6.5038
G01 X85.1643 Y6.4849
G01 X85.1509 Y6.4671
G01 X85.1338 Y6.4482
G01 X84.5338 Y5.8482
G01 X84.5199 Y5.8354
G01 X84.5098 Y5.8271
G01 X84.4917 Y5.8141
G01 X84.4726 Y5.8028
G01 X84.4525 Y5.7932
G01 X84.4317 Y5.7853
G01 X84.4224 Y5.7824
G01 X84.4007 Y5.7771
G01 X84.3788 Y5.7737
G01 X84.3690 Y5.7729
G01 X84.3500 Y5.7721
G01 X65.4330 Y5.7721
G01 X65.4075 Y5.7734
G01 X65.3887 Y5.7760
G01 X65.3759 Y5.7785
G01 X65.3544 Y5.7843
G01 X65.3335 Y5.7919
G01 X65.3134 Y5.8013
G01 X65.2941 Y5.8124
G01 X65.2859 Y5.8177
G01 X65.2681 Y5.8311
G01 X65.2515 Y5.8459
G01 X64.1943 Y6.9031
G01 X64.1774 Y6.9223
G01 X64.1625 Y6.9429
G01 X64.1497 Y6.9650
G01 X64.1391 Y6.9882
G01 X64.1317 Y7.0092
G01 X64.1255 Y7.0339
G01 X64.1217 Y7.0591
G01 X64.1205 Y7.0813
G01 X64.1215 Y7.1068
G01 X64.1244 Y7.1289
G01 X64.1269 Y7.1417
G01 X64.1327 Y7.1632
G01 X64.1403 Y7.1841
G01 X64.1497 Y7.2042
G01 X64.1608 Y7.2235
G01 X64.1661 Y7.2317
G01 X64.1795 Y7.2495
G01 X64.2681 Y7.3575
G01 X64.3765 Y7.5602
G01 X64.4432 Y7.7802
G01 X64.4657 Y8.0090
G01 X64.4432 Y8.2378
G01 X64.3765 Y8.4578
G01 X64.2681 Y8.6605
G01 X64.2217 Y8.7171
G01 X64.2083 Y8.7349
G01 X64.1949 Y8.7566
G01 X64.1837 Y8.7796
G01 X64.1759 Y8.8004
G01 X64.1730 Y8.8097
G01 X64.1677 Y8.8313
G01 X64.1643 Y8.8533
G01 X64.1628 Y8.8755
G01 X64.1627 Y8.8853
G01 X64.1639 Y8.9075
G01 X64.1671 Y8.9295
G01 X64.1721 Y8.9512
G01 X64.1759 Y8.9637
G01 X64.1825 Y8.9815
G01 X64.1934 Y9.0045
G01 X64.2065 Y9.0264
G01 X64.2196 Y9.0444
G01 X64.2343 Y9.0611
G01 X64.2435 Y9.0703
G01 X64.2577 Y9.0829
G01 X64.2782 Y9.0981
G01 X64.3001 Y9.1112
G01 X64.3172 Y9.1195
G01 X64.3292 Y9.1245
G01 X64.3503 Y9.1316
G01 X64.3719 Y9.1369
G01 X64.3971 Y9.1407
G01 X64.4226 Y9.1419
G01 X65.3341 Y9.1419
G01 X65.3563 Y9.1410
G01 X65.3816 Y9.1375
G01 X65.4032 Y9.1325
G01 X65.4126 Y9.1297
G01 X65.4275 Y9.1245
G01 X65.4395 Y9.1195
G01 X65.4566 Y9.1112
G01 X65.4785 Y9.0981
G01 X65.4990 Y9.0829
G01 X65.5179 Y9.0658
G01 X65.5329 Y9.0494
G01 X65.5390 Y9.0418
G01 X65.5502 Y9.0264
G01 X65.5601 Y9.0102
G01 X65.5648 Y9.0016
G01 X65.5729 Y8.9845
G01 X65.5765 Y8.9754
G01 X65.5828 Y8.9575
G01 X65.5883 Y8.9359
G01 X65.5901 Y8.9263
G01 X65.5927 Y8.9075
G01 X65.5938 Y8.8885
G01 X65.5939 Y8.8788
G01 X65.5930 Y8.8598
G01 X65.5919 Y8.8501
G01 X65.5890 Y8.8313
G01 X65.5837 Y8.8097
G01 X65.5807 Y8.8004
G01 X65.5742 Y8.7825
G01 X65.5648 Y8.7624
G01 X65.5601 Y8.7538
G01 X65.5502 Y8.7376
G01 X65.5344 Y8.7164
G01 X65.4167 Y8.4963
G01 X65.3443 Y8.2574
G01 X65.3198 Y8.0090
G01 X65.3443 Y7.7606
G01 X65.4167 Y7.5218
G01 X65.5344 Y7.3017
G01 X65.6927 Y7.1087
G01 X65.8857 Y6.9504
G01 X66.1058 Y6.8327
G01 X66.3446 Y6.7603
G01 X66.5308 Y6.7419
G01 X78.0380 Y6.7419
G01 X78.0602 Y6.7410
G01 X78.1130 Y6.7358
G01 X78.3614 Y6.7603
G01 X78.6003 Y6.8327
G01 X78.8204 Y6.9504
G01 X79.0133 Y7.1087
G01 X79.0470 Y7.1497
G01 X79.0620 Y7.1661
G01 X85.4017 Y13.5058
G01 X85.4206 Y13.5229
G01 X85.4411 Y13.5381
G01 X85.4630 Y13.5512
G01 X85.4861 Y13.5621
G01 X85.5101 Y13.5707
G01 X85.5348 Y13.5769
G01 X85.5600 Y13.5807
G01 X85.5823 Y13.5819
G01 X86.5090 Y13.5819
G01 X86.5280 Y13.5812
G01 X86.5410 Y13.5799
G01 X86.5629 Y13.5763
G01 X86.5845 Y13.5707
G01 X86.6055 Y13.5634
G01 X86.6257 Y13.5542
G01 X86.6344 Y13.5497
G01 X86.6534 Y13.5381
G01 X86.6714 Y13.5250
G01 X86.6789 Y13.5187
G01 X86.6928 Y13.5058
G01 X89.9451 Y10.2535
G01 X89.9601 Y10.2371
G01 X89.9750 Y10.2190
G01 X90.0766 Y10.1357
G01 X90.1925 Y10.0737
G01 X90.3182 Y10.0356
G01 X90.4490 Y10.0227
G01 X90.4723 Y10.0250
G01 X90.4945 Y10.0259
G01 X92.2824 Y10.0259
G01 X92.3079 Y10.0247
G01 X92.3267 Y10.0220
G01 X92.3363 Y10.0203
G01 X92.3547 Y10.0156
G01 X92.3640 Y10.0127
G01 X92.3819 Y10.0061
G01 X92.4020 Y9.9967
G01 X92.4106 Y9.9920
G01 X92.4268 Y9.9821
G01 X92.4421 Y9.9709
G01 X92.4498 Y9.9648
G01 X92.4662 Y9.9498
G01 X92.4812 Y9.9334
G01 X92.5967 Y9.7927
G01 X92.7897 Y9.6344
G01 X93.0098 Y9.5167
G01 X93.2486 Y9.4443
G01 X93.4348 Y9.4259
G01 X106.6300 Y9.4259
G01 X106.6522 Y9.4250
G01 X106.7050 Y9.4198
G01 X106.9534 Y9.4443
G01 X107.1923 Y9.5167
G01 X107.4124 Y9.6344
G01 X107.6053 Y9.7927
G01 X107.6390 Y9.8337
G01 X107.6540 Y9.8501
G01 X110.5959 Y12.7920
G01 X110.6123 Y12.8070
G01 X110.6533 Y12.8407
G01 X110.8117 Y13.0337
G01 X110.9293 Y13.2538
G01 X111.0018 Y13.4926
G01 X111.0262 Y13.7410
G01 X111.0211 Y13.7938
G01 X111.0201 Y13.8160
G01 X111.0203 Y23.4046
G01 X111.0217 Y23.4268
G01 X111.0258 Y23.4520
G01 X111.0323 Y23.4767
G01 X111.0412 Y23.5006
G01 X111.0524 Y23.5235
G01 X111.0657 Y23.5452
G01 X111.0812 Y23.5655
G01 X111.0986 Y23.5842
G01 X111.1177 Y23.6011
G01 X111.1383 Y23.6160
G01 X111.1604 Y23.6288
G01 X111.1836 Y23.6395
G01 X111.2077 Y23.6478
G01 X111.2325 Y23.6536
G01 X111.2513 Y23.6564
G01 X111.3054 Y23.6618
G01 X111.3557 Y23.6771
G01 X111.4021 Y23.7019
G01 X111.4428 Y23.7352
G01 X111.4762 Y23.7759
G01 X111.5010 Y23.8223
G01 X111.5162 Y23.8727
G01 X111.5226 Y23.9378
G01 X111.5226 Y26.9122
G01 X111.5162 Y26.9774
G01 X111.5010 Y27.0277
G01 X111.4762 Y27.0741
G01 X111.4428 Y27.1148
G01 X111.4021 Y27.1482
G01 X111.3557 Y27.1730
G01 X111.3054 Y27.1882
G01 X111.2402 Y27.1946
G01 X108.2658 Y27.1946
G01 X108.2007 Y27.1882
G01 X108.1503 Y27.1730
G01 X108.1039 Y27.1482
G01 X108.0632 Y27.1148
G01 X108.0299 Y27.0741
G01 X108.0051 Y27.0277
G01 X107.9898 Y26.9774
G01 X107.9834 Y26.9122
G01 X107.9834 Y26.4790
G01 X107.9826 Y26.4600
G01 X107.9818 Y26.4503
G01 X107.9790 Y26.4315
G01 X107.9731 Y26.4067
G01 X107.9648 Y26.3826
G01 X107.9542 Y26.3594
G01 X107.9495 Y26.3508
G01 X107.9377 Y26.3319
G01 X107.9244 Y26.3141
G01 X107.9117 Y26.2999
G01 X107.9049 Y26.2929
G01 X107.8884 Y26.2781
G01 X107.8732 Y26.2667
G01 X107.8651 Y26.2611
G01 X107.8460 Y26.2498
G01 X107.8289 Y26.2415
G01 X107.8199 Y26.2377
G01 X107.7989 Y26.2303
G01 X107.7774 Y26.2248
G01 X107.7677 Y26.2230
G01 X107.7489 Y26.2204
G01 X107.7267 Y26.2191
G01 X101.4317 Y26.2191
G01 X101.4127 Y26.2199
G01 X101.4030 Y26.2207
G01 X101.3810 Y26.2241
G01 X101.3625 Y26.2286
G01 X101.3531 Y26.2313
G01 X101.3322 Y26.2389
G01 X101.3150 Y26.2469
G01 X101.3063 Y26.2514
G01 X101.2873 Y26.2629
G01 X101.2668 Y26.2781
G01 X101.2502 Y26.2929
G01 X101.1622 Y26.3809
G01 X100.9875 Y26.4977
G01 X100.7933 Y26.5781
G01 X100.5871 Y26.6191
G01 X100.3769 Y26.6191
G01 X100.1708 Y26.5781
G01 X99.9766 Y26.4977
G01 X99.8018 Y26.3809
G01 X99.6532 Y26.2322
G01 X99.5364 Y26.0575
G01 X99.4559 Y25.8633
G01 X99.4149 Y25.6571
G01 X99.4149 Y25.4469
G01 X99.4559 Y25.2408
G01 X99.5364 Y25.0466
G01 X99.6532 Y24.8718
G01 X99.8018 Y24.7232
G01 X99.9766 Y24.6064
G01 X100.1708 Y24.5259
G01 X100.3769 Y24.4849
G01 X100.5871 Y24.4849
G01 X100.7933 Y24.5259
G01 X100.9875 Y24.6064
G01 X101.1622 Y24.7232
G01 X101.2479 Y24.8088
G01 X101.2618 Y24.8217
G01 X101.2693 Y24.8280
G01 X101.2846 Y24.8393
G01 X101.3063 Y24.8527
G01 X101.3150 Y24.8572
G01 X101.3322 Y24.8651
G01 X101.3500 Y24.8717
G01 X101.3594 Y24.8746
G01 X101.3778 Y24.8793
G01 X101.3874 Y24.8810
G01 X101.4062 Y24.8837
G01 X101.4252 Y24.8848
G01 X107.4640 Y24.8849
G01 X107.4830 Y24.8842
G01 X107.4928 Y24.8833
G01 X107.5147 Y24.8799
G01 X107.5364 Y24.8746
G01 X107.5457 Y24.8717
G01 X107.5665 Y24.8639
G01 X107.5866 Y24.8542
G01 X107.6057 Y24.8429
G01 X107.6138 Y24.8374
G01 X107.6314 Y24.8238
G01 X107.6478 Y24.8088
G01 X107.9095 Y24.5470
G01 X107.9244 Y24.5305
G01 X107.9377 Y24.5127
G01 X107.9495 Y24.4938
G01 X107.9556 Y24.4823
G01 X107.9648 Y24.4620
G01 X107.9731 Y24.4379
G01 X107.9790 Y24.4131
G01 X107.9818 Y24.3943
G01 X107.9826 Y24.3846
G01 X107.9834 Y24.3656
G01 X107.9834 Y23.9378
G01 X107.9898 Y23.8727
G01 X108.0051 Y23.8223
G01 X108.0299 Y23.7759
G01 X108.0632 Y23.7352
G01 X108.1039 Y23.7019
G01 X108.1503 Y23.6771
G01 X108.2007 Y23.6618
G01 X108.2580 Y23.6560
G01 X108.2767 Y23.6530
G01 X108.2983 Y23.6478
G01 X108.3194 Y23.6406
G01 X108.3285 Y23.6370
G01 X108.3485 Y23.6273
G01 X108.3649 Y23.6177
G01 X108.3757 Y23.6105
G01 X108.3934 Y23.5969
G01 X108.4098 Y23.5819
G01 X108.4227 Y23.5679
G01 X108.4290 Y23.5605
G01 X108.4421 Y23.5425
G01 X108.4537 Y23.5235
G01 X108.4582 Y23.5148
G01 X108.4649 Y23.5006
G01 X108.4685 Y23.4915
G01 X108.4747 Y23.4736
G01 X108.4795 Y23.4552
G01 X108.4815 Y23.4456
G01 X108.4843 Y23.4268
G01 X108.4852 Y23.4171
G01 X108.4859 Y23.3981
G01 X108.4859 Y14.3735
G01 X108.4847 Y14.3480
G01 X108.4809 Y14.3228
G01 X108.4747 Y14.2981
G01 X108.4685 Y14.2801
G01 X108.4649 Y14.2711
G01 X108.4552 Y14.2510
G01 X108.4421 Y14.2291
G01 X108.4309 Y14.2138
G01 X108.4248 Y14.2061
G01 X108.4098 Y14.1897
G01 X106.2563 Y12.0362
G01 X106.2374 Y12.0191
G01 X106.2169 Y12.0039
G01 X106.1950 Y11.9908
G01 X106.1720 Y11.9799
G01 X106.1480 Y11.9713
G01 X106.1232 Y11.9651
G01 X106.0980 Y11.9614
G01 X106.0725 Y11.9601
G01 X93.4348 Y11.9601
G01 X93.2486 Y11.9418
G01 X93.0098 Y11.8693
G01 X92.7897 Y11.7517
G01 X92.5967 Y11.5933
G01 X92.4812 Y11.4526
G01 X92.4662 Y11.4362
G01 X92.4498 Y11.4212
G01 X92.4421 Y11.4151
G01 X92.4268 Y11.4039
G01 X92.4078 Y11.3924
G01 X92.3991 Y11.3879
G01 X92.3819 Y11.3799
G01 X92.3640 Y11.3733
G01 X92.3547 Y11.3704
G01 X92.3331 Y11.3651
G01 X92.3079 Y11.3614
G01 X92.2824 Y11.3601
G01 X90.8297 Y11.3601
G01 X90.8075 Y11.3614
G01 X90.7887 Y11.3640
G01 X90.7791 Y11.3658
G01 X90.7575 Y11.3713
G01 X90.7366 Y11.3787
G01 X90.7276 Y11.3825
G01 X90.7105 Y11.3908
G01 X90.6913 Y11.4021
G01 X90.6833 Y11.4077
G01 X90.6681 Y11.4191
G01 X90.6492 Y11.4362
G01 X87.7459 Y14.3396
G01 X87.7311 Y14.3561
G01 X87.7177 Y14.3739
G01 X87.7124 Y14.3821
G01 X87.7013 Y14.4014
G01 X87.6919 Y14.4215
G01 X87.6842 Y14.4425
G01 X87.6815 Y14.4519
G01 X87.6765 Y14.4735
G01 X87.6733 Y14.4955
G01 X87.6721 Y14.5178
G01 X87.6728 Y14.5400
G01 X87.6737 Y14.5497
G01 X87.6771 Y14.5717
G01 X87.6824 Y14.5933
G01 X87.6853 Y14.6027
G01 X87.6931 Y14.6235
G01 X87.7028 Y14.6435
G01 X87.7124 Y14.6599
G01 X87.7177 Y14.6681
G01 X87.7290 Y14.6834
G01 X87.7353 Y14.6908
G01 X87.7482 Y14.7048
G01 X87.7646 Y14.7198
G01 X87.7722 Y14.7259
G01 X87.7876 Y14.7371
G01 X87.8038 Y14.7470
G01 X87.8124 Y14.7517
G01 X87.8325 Y14.7611
G01 X87.8534 Y14.7688
G01 X87.8628 Y14.7715
G01 X87.8813 Y14.7759
G01 X87.9033 Y14.7793
G01 X87.9255 Y14.7808
G01 X87.9385 Y14.7808
G01 X87.9575 Y14.7797
G01 X87.9827 Y14.7759
G01 X88.0043 Y14.7706
G01 X88.0136 Y14.7677
G01 X88.0284 Y14.7624
G01 X88.0658 Y14.7469
G01 X88.2719 Y14.7059
G01 X88.4821 Y14.7059
G01 X88.6883 Y14.7469
G01 X88.8825 Y14.8274
G01 X89.0572 Y14.9442
G01 X89.1429 Y15.0298
G01 X89.1568 Y15.0427
G01 X89.1643 Y15.0490
G01 X89.1796 Y15.0603
G01 X89.2013 Y15.0737
G01 X89.2100 Y15.0782
G01 X89.2272 Y15.0861
G01 X89.2450 Y15.0927
G01 X89.2544 Y15.0956
G01 X89.2728 Y15.1003
G01 X89.2824 Y15.1020
G01 X89.3012 Y15.1047
G01 X89.3234 Y15.1059
G01 X91.0234 Y15.1059
G01 X91.0423 Y15.1052
G01 X91.0521 Y15.1043
G01 X91.0709 Y15.1015
G01 X91.0804 Y15.0995
G01 X91.0988 Y15.0947
G01 X91.1167 Y15.0885
G01 X91.1258 Y15.0849
G01 X91.1430 Y15.0767
G01 X91.1515 Y15.0720
G01 X91.1678 Y15.0621
G01 X91.1882 Y15.0469
G01 X91.2048 Y15.0321
G01 X91.2928 Y14.9442
G01 X91.4676 Y14.8274
G01 X91.6618 Y14.7469
G01 X91.8679 Y14.7059
G01 X92.0781 Y14.7059
G01 X92.2843 Y14.7469
G01 X92.4785 Y14.8274
G01 X92.6532 Y14.9442
G01 X92.8019 Y15.0928
G01 X92.9187 Y15.2676
G01 X92.9991 Y15.4618
G01 X93.0401 Y15.6679
G01 X93.0401 Y15.8781
G01 X92.9991 Y16.0843
G01 X92.9187 Y16.2785
G01 X92.8019 Y16.4532
G01 X92.6532 Y16.6019
G01 X92.4785 Y16.7187
G01 X92.2843 Y16.7991
G01 X92.0781 Y16.8401
G01 X91.8679 Y16.8401
G01 X91.6618 Y16.7991
G01 X91.4676 Y16.7187
G01 X91.2928 Y16.6019
G01 X91.2071 Y16.5162
G01 X91.1932 Y16.5034
G01 X91.1857 Y16.4971
G01 X91.1704 Y16.4857
G01 X91.1487 Y16.4724
G01 X91.1400 Y16.4679
G01 X91.1228 Y16.4599
G01 X91.1019 Y16.4523
G01 X91.0925 Y16.4496
G01 X91.0741 Y16.4451
G01 X91.0553 Y16.4421
G01 X91.0456 Y16.4411
G01 X91.0234 Y16.4401
G01 X89.3267 Y16.4401
G01 X89.3044 Y16.4411
G01 X89.2947 Y16.4421
G01 X89.2792 Y16.4445
G01 X89.2696 Y16.4465
G01 X89.2512 Y16.4513
G01 X89.2333 Y16.4575
G01 X89.2242 Y16.4612
G01 X89.2070 Y16.4693
G01 X89.1985 Y16.4740
G01 X89.1823 Y16.4839
G01 X89.1618 Y16.4991
G01 X89.1452 Y16.5139
G01 X89.0572 Y16.6019
G01 X88.8825 Y16.7187
G01 X88.6883 Y16.7991
G01 X88.4821 Y16.8401
G01 X88.2719 Y16.8401
G01 X88.0658 Y16.7991
G01 X87.8716 Y16.7187
G01 X87.6968 Y16.6019
G01 X87.5482 Y16.4532
G01 X87.4568 Y16.3166
G01 X87.4437 Y16.2986
G01 X87.4374 Y16.2912
G01 X87.4222 Y16.2749
G01 X87.4056 Y16.2601
G01 X87.3878 Y16.2467
G01 X87.3796 Y16.2414
G01 X87.3633 Y16.2318
G01 X87.3402 Y16.2209
G01 X87.3224 Y16.2143
G01 X87.3130 Y16.2114
G01 X87.2946 Y16.2067
G01 X87.2850 Y16.2049
G01 X87.2662 Y16.2023
G01 X87.2472 Y16.2012
G01 X87.2375 Y16.2011
G01 X87.2185 Y16.2020
G01 X87.2088 Y16.2031
G01 X87.1900 Y16.2061
G01 X87.1716 Y16.2105
G01 X87.1622 Y16.2132
G01 X87.1413 Y16.2209
G01 X87.1182 Y16.2318
G01 X87.0963 Y16.2449
G01 X87.0784 Y16.2580
G01 X87.0593 Y16.2749
G01 X87.0441 Y16.2912
G01 X87.0358 Y16.3012
G01 X87.0228 Y16.3193
G01 X87.0115 Y16.3385
G01 X86.9758 Y16.4053
G01 X86.9652 Y16.4285
G01 X86.9569 Y16.4526
G01 X86.9516 Y16.4742
G01 X86.9479 Y16.4994
G01 X86.9467 Y16.5216
G01 X86.9466 Y16.5602
G01 X86.9402 Y16.6254
G01 X86.9250 Y16.6757
G01 X86.9002 Y16.7221
G01 X86.8668 Y16.7628
G01 X86.8261 Y16.7962
G01 X86.7797 Y16.8210
G01 X86.7294 Y16.8362
G01 X86.6642 Y16.8426
G01 X86.6256 Y16.8427
G01 X86.6034 Y16.8439
G01 X86.5782 Y16.8476
G01 X86.5535 Y16.8538
G01 X86.5294 Y16.8624
G01 X86.5093 Y16.8718
G01 X86.3643 Y16.9493
G01 X86.1254 Y17.0218
G01 X85.8770 Y17.0462
G01 X85.6959 Y17.0284
G01 X85.6736 Y17.0275
G01 X85.6482 Y17.0287
G01 X85.6229 Y17.0324
G01 X85.6045 Y17.0369
G01 X85.5951 Y17.0396
G01 X85.5742 Y17.0472
G01 X85.5511 Y17.0581
G01 X85.5347 Y17.0678
G01 X85.5265 Y17.0731
G01 X85.5087 Y17.0865
G01 X85.4898 Y17.1036
G01 X85.3649 Y17.2285
G01 X85.3527 Y17.2416
G01 X85.3350 Y17.2630
G01 X85.3169 Y17.2779
G01 X85.3005 Y17.2929
G01 X84.8569 Y17.7365
G01 X84.8419 Y17.7529
G01 X84.8270 Y17.7710
G01 X84.8089 Y17.7859
G01 X84.7925 Y17.8009
G01 X83.0619 Y19.5315
G01 X83.0471 Y19.5481
G01 X83.0319 Y19.5686
G01 X83.0188 Y19.5905
G01 X83.0079 Y19.6135
G01 X82.9993 Y19.6375
G01 X82.9931 Y19.6623
G01 X82.9894 Y19.6875
G01 X82.9881 Y19.7130
G01 X82.9881 Y19.7347
G01 X82.9891 Y19.7537
G01 X82.9920 Y19.7757
G01 X82.9938 Y19.7854
G01 X82.9984 Y19.8038
G01 X83.0055 Y19.8248
G01 X83.0092 Y19.8339
G01 X83.0173 Y19.8511
G01 X83.0301 Y19.8731
G01 X83.0451 Y19.8938
G01 X83.0597 Y19.9105
G01 X83.0689 Y19.9197
G01 X83.0857 Y19.9344
G01 X83.1036 Y19.9476
G01 X83.1226 Y19.9591
G01 X83.1313 Y19.9636
G01 X83.1516 Y19.9728
G01 X83.1726 Y19.9802
G01 X83.1941 Y19.9857
G01 X83.2193 Y19.9898
G01 X83.2448 Y19.9913
G01 X83.4082 Y19.9914
G01 X83.4734 Y19.9978
G01 X83.5237 Y20.0131
G01 X83.5701 Y20.0379
G01 X83.6108 Y20.0712
G01 X83.6442 Y20.1119
G01 X83.6690 Y20.1583
G01 X83.6842 Y20.2087
G01 X83.6906 Y20.2738
G01 X83.6906 Y22.4482
G01 X83.6842 Y22.5134
G01 X83.6690 Y22.5637
G01 X83.6442 Y22.6101
G01 X83.6108 Y22.6508
G01 X83.5701 Y22.6842
G01 X83.5237 Y22.7090
G01 X83.4734 Y22.7242
G01 X83.4082 Y22.7306
G01 X83.2480 Y22.7306
G01 X83.2258 Y22.7316
G01 X83.2037 Y22.7345
G01 X83.1941 Y22.7363
G01 X83.1726 Y22.7418
G01 X83.1516 Y22.7492
G01 X83.1426 Y22.7531
G01 X83.1255 Y22.7613
G01 X83.1036 Y22.7745
G01 X83.0831 Y22.7896
G01 X83.0689 Y22.8023
G01 X83.0619 Y22.8091
G01 X83.0492 Y22.8232
G01 X83.0431 Y22.8308
G01 X83.0319 Y22.8462
G01 X83.0220 Y22.8624
G01 X83.0173 Y22.8709
G01 X83.0092 Y22.8881
G01 X83.0003 Y22.9120
G01 X82.9945 Y22.9335
G01 X82.9920 Y22.9463
G01 X82.9894 Y22.9651
G01 X82.9881 Y22.9906
G01 X82.9881 Y24.5956
G01 X82.9894 Y24.6211
G01 X82.9925 Y24.6431
G01 X82.9945 Y24.6527
G01 X82.9993 Y24.6711
G01 X83.0079 Y24.6951
G01 X83.0188 Y24.7182
G01 X83.0284 Y24.7345
G01 X83.0337 Y24.7427
G01 X83.0471 Y24.7605
G01 X83.0597 Y24.7747
G01 X83.0666 Y24.7817
G01 X83.0806 Y24.7945
G01 X83.0883 Y24.8006
G01 X83.1036 Y24.8117
G01 X83.1925 Y24.8711
G01 X83.3829 Y25.0615
G01 X83.5325 Y25.2855
G01 X83.6356 Y25.5342
G01 X83.6881 Y25.7984
G01 X83.6881 Y26.0677
G01 X83.6356 Y26.3318
G01 X83.5325 Y26.5806
G01 X83.3829 Y26.8045
G01 X83.1925 Y26.9949
G01 X82.9686 Y27.1445
G01 X82.7198 Y27.2476
G01 X82.4557 Y27.3001
G01 X82.1864 Y27.3001
G01 X81.9222 Y27.2476
G01 X81.6735 Y27.1445
G01 X81.4495 Y26.9949
G01 X81.2591 Y26.8045
G01 X81.1095 Y26.5806
G01 X81.0065 Y26.3318
G01 X80.9539 Y26.0677
G01 X80.9539 Y25.7984
G01 X81.0065 Y25.5342
G01 X81.1095 Y25.2855
G01 X81.2591 Y25.0615
G01 X81.4495 Y24.8711
G01 X81.5384 Y24.8117
G01 X81.5564 Y24.7986
G01 X81.5638 Y24.7923
G01 X81.5778 Y24.7794
G01 X81.5907 Y24.7655
G01 X81.5970 Y24.7580
G01 X81.6101 Y24.7400
G01 X81.6232 Y24.7182
G01 X81.6341 Y24.6951
G01 X81.6407 Y24.6773
G01 X81.6445 Y24.6648
G01 X81.6495 Y24.6431
G01 X81.6527 Y24.6211
G01 X81.6539 Y24.5956
G01 X81.6539 Y22.9906
G01 X81.6527 Y22.9651
G01 X81.6500 Y22.9463
G01 X81.6475 Y22.9335
G01 X81.6418 Y22.9120
G01 X81.6354 Y22.8941
G01 X81.6315 Y22.8851
G01 X81.6232 Y22.8680
G01 X81.6136 Y22.8517
G01 X81.6083 Y22.8435
G01 X81.5970 Y22.8282
G01 X81.5801 Y22.8091
G01 X81.5731 Y22.8023
G01 X81.5589 Y22.7896
G01 X81.5384 Y22.7745
G01 X81.5165 Y22.7613
G01 X81.4994 Y22.7531
G01 X81.4905 Y22.7492
G01 X81.4695 Y22.7418
G01 X81.4479 Y22.7363
G01 X81.4383 Y22.7345
G01 X81.4162 Y22.7316
G01 X81.3940 Y22.7306
G01 X81.2338 Y22.7306
G01 X81.1687 Y22.7242
G01 X81.1183 Y22.7090
G01 X81.0719 Y22.6842
G01 X81.0312 Y22.6508
G01 X80.9979 Y22.6101
G01 X80.9731 Y22.5637
G01 X80.9578 Y22.5134
G01 X80.9514 Y22.4482
G01 X80.9514 Y20.2738
G01 X80.9578 Y20.2087
G01 X80.9731 Y20.1583
G01 X80.9979 Y20.1119
G01 X81.0312 Y20.0712
G01 X81.0719 Y20.0379
G01 X81.1183 Y20.0131
G01 X81.1687 Y19.9978
G01 X81.2338 Y19.9914
G01 X81.3973 Y19.9913
G01 X81.4227 Y19.9898
G01 X81.4415 Y19.9870
G01 X81.4511 Y19.9850
G01 X81.4695 Y19.9802
G01 X81.4935 Y19.9716
G01 X81.5165 Y19.9607
G01 X81.5329 Y19.9511
G01 X81.5437 Y19.9438
G01 X81.5614 Y19.9303
G01 X81.5778 Y19.9152
G01 X81.5928 Y19.8988
G01 X81.6064 Y19.8812
G01 X81.6136 Y19.8704
G01 X81.6232 Y19.8540
G01 X81.6341 Y19.8309
G01 X81.6427 Y19.8069
G01 X81.6475 Y19.7885
G01 X81.6495 Y19.7790
G01 X81.6527 Y19.7569
G01 X81.6539 Y19.7315
G01 X81.6539 Y19.3745
G01 X81.6530 Y19.3523
G01 X81.6507 Y19.3290
G01 X81.6636 Y19.1982
G01 X81.7017 Y19.0725
G01 X81.7637 Y18.9566
G01 X81.8470 Y18.8550
G01 X81.8651 Y18.8401
G01 X81.8815 Y18.8251
G01 X83.6098 Y17.0968
G01 X83.6248 Y17.0804
G01 X83.6309 Y17.0728
G01 X83.6421 Y17.0574
G01 X83.6552 Y17.0356
G01 X83.6635 Y17.0185
G01 X83.6674 Y17.0095
G01 X83.6738 Y16.9916
G01 X83.6765 Y16.9822
G01 X83.6809 Y16.9637
G01 X83.6839 Y16.9450
G01 X83.6850 Y16.9353
G01 X83.6859 Y16.9163
G01 X83.6859 Y15.4783
G01 X83.6847 Y15.4560
G01 X83.6809 Y15.4308
G01 X83.6747 Y15.4061
G01 X83.6685 Y15.3881
G01 X83.6635 Y15.3761
G01 X83.6537 Y15.3561
G01 X83.6421 Y15.3371
G01 X83.6269 Y15.3166
G01 X83.6098 Y15.2977
G01 X77.6643 Y9.3522
G01 X77.6454 Y9.3351
G01 X77.6249 Y9.3199
G01 X77.6030 Y9.3068
G01 X77.5859 Y9.2985
G01 X77.5769 Y9.2947
G01 X77.5560 Y9.2873
G01 X77.5312 Y9.2811
G01 X77.5060 Y9.2774
G01 X77.4805 Y9.2761
G01 X67.5724 Y9.2761
G01 X67.5469 Y9.2774
G01 X67.5217 Y9.2811
G01 X67.4970 Y9.2873
G01 X67.4729 Y9.2959
G01 X67.4499 Y9.3068
G01 X67.4335 Y9.3164
G01 X67.4253 Y9.3217
G01 X67.4050 Y9.3372
G01 X67.3910 Y9.3499
G01 X67.3841 Y9.3569
G01 X67.3736 Y9.3686
G01 X67.3675 Y9.3763
G01 X67.3563 Y9.3916
G01 X67.3464 Y9.4078
G01 X67.3417 Y9.4164
G01 X67.3336 Y9.4336
G01 X67.3247 Y9.4575
G01 X67.3219 Y9.4668
G01 X67.3175 Y9.4853
G01 X67.3137 Y9.5105
G01 X67.3125 Y9.5360
G01 X67.3137 Y9.5615
G01 X67.3175 Y9.5867
G01 X67.3219 Y9.6052
G01 X67.3247 Y9.6146
G01 X67.3336 Y9.6385
G01 X67.3417 Y9.6556
G01 X67.3464 Y9.6642
G01 X67.3563 Y9.6804
G01 X67.3675 Y9.6958
G01 X67.3736 Y9.7034
G01 X67.3886 Y9.7198
G01 X68.0370 Y10.3681
G01 X68.0510 Y10.3808
G01 X68.0587 Y10.3869
G01 X68.0740 Y10.3981
G01 X68.0930 Y10.4097
G01 X68.1017 Y10.4142
G01 X68.1189 Y10.4221
G01 X68.1399 Y10.4297
G01 X68.1492 Y10.4325
G01 X68.1677 Y10.4369
G01 X68.1865 Y10.4399
G01 X68.1962 Y10.4410
G01 X68.2184 Y10.4419
G01 X72.0860 Y10.4419
G01 X72.1082 Y10.4410
G01 X72.1610 Y10.4358
G01 X72.4094 Y10.4603
G01 X72.6483 Y10.5327
G01 X72.8684 Y10.6504
G01 X73.0613 Y10.8087
G01 X73.0950 Y10.8497
G01 X73.1100 Y10.8661
G01 X77.3848 Y15.1408
G01 X77.4039 Y15.1577
G01 X77.4246 Y15.1726
G01 X77.4466 Y15.1855
G01 X77.4638 Y15.1936
G01 X77.4729 Y15.1972
G01 X77.4939 Y15.2044
G01 X77.5187 Y15.2103
G01 X77.5375 Y15.2130
G01 X77.5854 Y15.2178
G01 X77.6357 Y15.2331
G01 X77.6821 Y15.2579
G01 X77.7228 Y15.2912
G01 X77.7562 Y15.3319
G01 X77.7810 Y15.3783
G01 X77.7962 Y15.4287
G01 X77.8026 Y15.4938
G01 X77.8027 Y15.5233
G01 X77.8042 Y15.5486
G01 X77.8070 Y15.5673
G01 X77.8090 Y15.5769
G01 X77.8137 Y15.5952
G01 X77.8210 Y15.6161
G01 X77.8249 Y15.6250
G01 X77.8330 Y15.6420
G01 X77.8460 Y15.6638
G01 X77.8611 Y15.6843
G01 X77.8736 Y15.6984
G01 X77.8804 Y15.7054
G01 X77.8968 Y15.7203
G01 X77.9118 Y15.7317
G01 X77.9198 Y15.7373
G01 X77.9388 Y15.7486
G01 X77.9617 Y15.7596
G01 X77.9794 Y15.7662
G01 X77.9887 Y15.7692
G01 X78.0101 Y15.7746
G01 X78.0352 Y15.7785
G01 X78.0541 Y15.7798
G01 X78.0638 Y15.7800
G01 X78.0859 Y15.7789
G01 X78.1079 Y15.7760
G01 X78.1174 Y15.7741
G01 X78.1326 Y15.7703
G01 X78.1655 Y15.7607
G01 X78.3599 Y15.9551
G01 X78.3424 Y16.0040
G01 X78.3394 Y16.0134
G01 X78.3195 Y16.0927
G01 X78.3175 Y16.1022
G01 X78.3047 Y16.1896
G01 X78.3002 Y16.2810
G01 X78.3047 Y16.3724
G01 X78.3175 Y16.4598
G01 X78.3195 Y16.4694
G01 X78.3394 Y16.5487
G01 X78.3424 Y16.5580
G01 X78.3599 Y16.6070
G01 X78.1655 Y16.8013
G01 X78.1324 Y16.7916
G01 X78.1174 Y16.7880
G01 X78.1079 Y16.7860
G01 X78.0859 Y16.7831
G01 X78.0638 Y16.7821
G01 X78.0541 Y16.7823
G01 X78.0352 Y16.7835
G01 X78.0101 Y16.7874
G01 X77.9856 Y16.7937
G01 X77.9678 Y16.8000
G01 X77.9587 Y16.8037
G01 X77.9388 Y16.8134
G01 X77.9171 Y16.8265
G01 X77.9019 Y16.8377
G01 X77.8919 Y16.8460
G01 X77.8758 Y16.8612
G01 X77.8632 Y16.8753
G01 X77.8571 Y16.8829
G01 X77.8460 Y16.8982
G01 X77.8362 Y16.9143
G01 X77.8316 Y16.9229
G01 X77.8235 Y16.9400
G01 X77.8147 Y16.9638
G01 X77.8120 Y16.9731
G01 X77.8076 Y16.9915
G01 X77.8039 Y17.0166
G01 X77.8027 Y17.0387
G01 X77.8026 Y17.0682
G01 X77.7962 Y17.1334
G01 X77.7810 Y17.1837
G01 X77.7562 Y17.2301
G01 X77.7228 Y17.2708
G01 X77.6821 Y17.3042
G01 X77.6346 Y17.3296
G01 X77.6129 Y17.3430
G01 X77.5977 Y17.3543
G01 X77.5902 Y17.3606
G01 X77.5762 Y17.3734
G01 X77.5634 Y17.3874
G01 X77.5551 Y17.3975
G01 X77.5421 Y17.4156
G01 X77.5308 Y17.4347
G01 X77.5225 Y17.4518
G01 X77.5187 Y17.4608
G01 X77.5113 Y17.4818
G01 X77.5058 Y17.5033
G01 X77.5040 Y17.5130
G01 X77.5014 Y17.5318
G01 X77.5001 Y17.5572
G01 X77.5001 Y21.3106
G01 X77.5011 Y21.3328
G01 X77.5038 Y21.3610
G01 X77.4890 Y21.5114
G01 X77.4451 Y21.6560
G01 X77.3739 Y21.7892
G01 X77.2780 Y21.9060
G01 X77.2562 Y21.9241
G01 X77.2398 Y21.9391
G01 X73.6068 Y25.5721
G01 X73.5917 Y25.5885
G01 X73.5856 Y25.5961
G01 X73.5745 Y25.6115
G01 X73.5613 Y25.6333
G01 X73.5517 Y25.6534
G01 X73.5481 Y25.6625
G01 X73.5418 Y25.6804
G01 X73.5363 Y25.7020
G01 X73.5345 Y25.7116
G01 X73.5319 Y25.7304
G01 X73.5306 Y25.7559
G01 X73.5306 Y27.0202
G01 X73.5242 Y27.0854
G01 X73.5090 Y27.1357
G01 X73.4839 Y27.1826
G01 X73.4719 Y27.1990
G01 X73.4604 Y27.2180
G01 X73.4559 Y27.2267
G01 X73.4467 Y27.2470
G01 X73.4393 Y27.2680
G01 X73.4331 Y27.2927
G01 X73.4294 Y27.3179
G01 X73.4281 Y27.3434
G01 X73.4281 Y36.6633
G01 X73.4098 Y36.8494
G01 X73.3373 Y37.0883
G01 X73.2197 Y37.3084
G01 X73.0613 Y37.5013
G01 X72.8684 Y37.6597
G01 X72.6483 Y37.7773
G01 X72.4094 Y37.8498
G01 X72.1433 Y37.8760
G01 X72.1245 Y37.8788
G01 X72.1149 Y37.8808
G01 X72.0966 Y37.8856
G01 X72.0756 Y37.8930
G01 X72.0524 Y37.9036
G01 X72.0303 Y37.9164
G01 X72.0097 Y37.9314
G01 X71.9906 Y37.9483
G01 X71.9732 Y37.9669
G01 X71.9577 Y37.9872
G01 X71.9444 Y38.0089
G01 X71.9332 Y38.0319
G01 X71.9295 Y38.0409
G01 X71.9233 Y38.0589
G01 X71.9171 Y38.0836
G01 X71.9134 Y38.1088
G01 X71.9121 Y38.1343
G01 X71.9121 Y40.2197
G01 X71.9129 Y40.2386
G01 X71.9137 Y40.2484
G01 X71.9165 Y40.2672
G01 X71.9185 Y40.2767
G01 X71.9233 Y40.2951
G01 X71.9295 Y40.3130
G01 X71.9332 Y40.3221
G01 X71.9428 Y40.3422
G01 X71.9541 Y40.3613
G01 X71.9597 Y40.3694
G01 X71.9711 Y40.3846
G01 X71.9837 Y40.3987
G01 X71.9906 Y40.4057
G01 X72.0046 Y40.4185
G01 X72.0123 Y40.4246
G01 X72.0276 Y40.4358
G01 X72.0495 Y40.4489
G01 X72.0725 Y40.4598
G01 X72.0966 Y40.4684
G01 X72.1149 Y40.4732
G01 X72.1245 Y40.4752
G01 X72.1433 Y40.4780
G01 X72.1688 Y40.4795
G01 X72.1942 Y40.4786
G01 X72.2181 Y40.4754
G01 X72.2360 Y40.4865
G01 X72.2475 Y40.4926
G01 X72.2649 Y40.5006
G01 X72.2890 Y40.5092
G01 X72.3139 Y40.5154
G01 X72.3327 Y40.5183
G01 X72.3425 Y40.5193
G01 X72.3648 Y40.5202
G01 X72.3904 Y40.5189
G01 X72.4093 Y40.5162
G01 X72.4189 Y40.5143
G01 X72.4437 Y40.5077
G01 X72.4616 Y40.5011
G01 X72.4706 Y40.4972
G01 X72.4848 Y40.4904
G01 X72.4934 Y40.4856
G01 X72.5096 Y40.4755
G01 X72.5250 Y40.4642
G01 X72.5326 Y40.4580
G01 X72.5466 Y40.4451
G01 X72.5618 Y40.4287
G01 X72.5700 Y40.4185
G01 X72.5829 Y40.4003
G01 X72.5941 Y40.3809
G01 X72.6049 Y40.3577
G01 X72.6133 Y40.3335
G01 X72.6542 Y40.1942
G01 X72.6663 Y40.1877
G01 X72.8903 Y40.1076
G01 X73.1193 Y40.0737
G01 X73.3505 Y40.0851
G01 X73.5750 Y40.1413
G01 X73.6880 Y40.1948
G01 X73.5030 Y40.3799
G01 X73.4478 Y40.3603
G01 X73.3622 Y40.3388
G01 X73.3526 Y40.3370
G01 X73.2717 Y40.3250
G01 X73.2619 Y40.3242
G01 X73.1770 Y40.3202
G01 X73.0921 Y40.3242
G01 X73.0823 Y40.3250
G01 X73.0014 Y40.3370
G01 X72.9887 Y40.3395
G01 X72.9062 Y40.3603
G01 X72.8261 Y40.3888
G01 X72.8141 Y40.3938
G01 X72.7373 Y40.4303
G01 X72.6643 Y40.4739
G01 X72.6534 Y40.4811
G01 X72.5852 Y40.5319
G01 X72.5221 Y40.5889
G01 X72.5129 Y40.5981
G01 X72.4602 Y40.6563
G01 X72.4519 Y40.6664
G01 X72.4014 Y40.7347
G01 X72.3543 Y40.8133
G01 X72.3152 Y40.8960
G01 X72.2864 Y40.9760
G01 X72.2826 Y40.9885
G01 X72.2621 Y41.0710
G01 X72.2495 Y41.1551
G01 X72.2482 Y41.1681
G01 X72.2442 Y41.2530
G01 X72.2482 Y41.3379
G01 X72.2495 Y41.3509
G01 X72.2621 Y41.4350
G01 X72.2826 Y41.5175
G01 X72.2864 Y41.5300
G01 X72.3152 Y41.6100
G01 X72.3543 Y41.6928
G01 X72.4014 Y41.7713
G01 X72.4519 Y41.8397
G01 X72.4602 Y41.8497
G01 X72.5174 Y41.9126
G01 X72.5803 Y41.9699
G01 X72.5904 Y41.9781
G01 X72.6534 Y42.0249
G01 X72.6643 Y42.0321
G01 X72.7373 Y42.0757
G01 X72.8141 Y42.1122
G01 X72.8261 Y42.1172
G01 X72.9062 Y42.1457
G01 X72.9887 Y42.1665
G01 X73.0014 Y42.1691
G01 X73.0823 Y42.1810
G01 X73.0921 Y42.1819
G01 X73.1770 Y42.1859
G01 X73.2619 Y42.1819
G01 X73.2717 Y42.1810
G01 X73.3526 Y42.1691
G01 X73.3622 Y42.1673
G01 X73.4478 Y42.1457
G01 X73.5030 Y42.1261
G01 X73.6926 Y42.3157
G01 X73.6877 Y42.3183
G01 X73.4637 Y42.3984
G01 X73.2348 Y42.4324
G01 X73.0036 Y42.4210
G01 X72.7790 Y42.3647
G01 X72.6521 Y42.3046
G01 X72.6133 Y42.1725
G01 X72.6072 Y42.1545
G01 X72.6036 Y42.1453
G01 X72.5941 Y42.1251
G01 X72.5846 Y42.1086
G01 X72.5793 Y42.1003
G01 X72.5660 Y42.0823
G01 X72.5512 Y42.0656
G01 X72.5350 Y42.0502
G01 X72.5250 Y42.0418
G01 X72.5096 Y42.0305
G01 X72.4877 Y42.0172
G01 X72.4646 Y42.0061
G01 X72.4437 Y41.9984
G01 X72.4342 Y41.9956
G01 X72.4157 Y41.9910
G01 X72.3937 Y41.9875
G01 X72.3839 Y41.9866
G01 X72.3648 Y41.9858
G01 X72.3458 Y41.9865
G01 X72.3360 Y41.9873
G01 X72.3139 Y41.9907
G01 X72.2890 Y41.9968
G01 X72.2649 Y42.0054
G01 X72.2417 Y42.0163
G01 X72.2181 Y42.0306
G01 X72.1975 Y42.0277
G01 X72.1785 Y42.0266
G01 X72.1688 Y42.0265
G01 X72.1498 Y42.0274
G01 X72.1401 Y42.0285
G01 X72.1213 Y42.0314
G01 X72.1028 Y42.0359
G01 X72.0935 Y42.0386
G01 X72.0696 Y42.0475
G01 X72.0466 Y42.0587
G01 X72.0249 Y42.0721
G01 X72.0097 Y42.0834
G01 X72.0022 Y42.0897
G01 X71.9859 Y42.1049
G01 X71.9691 Y42.1240
G01 X71.9541 Y42.1447
G01 X71.9444 Y42.1610
G01 X71.9399 Y42.1697
G01 X71.9319 Y42.1869
G01 X71.9253 Y42.2047
G01 X71.9224 Y42.2140
G01 X71.9185 Y42.2293
G01 X71.9165 Y42.2389
G01 X71.9137 Y42.2576
G01 X71.9123 Y42.2798
G01 X71.9121 Y43.7956
G01 X71.9134 Y43.8211
G01 X71.9171 Y43.8463
G01 X71.9233 Y43.8711
G01 X71.9319 Y43.8951
G01 X71.9428 Y43.9181
G01 X71.9559 Y43.9400
G01 X71.9711 Y43.9605
G01 X71.9882 Y43.9794
G01 X72.6566 Y44.6478
G01 X72.6755 Y44.6649
G01 X72.6907 Y44.6764
G01 X72.7015 Y44.6836
G01 X72.7208 Y44.6947
G01 X72.7440 Y44.7054
G01 X72.7619 Y44.7117
G01 X72.7712 Y44.7145
G01 X72.7897 Y44.7189
G01 X72.8085 Y44.7219
G01 X72.8182 Y44.7230
G01 X72.8371 Y44.7239
G01 X73.5136 Y44.7239
G01 X73.5326 Y44.7232
G01 X73.5423 Y44.7223
G01 X73.5579 Y44.7200
G01 X73.5707 Y44.7175
G01 X73.5922 Y44.7117
G01 X73.6161 Y44.7029
G01 X73.6361 Y44.6932
G01 X73.6580 Y44.6801
G01 X73.6785 Y44.6649
G01 X73.6951 Y44.6501
G01 X75.1389 Y43.2063
G01 X75.1540 Y43.1899
G01 X75.1720 Y43.1680
G01 X75.2888 Y43.0721
G01 X75.4220 Y43.0009
G01 X75.5666 Y42.9570
G01 X75.7170 Y42.9422
G01 X75.7452 Y42.9450
G01 X75.7675 Y42.9459
G01 X77.1684 Y42.9459
G01 X77.1910 Y42.9446
G01 X77.2166 Y42.9408
G01 X77.2417 Y42.9344
G01 X77.2626 Y42.9269
G01 X77.2860 Y42.9351
G01 X77.3103 Y42.9411
G01 X77.3352 Y42.9447
G01 X77.3602 Y42.9459
G01 X89.3826 Y42.9459
G01 X89.4048 Y42.9450
G01 X89.4330 Y42.9422
G01 X89.5834 Y42.9570
G01 X89.7280 Y43.0009
G01 X89.8612 Y43.0721
G01 X89.9780 Y43.1680
G01 X89.9961 Y43.1899
G01 X90.0111 Y43.2063
G01 X91.4637 Y44.6589
G01 X91.4802 Y44.6740
G01 X91.5020 Y44.6920
G01 X91.5854 Y44.7933
G01 X91.5960 Y44.8049
G01 X91.6030 Y44.8117
G01 X91.6172 Y44.8244
G01 X91.6323 Y44.8358
G01 X91.6404 Y44.8414
G01 X91.6595 Y44.8527
G01 X91.6766 Y44.8609
G01 X91.6856 Y44.8648
G01 X91.7066 Y44.8722
G01 X91.7250 Y44.8770
G01 X91.7346 Y44.8790
G01 X91.7533 Y44.8818
G01 X91.7631 Y44.8826
G01 X91.7821 Y44.8834
G01 X92.0442 Y44.8834
G01 X92.1094 Y44.8898
G01 X92.1597 Y44.9051
G01 X92.2061 Y44.9299
G01 X92.2468 Y44.9632
G01 X92.2802 Y45.0039
G01 X92.3050 Y45.0503
G01 X92.3202 Y45.1007
G01 X92.3266 Y45.1658
G01 X92.3266 Y47.3402
G01 X92.3202 Y47.4054
G01 X92.3050 Y47.4557
G01 X92.2802 Y47.5021
G01 X92.2468 Y47.5428
G01 X92.2061 Y47.5762
G01 X92.1597 Y47.6010
G01 X92.1094 Y47.6162
G01 X92.0442 Y47.6226
G01 X89.8698 Y47.6226
G01 X89.8047 Y47.6162
G01 X89.7543 Y47.6010
G01 X89.7079 Y47.5762
G01 X89.6672 Y47.5428
G01 X89.6339 Y47.5021
G01 X89.6091 Y47.4557
G01 X89.5938 Y47.4054
G01 X89.5874 Y47.3402
G01 X89.5874 Y45.1658
G01 X89.5948 Y45.0904
G01 X89.5957 Y45.0682
G01 X89.5945 Y45.0427
G01 X89.5918 Y45.0239
G01 X89.5901 Y45.0143
G01 X89.5845 Y44.9928
G01 X89.5783 Y44.9748
G01 X89.5747 Y44.9657
G01 X89.5665 Y44.9486
G01 X89.5618 Y44.9400
G01 X89.5519 Y44.9238
G01 X89.5407 Y44.9085
G01 X89.5346 Y44.9008
G01 X89.5196 Y44.8844
G01 X89.1867 Y44.5517
G01 X89.1725 Y44.5391
G01 X89.1520 Y44.5239
G01 X89.1301 Y44.5108
G01 X89.1071 Y44.4999
G01 X89.0831 Y44.4913
G01 X89.0583 Y44.4851
G01 X89.0331 Y44.4814
G01 X89.0141 Y44.4803
G01 X87.5921 Y44.4801
G01 X87.5698 Y44.4811
G01 X87.5601 Y44.4821
G01 X87.5413 Y44.4851
G01 X87.5229 Y44.4896
G01 X87.5135 Y44.4923
G01 X87.4956 Y44.4987
G01 X87.4866 Y44.5025
G01 X87.4695 Y44.5108
G01 X87.4504 Y44.5221
G01 X87.4423 Y44.5277
G01 X87.4272 Y44.5391
G01 X87.4130 Y44.5517
G01 X87.4060 Y44.5586
G01 X87.3932 Y44.5726
G01 X87.3871 Y44.5803
G01 X87.3759 Y44.5956
G01 X87.3644 Y44.6146
G01 X87.3599 Y44.6233
G01 X87.3507 Y44.6436
G01 X87.3433 Y44.6646
G01 X87.3378 Y44.6861
G01 X87.3360 Y44.6957
G01 X87.3331 Y44.7178
G01 X87.3321 Y44.7400
G01 X87.3331 Y44.7622
G01 X87.3360 Y44.7843
G01 X87.3378 Y44.7939
G01 X87.3433 Y44.8155
G01 X87.3507 Y44.8364
G01 X87.3599 Y44.8567
G01 X87.3644 Y44.8654
G01 X87.3759 Y44.8844
G01 X87.3891 Y44.9024
G01 X87.4038 Y44.9191
G01 X87.4130 Y44.9283
G01 X87.4272 Y44.9409
G01 X87.4477 Y44.9561
G01 X87.4695 Y44.9692
G01 X87.4866 Y44.9775
G01 X87.5406 Y45.0000
G01 X87.7645 Y45.1496
G01 X87.9549 Y45.3400
G01 X88.1045 Y45.5640
G01 X88.2076 Y45.8127
G01 X88.2601 Y46.0769
G01 X88.2601 Y46.3462
G01 X88.2076 Y46.6103
G01 X88.1045 Y46.8591
G01 X87.9549 Y47.0830
G01 X87.7645 Y47.2734
G01 X87.5406 Y47.4230
G01 X87.2918 Y47.5261
G01 X87.0277 Y47.5786
G01 X86.7584 Y47.5786
G01 X86.4942 Y47.5261
G01 X86.2455 Y47.4230
G01 X86.0215 Y47.2734
G01 X85.8287 Y47.0806
G01 X85.8213 Y47.0711
G01 X85.8062 Y47.0547
G01 X85.7873 Y47.0376
G01 X85.7722 Y47.0262
G01 X85.7614 Y47.0189
G01 X85.7421 Y47.0078
G01 X85.7219 Y46.9984
G01 X85.7041 Y46.9918
G01 X85.6948 Y46.9889
G01 X85.6732 Y46.9836
G01 X85.6512 Y46.9802
G01 X85.6414 Y46.9794
G01 X85.6225 Y46.9786
G01 X78.7239 Y46.9786
G01 X78.6984 Y46.9798
G01 X78.6796 Y46.9825
G01 X78.6700 Y46.9843
G01 X78.6485 Y46.9898
G01 X78.6244 Y46.9984
G01 X78.6072 Y47.0064
G01 X78.5957 Y47.0125
G01 X78.5768 Y47.0242
G01 X78.5590 Y47.0376
G01 X78.5401 Y47.0547
G01 X77.9751 Y47.6197
G01 X77.9601 Y47.6361
G01 X77.9413 Y47.6589
G01 X77.9282 Y47.6710
G01 X77.9154 Y47.6850
G01 X77.9071 Y47.6951
G01 X77.8941 Y47.7131
G01 X77.8828 Y47.7323
G01 X77.8732 Y47.7523
G01 X77.8653 Y47.7732
G01 X77.8616 Y47.7856
G01 X77.8571 Y47.8041
G01 X77.8534 Y47.8293
G01 X77.8521 Y47.8548
G01 X77.8521 Y48.7238
G01 X77.8531 Y48.7460
G01 X77.8541 Y48.7557
G01 X77.8571 Y48.7745
G01 X77.8624 Y48.7961
G01 X77.8653 Y48.8054
G01 X77.8719 Y48.8232
G01 X77.8828 Y48.8463
G01 X77.8959 Y48.8682
G01 X77.9111 Y48.8886
G01 X77.9282 Y48.9075
G01 X77.9446 Y48.9226
G01 X78.0143 Y48.9798
G01 X78.1601 Y49.1575
G01 X78.2685 Y49.3602
G01 X78.3352 Y49.5802
G01 X78.3577 Y49.8090
G01 X78.3352 Y50.0378
G01 X78.2685 Y50.2578
G01 X78.1601 Y50.4605
G01 X78.0143 Y50.6383
G01 X77.8365 Y50.7841
G01 X77.6338 Y50.8925
G01 X77.4138 Y50.9592
G01 X77.2423 Y50.9761
G01 X77.1071 Y50.9761
G01 X77.0849 Y50.9774
G01 X77.0629 Y50.9805
G01 X77.0533 Y50.9825
G01 X77.0350 Y50.9873
G01 X77.0140 Y50.9947
G01 X77.0050 Y50.9985
G01 X76.9879 Y51.0068
G01 X76.9715 Y51.0164
G01 X76.9633 Y51.0217
G01 X76.9455 Y51.0351
G01 X76.9266 Y51.0522
G01 X75.9682 Y52.0109
G01 X75.9556 Y52.0250
G01 X75.9404 Y52.0455
G01 X75.9273 Y52.0674
G01 X75.9190 Y52.0845
G01 X75.9140 Y52.0965
G01 X75.9069 Y52.1176
G01 X75.9016 Y52.1392
G01 X75.8978 Y52.1645
G01 X75.8966 Y52.1899
G01 X75.8978 Y52.2154
G01 X75.9016 Y52.2406
G01 X75.9078 Y52.2654
G01 X75.9164 Y52.2894
G01 X75.9273 Y52.3125
G01 X75.9404 Y52.3343
G01 X75.9535 Y52.3523
G01 X75.9598 Y52.3598
G01 X75.9727 Y52.3737
G01 X75.9867 Y52.3866
G01 X75.9941 Y52.3929
G01 X76.0121 Y52.4060
G01 X76.0283 Y52.4159
G01 X76.0924 Y52.4504
G01 X76.2853 Y52.6087
G01 X76.4437 Y52.8017
G01 X76.5613 Y53.0218
G01 X76.6338 Y53.2606
G01 X76.6525 Y53.4513
G01 X76.6534 Y53.4644
G01 X76.6577 Y53.5090
G01 X76.6531 Y53.5569
G01 X76.6521 Y53.5791
G01 X76.6521 Y53.9245
G01 X76.6531 Y53.9467
G01 X76.6541 Y53.9565
G01 X76.6571 Y53.9752
G01 X76.6624 Y53.9968
G01 X76.6653 Y54.0061
G01 X76.6719 Y54.0240
G01 X76.6799 Y54.0412
G01 X76.6844 Y54.0499
G01 X76.6959 Y54.0689
G01 X76.7111 Y54.0894
G01 X76.7282 Y54.1083
G01 X77.6921 Y55.0721
G01 X77.7086 Y55.0869
G01 X77.7291 Y55.1021
G01 X77.7510 Y55.1152
G01 X77.7681 Y55.1235
G01 X77.7801 Y55.1285
G01 X77.8012 Y55.1356
G01 X77.8228 Y55.1409
G01 X77.8480 Y55.1447
G01 X77.8735 Y55.1459
G01 X78.3118 Y55.1459
G01 X78.3340 Y55.1447
G01 X78.3528 Y55.1420
G01 X78.3624 Y55.1403
G01 X78.3840 Y55.1347
G01 X78.4049 Y55.1274
G01 X78.4139 Y55.1235
G01 X78.4310 Y55.1152
G01 X78.4529 Y55.1021
G01 X78.4709 Y55.0890
G01 X78.4783 Y55.0827
G01 X78.4923 Y55.0698
G01 X78.5073 Y55.0534
G01 X78.5134 Y55.0458
G01 X78.5264 Y55.0277
G01 X78.5377 Y55.0085
G01 X78.5474 Y54.9885
G01 X78.5510 Y54.9794
G01 X78.5581 Y54.9583
G01 X78.5634 Y54.9367
G01 X78.5664 Y54.9180
G01 X78.5675 Y54.9082
G01 X78.5684 Y54.8860
G01 X78.5677 Y54.8670
G01 X78.5668 Y54.8573
G01 X78.5640 Y54.8385
G01 X78.5620 Y54.8289
G01 X78.5572 Y54.8106
G01 X78.5498 Y54.7896
G01 X78.5460 Y54.7806
G01 X78.5377 Y54.7635
G01 X78.5264 Y54.7443
G01 X78.5209 Y54.7363
G01 X78.5094 Y54.7211
G01 X78.4968 Y54.7069
G01 X78.4900 Y54.6999
G01 X78.4734 Y54.6851
G01 X78.4529 Y54.6699
G01 X78.4367 Y54.6600
G01 X78.4252 Y54.6539
G01 X78.4049 Y54.6447
G01 X78.3840 Y54.6373
G01 X78.2362 Y54.5925
G01 X78.0335 Y54.4841
G01 X77.8558 Y54.3383
G01 X77.7099 Y54.1605
G01 X77.6015 Y53.9578
G01 X77.5348 Y53.7378
G01 X77.5123 Y53.5090
G01 X77.5348 Y53.2802
G01 X77.6015 Y53.0602
G01 X77.7099 Y52.8575
G01 X77.8558 Y52.6798
G01 X78.0335 Y52.5339
G01 X78.2362 Y52.4255
G01 X78.4562 Y52.3588
G01 X78.6277 Y52.3419
G01 X78.9423 Y52.3419
G01 X79.1138 Y52.3588
G01 X79.3338 Y52.4255
G01 X79.5365 Y52.5339
G01 X79.7143 Y52.6798
G01 X79.7694 Y52.7469
G01 X79.7842 Y52.7635
G01 X79.8029 Y52.7808
G01 X79.8232 Y52.7963
G01 X79.8421 Y52.8080
G01 X79.8506 Y52.8127
G01 X79.8708 Y52.8221
G01 X79.8917 Y52.8297
G01 X79.9132 Y52.8355
G01 X79.9228 Y52.8375
G01 X79.9448 Y52.8407
G01 X79.9670 Y52.8419
G01 X91.0640 Y52.8419
G01 X91.0830 Y52.8412
G01 X91.0928 Y52.8403
G01 X91.1115 Y52.8375
G01 X91.1211 Y52.8355
G01 X91.1395 Y52.8307
G01 X91.1574 Y52.8245
G01 X91.1665 Y52.8209
G01 X91.1866 Y52.8112
G01 X91.2084 Y52.7981
G01 X91.2238 Y52.7869
G01 X91.2314 Y52.7808
G01 X91.2478 Y52.7658
G01 X95.9143 Y48.0991
G01 X95.9269 Y48.0849
G01 X95.9384 Y48.0698
G01 X95.9439 Y48.0617
G01 X95.9537 Y48.0454
G01 X95.9582 Y48.0367
G01 X95.9661 Y48.0195
G01 X95.9727 Y48.0017
G01 X95.9756 Y47.9924
G01 X95.9815 Y47.9675
G01 X95.9843 Y47.9488
G01 X95.9852 Y47.9390
G01 X95.9859 Y47.9200
G01 X95.9859 Y47.7989
G01 X96.0269 Y47.5928
G01 X96.1074 Y47.3986
G01 X96.2242 Y47.2238
G01 X96.3728 Y47.0752
G01 X96.5476 Y46.9584
G01 X96.7418 Y46.8779
G01 X96.9479 Y46.8369
G01 X97.1581 Y46.8369
G01 X97.3643 Y46.8779
G01 X97.5585 Y46.9584
G01 X97.7332 Y47.0752
G01 X97.8212 Y47.1631
G01 X97.8378 Y47.1779
G01 X97.8583 Y47.1931
G01 X97.8773 Y47.2047
G01 X97.8860 Y47.2092
G01 X97.9032 Y47.2171
G01 X97.9210 Y47.2237
G01 X97.9304 Y47.2266
G01 X97.9520 Y47.2319
G01 X97.9707 Y47.2349
G01 X97.9804 Y47.2360
G01 X98.0027 Y47.2369
G01 X100.5733 Y47.2368
G01 X100.5923 Y47.2357
G01 X100.6175 Y47.2319
G01 X100.6423 Y47.2257
G01 X100.6663 Y47.2171
G01 X100.6893 Y47.2062
G01 X100.7112 Y47.1931
G01 X100.7317 Y47.1779
G01 X100.7506 Y47.1608
G01 X100.7677 Y47.1419
G01 X100.7792 Y47.1267
G01 X100.7864 Y47.1159
G01 X100.7975 Y47.0966
G01 X100.8070 Y47.0765
G01 X100.8135 Y47.0587
G01 X100.8311 Y47.0013
G01 X100.8559 Y46.9549
G01 X100.8892 Y46.9142
G01 X100.9299 Y46.8809
G01 X100.9763 Y46.8561
G01 X101.0267 Y46.8408
G01 X101.0918 Y46.8344
G01 X101.2422 Y46.8344
G01 X101.2612 Y46.8336
G01 X101.2709 Y46.8328
G01 X101.2897 Y46.8300
G01 X101.3145 Y46.8241
G01 X101.3356 Y46.8169
G01 X101.3446 Y46.8133
G01 X101.3647 Y46.8037
G01 X101.3838 Y46.7924
G01 X101.3919 Y46.7868
G01 X101.4096 Y46.7733
G01 X101.4260 Y46.7582
G01 X101.4410 Y46.7418
G01 X101.4545 Y46.7242
G01 X101.4618 Y46.7134
G01 X101.4714 Y46.6970
G01 X101.4823 Y46.6739
G01 X101.4909 Y46.6499
G01 X101.4964 Y46.6284
G01 X101.5000 Y46.6064
G01 X101.5013 Y46.5934
G01 X101.5021 Y46.5745
G01 X101.5008 Y46.5490
G01 X101.4971 Y46.5238
G01 X101.4926 Y46.5053
G01 X101.4889 Y46.4928
G01 X101.4810 Y46.4720
G01 X101.4714 Y46.4519
G01 X101.4583 Y46.4301
G01 X101.4431 Y46.4096
G01 X101.4282 Y46.3930
G01 X101.4120 Y46.3778
G01 X101.4019 Y46.3695
G01 X101.3866 Y46.3584
G01 X101.1988 Y46.2329
G01 X101.1131 Y46.1472
G01 X101.0992 Y46.1344
G01 X101.0917 Y46.1281
G01 X101.0710 Y46.1131
G01 X101.0490 Y46.1003
G01 X101.0258 Y46.0897
G01 X101.0017 Y46.0814
G01 X100.9801 Y46.0761
G01 X100.9613 Y46.0731
G01 X100.9516 Y46.0721
G01 X100.9294 Y46.0711
G01 X98.9165 Y46.0711
G01 X98.8943 Y46.0721
G01 X98.8710 Y46.0743
G01 X98.7402 Y46.0614
G01 X98.6145 Y46.0233
G01 X98.4986 Y45.9614
G01 X98.3970 Y45.8780
G01 X98.3821 Y45.8599
G01 X98.3671 Y45.8435
G01 X94.4785 Y41.9549
G01 X94.4644 Y41.9422
G01 X94.4568 Y41.9361
G01 X94.4414 Y41.9249
G01 X94.4252 Y41.9150
G01 X94.4166 Y41.9103
G01 X94.3995 Y41.9021
G01 X94.3904 Y41.8985
G01 X94.3725 Y41.8923
G01 X94.3541 Y41.8875
G01 X94.3445 Y41.8855
G01 X94.3257 Y41.8827
G01 X94.3160 Y41.8818
G01 X94.2970 Y41.8811
G01 X94.2780 Y41.8818
G01 X94.2683 Y41.8827
G01 X94.2495 Y41.8855
G01 X94.2399 Y41.8875
G01 X94.2185 Y41.8933
G01 X94.1975 Y41.9009
G01 X94.1774 Y41.9103
G01 X94.1688 Y41.9150
G01 X94.1499 Y41.9267
G01 X94.1321 Y41.9401
G01 X94.1179 Y41.9527
G01 X94.1109 Y41.9595
G01 X94.0961 Y41.9761
G01 X94.0827 Y41.9939
G01 X94.0774 Y42.0021
G01 X94.0678 Y42.0185
G01 X94.0582 Y42.0385
G01 X94.0503 Y42.0593
G01 X94.0474 Y42.0687
G01 X94.0428 Y42.0871
G01 X94.0410 Y42.0967
G01 X94.0384 Y42.1155
G01 X94.0371 Y42.1377
G01 X94.0371 Y42.5670
G01 X94.0384 Y42.5925
G01 X94.0410 Y42.6113
G01 X94.0428 Y42.6209
G01 X94.0483 Y42.6425
G01 X94.0545 Y42.6604
G01 X94.0582 Y42.6695
G01 X94.0663 Y42.6867
G01 X94.0710 Y42.6952
G01 X94.0791 Y42.7087
G01 X94.0847 Y42.7168
G01 X94.0961 Y42.7319
G01 X94.1087 Y42.7461
G01 X94.5715 Y43.2091
G01 X94.5879 Y43.2241
G01 X94.6060 Y43.2390
G01 X94.6894 Y43.3406
G01 X94.7513 Y43.4565
G01 X94.7894 Y43.5822
G01 X94.8023 Y43.7130
G01 X94.8001 Y43.7363
G01 X94.7991 Y43.7585
G01 X94.7991 Y47.8585
G01 X94.8001 Y47.8807
G01 X94.8023 Y47.9040
G01 X94.7894 Y48.0348
G01 X94.7513 Y48.1605
G01 X94.6894 Y48.2764
G01 X94.6060 Y48.3780
G01 X94.5879 Y48.3929
G01 X94.5715 Y48.4079
G01 X92.7309 Y50.2485
G01 X92.7159 Y50.2649
G01 X92.7010 Y50.2830
G01 X92.5994 Y50.3664
G01 X92.4835 Y50.4283
G01 X92.3578 Y50.4664
G01 X92.2270 Y50.4793
G01 X92.2037 Y50.4771
G01 X92.1815 Y50.4761
G01 X82.0086 Y50.4761
G01 X81.9832 Y50.4777
G01 X81.9580 Y50.4818
G01 X81.9333 Y50.4883
G01 X81.9094 Y50.4972
G01 X81.8865 Y50.5084
G01 X81.8648 Y50.5217
G01 X81.8445 Y50.5372
G01 X81.8258 Y50.5546
G01 X81.8089 Y50.5737
G01 X81.7940 Y50.5943
G01 X81.7812 Y50.6164
G01 X81.7706 Y50.6396
G01 X81.7623 Y50.6637
G01 X81.7564 Y50.6885
G01 X81.7536 Y50.7073
G01 X81.7482 Y50.7614
G01 X81.7330 Y50.8117
G01 X81.7082 Y50.8581
G01 X81.6748 Y50.8988
G01 X81.6341 Y50.9322
G01 X81.5877 Y50.9570
G01 X81.5374 Y50.9722
G01 X81.4722 Y50.9786
G01 X79.4978 Y50.9786
G01 X79.4327 Y50.9722
G01 X79.3823 Y50.9570
G01 X79.3359 Y50.9322
G01 X79.2952 Y50.8988
G01 X79.2619 Y50.8581
G01 X79.2371 Y50.8117
G01 X79.2218 Y50.7614
G01 X79.2154 Y50.6962
G01 X79.2154 Y48.9218
G01 X79.2218 Y48.8567
G01 X79.2371 Y48.8063
G01 X79.2619 Y48.7599
G01 X79.2952 Y48.7192
G01 X79.3359 Y48.6859
G01 X79.3823 Y48.6611
G01 X79.4327 Y48.6458
G01 X79.4978 Y48.6394
G01 X81.4722 Y48.6394
G01 X81.5374 Y48.6458
G01 X81.5877 Y48.6611
G01 X81.6341 Y48.6859
G01 X81.6748 Y48.7192
G01 X81.7082 Y48.7599
G01 X81.7330 Y48.8063
G01 X81.7482 Y48.8567
G01 X81.7536 Y48.9107
G01 X81.7564 Y48.9295
G01 X81.7623 Y48.9543
G01 X81.7706 Y48.9784
G01 X81.7812 Y49.0016
G01 X81.7940 Y49.0237
G01 X81.8089 Y49.0444
G01 X81.8258 Y49.0635
G01 X81.8445 Y49.0808
G01 X81.8648 Y49.0963
G01 X81.8865 Y49.1097
G01 X81.9094 Y49.1209
G01 X81.9333 Y49.1297
G01 X81.9580 Y49.1363
G01 X81.9832 Y49.1403
G01 X82.0054 Y49.1418
G01 X91.8430 Y49.1419
G01 X91.8653 Y49.1410
G01 X91.8905 Y49.1375
G01 X91.9122 Y49.1325
G01 X91.9247 Y49.1287
G01 X91.9455 Y49.1209
G01 X91.9656 Y49.1112
G01 X91.9874 Y49.0981
G01 X92.0079 Y49.0829
G01 X92.0245 Y49.0681
G01 X93.3888 Y47.7038
G01 X93.4059 Y47.6849
G01 X93.4211 Y47.6644
G01 X93.4342 Y47.6426
G01 X93.4439 Y47.6225
G01 X93.4475 Y47.6134
G01 X93.4537 Y47.5955
G01 X93.4599 Y47.5707
G01 X93.4637 Y47.5455
G01 X93.4649 Y47.5200
G01 X93.4649 Y44.0970
G01 X93.4642 Y44.0780
G01 X93.4633 Y44.0683
G01 X93.4605 Y44.0495
G01 X93.4585 Y44.0399
G01 X93.4537 Y44.0215
G01 X93.4475 Y44.0036
G01 X93.4439 Y43.9945
G01 X93.4342 Y43.9745
G01 X93.4229 Y43.9553
G01 X93.4174 Y43.9473
G01 X93.4059 Y43.9321
G01 X93.3933 Y43.9179
G01 X92.9305 Y43.4549
G01 X92.9141 Y43.4399
G01 X92.8960 Y43.4250
G01 X92.8127 Y43.3234
G01 X92.7507 Y43.2075
G01 X92.7126 Y43.0818
G01 X92.6997 Y42.9510
G01 X92.7020 Y42.9277
G01 X92.7029 Y42.9055
G01 X92.7029 Y41.9245
G01 X92.7013 Y41.8991
G01 X92.6985 Y41.8803
G01 X92.6965 Y41.8707
G01 X92.6917 Y41.8523
G01 X92.6855 Y41.8344
G01 X92.6819 Y41.8253
G01 X92.6737 Y41.8082
G01 X92.6690 Y41.7996
G01 X92.6573 Y41.7807
G01 X92.6439 Y41.7629
G01 X92.6313 Y41.7487
G01 X92.6245 Y41.7417
G01 X92.6079 Y41.7269
G01 X92.5927 Y41.7154
G01 X92.5847 Y41.7099
G01 X92.5655 Y41.6986
G01 X92.5455 Y41.6889
G01 X92.3566 Y41.6107
G01 X92.1818 Y41.4939
G01 X92.0332 Y41.3452
G01 X91.9164 Y41.1705
G01 X91.8359 Y40.9763
G01 X91.7949 Y40.7701
G01 X91.7949 Y40.5599
G01 X91.8359 Y40.3538
G01 X91.9164 Y40.1596
G01 X92.0332 Y39.9848
G01 X92.1818 Y39.8362
G01 X92.3566 Y39.7194
G01 X92.5508 Y39.6389
G01 X92.7569 Y39.5979
G01 X92.9671 Y39.5979
G01 X93.1733 Y39.6389
G01 X93.3675 Y39.7194
G01 X93.5422 Y39.8362
G01 X93.6909 Y39.9848
G01 X93.7547 Y40.0800
G01 X93.7682 Y40.0976
G01 X93.7809 Y40.1117
G01 X93.7879 Y40.1185
G01 X93.8021 Y40.1311
G01 X93.8199 Y40.1445
G01 X93.8388 Y40.1562
G01 X93.8474 Y40.1610
G01 X93.8675 Y40.1704
G01 X93.8885 Y40.1780
G01 X93.8978 Y40.1807
G01 X93.9195 Y40.1857
G01 X93.9448 Y40.1892
G01 X93.9638 Y40.1901
G01 X93.9735 Y40.1900
G01 X93.9925 Y40.1889
G01 X94.0113 Y40.1863
G01 X94.0209 Y40.1845
G01 X94.0362 Y40.1807
G01 X94.0456 Y40.1780
G01 X94.0634 Y40.1716
G01 X94.0866 Y40.1610
G01 X94.1087 Y40.1481
G01 X94.1294 Y40.1332
G01 X94.1368 Y40.1269
G01 X94.1508 Y40.1140
G01 X94.1679 Y40.0951
G01 X94.1831 Y40.0746
G01 X94.1962 Y40.0527
G01 X94.2071 Y40.0297
G01 X94.2137 Y40.0119
G01 X94.2166 Y40.0025
G01 X94.2225 Y39.9777
G01 X94.2253 Y39.9589
G01 X94.2262 Y39.9492
G01 X94.2269 Y39.9302
G01 X94.2269 Y27.9680
G01 X94.2257 Y27.9425
G01 X94.2225 Y27.9205
G01 X94.2205 Y27.9109
G01 X94.2148 Y27.8894
G01 X94.2071 Y27.8685
G01 X94.1977 Y27.8484
G01 X94.1930 Y27.8398
G01 X94.1813 Y27.8209
G01 X94.1679 Y27.8031
G01 X94.1531 Y27.7865
G01 X93.0618 Y26.6952
G01 X93.0454 Y26.6802
G01 X93.0378 Y26.6741
G01 X93.0251 Y26.6647
G01 X93.0169 Y26.6594
G01 X93.0006 Y26.6498
G01 X92.9835 Y26.6415
G01 X92.9745 Y26.6377
G01 X92.9566 Y26.6313
G01 X92.9472 Y26.6286
G01 X92.9287 Y26.6241
G01 X92.9035 Y26.6204
G01 X92.8813 Y26.6191
G01 X92.7569 Y26.6191
G01 X92.5508 Y26.5781
G01 X92.3566 Y26.4977
G01 X92.1818 Y26.3809
G01 X92.0332 Y26.2322
G01 X91.9164 Y26.0575
G01 X91.8359 Y25.8633
G01 X91.7949 Y25.6571
G01 X91.7949 Y25.4469
G01 X91.8359 Y25.2408
G01 X91.9164 Y25.0466
G01 X92.0332 Y24.8718
G01 X92.1188 Y24.7861
G01 X92.1317 Y24.7722
G01 X92.1380 Y24.7647
G01 X92.1493 Y24.7494
G01 X92.1627 Y24.7277
G01 X92.1672 Y24.7190
G01 X92.1751 Y24.7018
G01 X92.1828 Y24.6809
G01 X92.1855 Y24.6715
G01 X92.1899 Y24.6531
G01 X92.1929 Y24.6343
G01 X92.1940 Y24.6246
G01 X92.1949 Y24.6024
G01 X92.1949 Y21.9297
G01 X92.1937 Y21.9042
G01 X92.1910 Y21.8854
G01 X92.1893 Y21.8758
G01 X92.1846 Y21.8574
G01 X92.1817 Y21.8480
G01 X92.1751 Y21.8302
G01 X92.1672 Y21.8130
G01 X92.1627 Y21.8043
G01 X92.1511 Y21.7853
G01 X92.1359 Y21.7648
G01 X92.1211 Y21.7482
G01 X92.0332 Y21.6602
G01 X91.9164 Y21.4855
G01 X91.8359 Y21.2913
G01 X91.7949 Y21.0851
G01 X91.7949 Y20.8749
G01 X91.8359 Y20.6688
G01 X91.9164 Y20.4746
G01 X92.0332 Y20.2998
G01 X92.1818 Y20.1512
G01 X92.3566 Y20.0344
G01 X92.5508 Y19.9539
G01 X92.7569 Y19.9129
G01 X92.9671 Y19.9129
G01 X93.1733 Y19.9539
G01 X93.3675 Y20.0344
G01 X93.5422 Y20.1512
G01 X93.6909 Y20.2998
G01 X93.8077 Y20.4746
G01 X93.8881 Y20.6688
G01 X93.9291 Y20.8749
G01 X93.9291 Y21.0851
G01 X93.8881 Y21.2913
G01 X93.8077 Y21.4855
G01 X93.6909 Y21.6602
G01 X93.6029 Y21.7482
G01 X93.5881 Y21.7648
G01 X93.5729 Y21.7853
G01 X93.5614 Y21.8043
G01 X93.5569 Y21.8130
G01 X93.5489 Y21.8302
G01 X93.5423 Y21.8480
G01 X93.5394 Y21.8574
G01 X93.5348 Y21.8758
G01 X93.5330 Y21.8854
G01 X93.5304 Y21.9042
G01 X93.5291 Y21.9297
G01 X93.5291 Y24.6024
G01 X93.5304 Y24.6278
G01 X93.5330 Y24.6466
G01 X93.5355 Y24.6594
G01 X93.5413 Y24.6809
G01 X93.5489 Y24.7018
G01 X93.5583 Y24.7220
G01 X93.5694 Y24.7412
G01 X93.5767 Y24.7521
G01 X93.5881 Y24.7672
G01 X93.6029 Y24.7838
G01 X93.6909 Y24.8718
G01 X93.8077 Y25.0466
G01 X93.8881 Y25.2408
G01 X93.9291 Y25.4469
G01 X93.9291 Y25.5713
G01 X93.9304 Y25.5935
G01 X93.9335 Y25.6155
G01 X93.9355 Y25.6251
G01 X93.9403 Y25.6435
G01 X93.9489 Y25.6675
G01 X93.9569 Y25.6847
G01 X93.9614 Y25.6934
G01 X93.9711 Y25.7097
G01 X93.9767 Y25.7178
G01 X93.9881 Y25.7329
G01 X94.0052 Y25.7518
G01 X95.3335 Y27.0801
G01 X95.3499 Y27.0951
G01 X95.3680 Y27.1100
G01 X95.4514 Y27.2116
G01 X95.4804 Y27.2659
G01 X95.5133 Y27.3275
G01 X95.5514 Y27.4532
G01 X95.5643 Y27.5840
G01 X95.5621 Y27.6073
G01 X95.5611 Y27.6295
G01 X95.5611 Y33.9487
G01 X95.5624 Y33.9742
G01 X95.5661 Y33.9994
G01 X95.5723 Y34.0242
G01 X95.5785 Y34.0421
G01 X95.5822 Y34.0512
G01 X95.5903 Y34.0683
G01 X95.6031 Y34.0904
G01 X95.6181 Y34.1110
G01 X95.6349 Y34.1302
G01 X95.6536 Y34.1475
G01 X95.6739 Y34.1630
G01 X95.6956 Y34.1764
G01 X95.7186 Y34.1875
G01 X95.7276 Y34.1912
G01 X95.7456 Y34.1974
G01 X95.7703 Y34.2036
G01 X95.7955 Y34.2074
G01 X95.8210 Y34.2086
G01 X95.8465 Y34.2074
G01 X95.8717 Y34.2036
G01 X95.8965 Y34.1974
G01 X95.9205 Y34.1888
G01 X95.9406 Y34.1794
G01 X95.9492 Y34.1747
G01 X95.9654 Y34.1648
G01 X95.9859 Y34.1496
G01 X96.0025 Y34.1348
G01 X96.0093 Y34.1278
G01 X96.0219 Y34.1136
G01 X96.0353 Y34.0958
G01 X96.0487 Y34.0741
G01 X96.0599 Y34.0512
G01 X96.1074 Y33.9366
G01 X96.2242 Y33.7618
G01 X96.3728 Y33.6132
G01 X96.5476 Y33.4964
G01 X96.7418 Y33.4159
G01 X96.9479 Y33.3749
G01 X97.1581 Y33.3749
G01 X97.3643 Y33.4159
G01 X97.5585 Y33.4964
G01 X97.7332 Y33.6132
G01 X97.8819 Y33.7618
G01 X97.9987 Y33.9366
G01 X98.0791 Y34.1308
G01 X98.1201 Y34.3369
G01 X98.1201 Y34.5471
G01 X98.0791 Y34.7533
G01 X97.9987 Y34.9475
G01 X97.8819 Y35.1222
G01 X97.7962 Y35.2079
G01 X97.7834 Y35.2218
G01 X97.7771 Y35.2293
G01 X97.7657 Y35.2446
G01 X97.7524 Y35.2663
G01 X97.7479 Y35.2750
G01 X97.7399 Y35.2922
G01 X97.7333 Y35.3100
G01 X97.7304 Y35.3194
G01 X97.7258 Y35.3378
G01 X97.7240 Y35.3474
G01 X97.7214 Y35.3662
G01 X97.7201 Y35.3884
G01 X97.7203 Y39.3409
G01 X97.7214 Y39.3598
G01 X97.7240 Y39.3786
G01 X97.7258 Y39.3882
G01 X97.7313 Y39.4098
G01 X97.7399 Y39.4338
G01 X97.7479 Y39.4510
G01 X97.7524 Y39.4597
G01 X97.7639 Y39.4788
G01 X97.7771 Y39.4967
G01 X97.7834 Y39.5042
G01 X97.7962 Y39.5181
G01 X97.8236 Y39.5453
G01 X97.8378 Y39.5579
G01 X97.8529 Y39.5694
G01 X97.8610 Y39.5749
G01 X97.8802 Y39.5862
G01 X97.9002 Y39.5959
G01 X97.9093 Y39.5995
G01 X97.9272 Y39.6057
G01 X97.9456 Y39.6105
G01 X97.9552 Y39.6125
G01 X97.9740 Y39.6153
G01 X97.9837 Y39.6162
G01 X98.0027 Y39.6169
G01 X106.1908 Y39.6169
G01 X106.2163 Y39.6157
G01 X106.2383 Y39.6125
G01 X106.2600 Y39.6075
G01 X106.2725 Y39.6037
G01 X106.2903 Y39.5971
G01 X106.3134 Y39.5862
G01 X106.3352 Y39.5731
G01 X106.3506 Y39.5619
G01 X106.3761 Y39.5411
G01 X106.3925 Y39.5261
G01 X106.8938 Y39.0248
G01 X106.9067 Y39.0109
G01 X106.9149 Y39.0008
G01 X106.9279 Y38.9827
G01 X106.9392 Y38.9636
G01 X106.9501 Y38.9405
G01 X106.9587 Y38.9165
G01 X106.9635 Y38.8981
G01 X106.9660 Y38.8853
G01 X106.9690 Y38.8633
G01 X106.9699 Y38.8410
G01 X106.9699 Y31.6206
G01 X106.9690 Y31.5984
G01 X106.9614 Y31.5210
G01 X106.9955 Y31.1746
G01 X107.0965 Y30.8415
G01 X107.2606 Y30.5345
G01 X107.4814 Y30.2654
G01 X107.5415 Y30.2161
G01 X107.5579 Y30.2011
G01 X108.6266 Y29.1324
G01 X108.6938 Y29.0873
G01 X108.7090 Y29.0759
G01 X108.7665 Y29.0286
G01 X108.8322 Y28.9935
G01 X108.8485 Y28.9839
G01 X108.9160 Y28.9390
G01 X108.9908 Y28.9079
G01 X109.0079 Y28.8996
G01 X109.0735 Y28.8645
G01 X109.1447 Y28.8429
G01 X109.1627 Y28.8367
G01 X109.2376 Y28.8058
G01 X109.3170 Y28.7899
G01 X109.3354 Y28.7851
G01 X109.4066 Y28.7635
G01 X109.4807 Y28.7562
G01 X109.4995 Y28.7536
G01 X109.5790 Y28.7379
G01 X109.6600 Y28.7378
G01 X109.6789 Y28.7367
G01 X109.7530 Y28.7294
G01 X109.8271 Y28.7367
G01 X109.8461 Y28.7378
G01 X109.9271 Y28.7379
G01 X110.0065 Y28.7536
G01 X110.0253 Y28.7562
G01 X110.0994 Y28.7635
G01 X110.1707 Y28.7851
G01 X110.1890 Y28.7899
G01 X110.2685 Y28.8058
G01 X110.3434 Y28.8367
G01 X110.3613 Y28.8429
G01 X110.4325 Y28.8645
G01 X110.4982 Y28.8996
G01 X110.5153 Y28.9079
G01 X110.5900 Y28.9390
G01 X110.6575 Y28.9839
G01 X110.6739 Y28.9935
G01 X110.7395 Y29.0286
G01 X110.7970 Y29.0759
G01 X110.8122 Y29.0873
G01 X110.8795 Y29.1324
G01 X110.9368 Y29.1896
G01 X110.9510 Y29.2022
G01 X111.0086 Y29.2494
G01 X111.0558 Y29.3070
G01 X111.0684 Y29.3212
G01 X111.1256 Y29.3786
G01 X111.1707 Y29.4458
G01 X111.1822 Y29.4610
G01 X111.2294 Y29.5185
G01 X111.2645 Y29.5842
G01 X111.2741 Y29.6005
G01 X111.3190 Y29.6680
G01 X111.3501 Y29.7428
G01 X111.3584 Y29.7599
G01 X111.3935 Y29.8255
G01 X111.4151 Y29.8967
G01 X111.4213 Y29.9147
G01 X111.4522 Y29.9896
G01 X111.4681 Y30.0690
G01 X111.4729 Y30.0874
G01 X111.4945 Y30.1586
G01 X111.5018 Y30.2327
G01 X111.5045 Y30.2515
G01 X111.5201 Y30.3310
G01 X111.5203 Y30.4120
G01 X111.5214 Y30.4309
G01 X111.5286 Y30.5050
G01 X111.5214 Y30.5791
G01 X111.5203 Y30.5981
G01 X111.5201 Y30.6791
G01 X111.5045 Y30.7585
G01 X111.5018 Y30.7773
G01 X111.4945 Y30.8514
G01 X111.4729 Y30.9227
G01 X111.4681 Y30.9410
G01 X111.4522 Y31.0205
G01 X111.4213 Y31.0953
G01 X111.4151 Y31.1133
G01 X111.3935 Y31.1845
G01 X111.3584 Y31.2502
G01 X111.3501 Y31.2673
G01 X111.3190 Y31.3420
G01 X111.2741 Y31.4095
G01 X111.2645 Y31.4259
G01 X111.2294 Y31.4915
G01 X111.1822 Y31.5490
G01 X111.1707 Y31.5642
G01 X111.1256 Y31.6315
G01 X110.5802 Y32.1768
G01 X110.5631 Y32.1957
G01 X110.5479 Y32.2162
G01 X110.5364 Y32.2352
G01 X110.5265 Y32.2552
G01 X110.5215 Y32.2672
G01 X110.5153 Y32.2852
G01 X110.5091 Y32.3099
G01 X110.5054 Y32.3351
G01 X110.5043 Y32.3541
G01 X110.5041 Y47.6774
G01 X110.5051 Y47.6997
G01 X110.5126 Y47.7770
G01 X110.4785 Y48.1234
G01 X110.3775 Y48.4565
G01 X110.2134 Y48.7635
G01 X109.9926 Y49.0326
G01 X109.9325 Y49.0819
G01 X109.9161 Y49.0969
G01 X101.7972 Y57.2159
G01 X101.5955 Y57.3814
G01 X101.2885 Y57.5455
G01 X100.9554 Y57.6465
G01 X100.6090 Y57.6806
G01 X100.2626 Y57.6465
G01 X99.9295 Y57.5455
G01 X99.6225 Y57.3814
G01 X99.4368 Y57.2291
G01 X99.4189 Y57.2159
G01 X99.3999 Y57.2044
G01 X99.3912 Y57.1999
G01 X99.3740 Y57.1919
G01 X99.3530 Y57.1843
G01 X99.3437 Y57.1816
G01 X99.3252 Y57.1771
G01 X99.3064 Y57.1741
G01 X99.2967 Y57.1731
G01 X99.2745 Y57.1721
G01 X92.2329 Y57.1721
G01 X92.2107 Y57.1731
G01 X92.2010 Y57.1741
G01 X92.1790 Y57.1778
G01 X92.1575 Y57.1833
G01 X92.1365 Y57.1907
G01 X92.1275 Y57.1945
G01 X92.1075 Y57.2044
G01 X92.0885 Y57.2159
G01 X92.0732 Y57.2271
G01 X92.0655 Y57.2332
G01 X92.0491 Y57.2482
G01 X92.0320 Y57.2671
G01 X92.0192 Y57.2842
G01 X91.8285 Y57.4749
G01 X91.6046 Y57.6245
G01 X91.3558 Y57.7276
G01 X91.0917 Y57.7801
G01 X90.8224 Y57.7801
G01 X90.5582 Y57.7276
G01 X90.3912 Y57.6584
G01 X90.3703 Y57.6508
G01 X90.3488 Y57.6450
G01 X90.3361 Y57.6425
G01 X90.3172 Y57.6398
G01 X90.2918 Y57.6386
G01 X88.2969 Y57.6388
G01 X88.2779 Y57.6398
G01 X88.2527 Y57.6436
G01 X88.2280 Y57.6498
G01 X88.2040 Y57.6584
G01 X88.1867 Y57.6664
G01 X88.1780 Y57.6709
G01 X88.1590 Y57.6824
G01 X88.1426 Y57.6944
G01 X88.0957 Y57.7195
G01 X88.0454 Y57.7347
G01 X87.9802 Y57.7411
G01 X85.8058 Y57.7411
G01 X85.7407 Y57.7347
G01 X85.6903 Y57.7195
G01 X85.6711 Y57.7092
G01 X85.6540 Y57.7012
G01 X85.6449 Y57.6975
G01 X85.6239 Y57.6904
G01 X85.6023 Y57.6851
G01 X85.5835 Y57.6821
G01 X85.5738 Y57.6811
G01 X85.5516 Y57.6801
G01 X77.3160 Y57.6801
G01 X77.2938 Y57.6811
G01 X77.2410 Y57.6862
G01 X76.9926 Y57.6618
G01 X76.7538 Y57.5893
G01 X76.5337 Y57.4717
G01 X76.3407 Y57.3133
G01 X76.3070 Y57.2723
G01 X76.2920 Y57.2559
G01 X74.5421 Y55.5060
G01 X74.5257 Y55.4910
G01 X74.4847 Y55.4573
G01 X74.3264 Y55.2644
G01 X74.2087 Y55.0443
G01 X74.1363 Y54.8054
G01 X74.1118 Y54.5570
G01 X74.1170 Y54.5042
G01 X74.1179 Y54.4820
G01 X74.1179 Y53.5791
G01 X74.1170 Y53.5569
G01 X74.1123 Y53.5090
G01 X74.1167 Y53.4644
G01 X74.1175 Y53.4513
G01 X74.1363 Y53.2606
G01 X74.2087 Y53.0218
G01 X74.3264 Y52.8017
G01 X74.3422 Y52.7804
G01 X74.3521 Y52.7642
G01 X74.3568 Y52.7556
G01 X74.3662 Y52.7355
G01 X74.3738 Y52.7146
G01 X74.3765 Y52.7052
G01 X74.3816 Y52.6835
G01 X74.3847 Y52.6615
G01 X74.3858 Y52.6425
G01 X74.3859 Y52.6328
G01 X74.3847 Y52.6105
G01 X74.3816 Y52.5885
G01 X74.3796 Y52.5789
G01 X74.3748 Y52.5606
G01 X74.3674 Y52.5396
G01 X74.3636 Y52.5306
G01 X74.3553 Y52.5135
G01 X74.3440 Y52.4943
G01 X74.3384 Y52.4863
G01 X74.3270 Y52.4711
G01 X74.3121 Y52.4546
G01 X74.3051 Y52.4477
G01 X74.2884 Y52.4331
G01 X74.2705 Y52.4199
G01 X74.2486 Y52.4068
G01 X74.2255 Y52.3959
G01 X74.2077 Y52.3893
G01 X74.1952 Y52.3856
G01 X74.1736 Y52.3805
G01 X74.1515 Y52.3774
G01 X74.1293 Y52.3761
G01 X70.4555 Y52.3761
G01 X70.4332 Y52.3771
G01 X70.4050 Y52.3798
G01 X70.2546 Y52.3650
G01 X70.1100 Y52.3211
G01 X69.9768 Y52.2499
G01 X69.8600 Y52.1540
G01 X69.8420 Y52.1322
G01 X69.8269 Y52.1158
G01 X68.8587 Y51.1478
G01 X68.8445 Y51.1351
G01 X68.8241 Y51.1199
G01 X68.8022 Y51.1068
G01 X68.7791 Y51.0959
G01 X68.7551 Y51.0873
G01 X68.7304 Y51.0811
G01 X68.7051 Y51.0774
G01 X68.6829 Y51.0762
G01 X68.6574 Y51.0771
G01 X68.6050 Y51.0822
G01 X68.5522 Y51.0771
G01 X68.5300 Y51.0761
G01 X51.4575 Y51.0761
G01 X51.4320 Y51.0774
G01 X51.4100 Y51.0805
G01 X51.4004 Y51.0825
G01 X51.3790 Y51.0883
G01 X51.3581 Y51.0959
G01 X51.3408 Y51.1039
G01 X51.3321 Y51.1084
G01 X51.3131 Y51.1199
G01 X51.2978 Y51.1311
G01 X51.2901 Y51.1372
G01 X51.2737 Y51.1522
G01 X51.1361 Y51.2901
G01 X51.1235 Y51.3042
G01 X51.1101 Y51.3220
G01 X51.1048 Y51.3302
G01 X51.0937 Y51.3495
G01 X51.0843 Y51.3697
G01 X51.0767 Y51.3906
G01 X51.0709 Y51.4120
G01 X51.0684 Y51.4248
G01 X51.0658 Y51.4436
G01 X51.0425 Y51.6794
G01 X50.9415 Y52.0125
G01 X50.7774 Y52.3195
G01 X50.6119 Y52.5212
G01 X49.0969 Y54.0361
G01 X49.0819 Y54.0525
G01 X49.0326 Y54.1126
G01 X48.7635 Y54.3334
G01 X48.4565 Y54.4975
G01 X48.1234 Y54.5985
G01 X47.7770 Y54.6326
G01 X47.6997 Y54.6251
G01 X47.6775 Y54.6241
G01 X10.0982 Y54.6241
G01 X9.8386 Y54.5985
G01 X9.5055 Y54.4975
G01 X9.1985 Y54.3334
G01 X8.9294 Y54.1126
G01 X8.7086 Y53.8435
G01 X8.5445 Y53.5365
G01 X8.4435 Y53.2034
G01 X8.4199 Y52.9644
G01 X8.4165 Y52.9424
G01 X8.4121 Y52.9239
G01 X8.4093 Y52.9146
G01 X8.4029 Y52.8967
G01 X8.3991 Y52.8877
G01 X8.3908 Y52.8706
G01 X8.3777 Y52.8487
G01 X8.3665 Y52.8334
G01 X8.3604 Y52.8257
G01 X8.3454 Y52.8093
G01 X1.7221 Y46.1860
G01 X1.7057 Y46.1710
G01 X1.6647 Y46.1373
G01 X1.5064 Y45.9444
G01 X1.3887 Y45.7243
G01 X1.3163 Y45.4854
G01 X1.2918 Y45.2370
G01 X1.2970 Y45.1842
G01 X1.2979 Y45.1620
G01 X1.2979 Y20.4200
G01 X1.2967 Y20.3945
G00 Z2.0000
G00 X5.2742 Y21.6815
G01 F60.00
G01 Z-0.2000
G01 F120.00
G01 X5.1246 Y21.5319
G01 X5.1610 Y21.4582
G01 X5.3629 Y21.3503
G01 X5.7166 Y21.2353
G01 X6.0834 Y21.1917
G01 X6.4516 Y21.2206
G01 X6.8072 Y21.3207
G01 X7.0823 Y21.4608
G01 X7.1174 Y21.5319
G01 X6.9678 Y21.6815
G01 X6.8964 Y21.6387
G01 X6.8878 Y21.6340
G01 X6.7518 Y21.5696
G01 X6.7428 Y21.5657
G01 X6.5950 Y21.5130
G01 X6.4428 Y21.4747
G01 X6.4331 Y21.4729
G01 X6.2875 Y21.4513
G01 X6.2746 Y21.4500
G01 X6.1210 Y21.4427
G01 X5.9642 Y21.4502
G01 X5.9545 Y21.4513
G01 X5.8025 Y21.4740
G01 X5.6533 Y21.5112
G01 X5.6439 Y21.5140
G01 X5.5022 Y21.5646
G01 X5.4932 Y21.5682
G01 X5.3542 Y21.6340
G01 X5.3456 Y21.6387
G01 X5.2742 Y21.6815
G00 Z2.0000
G00 X7.5150 Y22.2287
G01 F60.00
G01 Z-0.2000
G01 F120.00
G01 X7.6646 Y22.0791
G01 X7.7383 Y22.1155
G01 X7.8462 Y22.3174
G01 X7.9613 Y22.6711
G01 X8.0048 Y23.0379
G01 X7.9759 Y23.4061
G01 X7.8758 Y23.7617
G01 X7.7357 Y24.0368
G01 X7.6646 Y24.0719
G01 X7.5150 Y23.9223
G01 X7.5578 Y23.8509
G01 X7.5626 Y23.8423
G01 X7.6269 Y23.7063
G01 X7.6308 Y23.6973
G01 X7.6836 Y23.5495
G01 X7.7218 Y23.3973
G01 X7.7236 Y23.3876
G01 X7.7452 Y23.2420
G01 X7.7465 Y23.2291
G01 X7.7539 Y23.0755
G01 X7.7463 Y22.9187
G01 X7.7452 Y22.9090
G01 X7.7225 Y22.7570
G01 X7.6853 Y22.6078
G01 X7.6826 Y22.5984
G01 X7.6319 Y22.4567
G01 X7.6283 Y22.4477
G01 X7.5626 Y22.3087
G01 X7.5578 Y22.3001
G01 X7.5150 Y22.2287
G00 Z2.0000
G00 X5.2742 Y24.4695
G01 F60.00
G01 Z-0.2000
G01 F120.00
G01 X5.3456 Y24.5123
G01 X5.3542 Y24.5171
G01 X5.4932 Y24.5828
G01 X5.5022 Y24.5864
G01 X5.6439 Y24.6371
G01 X5.6533 Y24.6398
G01 X5.8025 Y24.6770
G01 X5.9545 Y24.6997
G01 X5.9642 Y24.7008
G01 X6.1210 Y24.7084
G01 X6.2746 Y24.7010
G01 X6.2875 Y24.6997
G01 X6.4331 Y24.6781
G01 X6.4428 Y24.6763
G01 X6.5950 Y24.6381
G01 X6.7428 Y24.5853
G01 X6.7518 Y24.5814
G01 X6.8878 Y24.5171
G01 X6.8964 Y24.5123
G01 X6.9678 Y24.4695
G01 X7.1174 Y24.6191
G01 X7.0810 Y24.6928
G01 X6.8791 Y24.8007
G01 X6.5254 Y24.9158
G01 X6.1586 Y24.9593
G01 X5.7904 Y24.9304
G01 X5.4349 Y24.8303
G01 X5.1597 Y24.6902
G01 X5.1246 Y24.6191
G01 X5.2742 Y24.4695
G00 Z2.0000
G00 X4.6210 Y29.7884
G01 F60.00
G01 Z-0.2000
G01 F120.00
G01 X4.6080 Y29.7877
G01 X4.5951 Y29.7858
G01 X4.5824 Y29.7826
G01 X4.5702 Y29.7782
G01 X4.5584 Y29.7727
G01 X4.5472 Y29.7660
G01 X4.5367 Y29.7582
G01 X4.5271 Y29.7495
G01 X4.5183 Y29.7398
G01 X4.5124 Y29.7320
G01 X4.5054 Y29.7210
G01 X4.4996 Y29.7093
G01 X4.4949 Y29.6972
G01 X4.4914 Y29.6846
G01 X4.4892 Y29.6718
G01 X4.4882 Y29.6588
G01 X4.4882 Y26.6523
G01 X4.4892 Y26.6393
G01 X4.4914 Y26.6264
G01 X4.4949 Y26.6138
G01 X4.4996 Y26.6017
G01 X4.5054 Y26.5900
G01 X4.5124 Y26.5790
G01 X4.5226 Y26.5663
G01 X4.5318 Y26.5571
G01 X4.5393 Y26.5508
G01 X4.5499 Y26.5433
G01 X4.5613 Y26.5368
G01 X4.5732 Y26.5316
G01 X4.5856 Y26.5275
G01 X4.5983 Y26.5246
G01 X4.6112 Y26.5230
G01 X4.6210 Y26.5227
G01 X7.6210 Y26.5227
G01 X7.6373 Y26.5237
G01 X7.6469 Y26.5252
G01 X7.6596 Y26.5284
G01 X7.6688 Y26.5316
G01 X7.6778 Y26.5354
G01 X7.6865 Y26.5399
G01 X7.6948 Y26.5451
G01 X7.7027 Y26.5508
G01 X7.7102 Y26.5571
G01 X7.7172 Y26.5639
G01 X7.7257 Y26.5738
G01 X7.7315 Y26.5817
G01 X7.7366 Y26.5900
G01 X7.7411 Y26.5987
G01 X7.7450 Y26.6077
G01 X7.7481 Y26.6169
G01 X7.7506 Y26.6264
G01 X7.7529 Y26.6393
G01 X7.7539 Y26.6555
G01 X7.7539 Y27.0222
G01 X8.0011 Y27.0222
G01 X10.0677 Y24.9556
G01 X10.0677 Y18.4721
G01 X10.0506 Y18.4566
G01 X10.0436 Y18.4498
G01 X9.9382 Y18.3334
G01 X9.8427 Y18.2046
G01 X9.7603 Y18.0671
G01 X9.6918 Y17.9222
G01 X9.6378 Y17.7712
G01 X9.5988 Y17.6157
G01 X9.5753 Y17.4571
G01 X9.5675 Y17.3003
G01 X9.5676 Y17.2905
G01 X9.5748 Y17.1434
G01 X9.5761 Y17.1304
G01 X9.5988 Y16.9783
G01 X9.6378 Y16.8228
G01 X9.6918 Y16.6719
G01 X9.7574 Y16.5328
G01 X9.7635 Y16.5213
G01 X9.8392 Y16.3949
G01 X9.8446 Y16.3867
G01 X9.9382 Y16.2607
G01 X10.0459 Y16.1419
G01 X22.2379 Y3.9499
G01 X22.3567 Y3.8422
G01 X22.4801 Y3.7505
G01 X22.4909 Y3.7432
G01 X22.6173 Y3.6675
G01 X22.6258 Y3.6628
G01 X22.7619 Y3.5984
G01 X22.7739 Y3.5934
G01 X22.9188 Y3.5418
G01 X23.0680 Y3.5042
G01 X23.0807 Y3.5017
G01 X23.2329 Y3.4793
G01 X23.3930 Y3.4714
G01 X56.9210 Y3.4714
G01 X57.0811 Y3.4793
G01 X57.2397 Y3.5028
G01 X57.3952 Y3.5418
G01 X57.5462 Y3.5958
G01 X57.6911 Y3.6643
G01 X57.8231 Y3.7432
G01 X57.8339 Y3.7505
G01 X57.9522 Y3.8382
G01 X57.9623 Y3.8465
G01 X58.0761 Y3.9499
G01 X58.1795 Y4.0637
G01 X58.1878 Y4.0738
G01 X58.2793 Y4.1974
G01 X58.3617 Y4.3349
G01 X58.4303 Y4.4799
G01 X58.4843 Y4.6308
G01 X58.5232 Y4.7863
G01 X58.5459 Y4.9384
G01 X58.5472 Y4.9514
G01 X58.5546 Y5.1050
G01 X58.5472 Y5.2586
G01 X58.5459 Y5.2716
G01 X58.5243 Y5.4173
G01 X58.5218 Y5.4301
G01 X58.4843 Y5.5792
G01 X58.4333 Y5.7220
G01 X61.9872 Y9.2759
G01 X66.4930 Y9.2759
G01 X66.5486 Y9.2785
G01 X66.5583 Y9.2793
G01 X66.6165 Y9.2881
G01 X66.6705 Y9.3014
G01 X66.6830 Y9.3052
G01 X66.7353 Y9.3241
G01 X66.7915 Y9.3507
G01 X66.8392 Y9.3791
G01 X66.8501 Y9.3864
G01 X66.8895 Y9.4156
G01 X66.8971 Y9.4217
G01 X66.9407 Y9.4613
G01 X68.0760 Y10.5967
G01 X68.1819 Y10.5811
G01 X68.2930 Y10.5757
G01 X72.1643 Y10.5757
G01 X72.2721 Y10.5811
G01 X72.3821 Y10.5974
G01 X72.4900 Y10.6245
G01 X72.5917 Y10.6607
G01 X72.6007 Y10.6646
G01 X72.6953 Y10.7095
G01 X72.7907 Y10.7667
G01 X72.8800 Y10.8329
G01 X72.9601 Y10.9053
G01 X77.4030 Y15.3482
G01 X77.5395 Y15.3483
G01 X77.5493 Y15.3492
G01 X77.5589 Y15.3507
G01 X77.5684 Y15.3530
G01 X77.5778 Y15.3559
G01 X77.5898 Y15.3609
G01 X77.6041 Y15.3688
G01 X77.6173 Y15.3783
G01 X77.6270 Y15.3871
G01 X77.6357 Y15.3967
G01 X77.6453 Y15.4099
G01 X77.6517 Y15.4213
G01 X77.6581 Y15.4363
G01 X77.6610 Y15.4456
G01 X77.6633 Y15.4551
G01 X77.6649 Y15.4648
G01 X77.6657 Y15.4745
G01 X77.6659 Y15.6383
G01 X77.6735 Y15.6487
G01 X77.6788 Y15.6569
G01 X77.7325 Y15.7468
G01 X77.7801 Y15.8473
G01 X77.8176 Y15.9520
G01 X77.8439 Y16.0567
G01 X77.8457 Y16.0663
G01 X77.8601 Y16.1635
G01 X77.8614 Y16.1764
G01 X77.8664 Y16.2810
G01 X77.8614 Y16.3856
G01 X77.8601 Y16.3986
G01 X77.8457 Y16.4957
G01 X77.8432 Y16.5085
G01 X77.8176 Y16.6100
G01 X77.7824 Y16.7086
G01 X77.7774 Y16.7207
G01 X77.7325 Y16.8153
G01 X77.6788 Y16.9052
G01 X77.6735 Y16.9134
G01 X77.6659 Y16.9237
G01 X77.6659 Y17.0810
G01 X77.6655 Y17.0908
G01 X77.6633 Y17.1069
G01 X77.6592 Y17.1227
G01 X77.6531 Y17.1378
G01 X77.6470 Y17.1493
G01 X77.6397 Y17.1602
G01 X77.6314 Y17.1702
G01 X77.6222 Y17.1794
G01 X77.6122 Y17.1877
G01 X77.6013 Y17.1950
G01 X77.5898 Y17.2011
G01 X77.5778 Y17.2061
G01 X77.5653 Y17.2099
G01 X77.5493 Y17.2129
G01 X77.5363 Y17.2138
G01 X77.3757 Y17.2139
G01 X77.3661 Y17.2210
G01 X77.3661 Y21.3610
G01 X77.3631 Y21.4231
G01 X77.3539 Y21.4845
G01 X77.3389 Y21.5448
G01 X77.3179 Y21.6033
G01 X77.2914 Y21.6595
G01 X77.2594 Y21.7127
G01 X77.2224 Y21.7626
G01 X77.1807 Y21.8087
G01 X73.3939 Y25.5955
G01 X73.3939 Y27.0330
G01 X73.3935 Y27.0428
G01 X73.3924 Y27.0525
G01 X73.3899 Y27.0653
G01 X73.3872 Y27.0747
G01 X73.3837 Y27.0839
G01 X73.3797 Y27.0927
G01 X73.3750 Y27.1013
G01 X73.3696 Y27.1095
G01 X73.3637 Y27.1173
G01 X73.3572 Y27.1246
G01 X73.3502 Y27.1314
G01 X73.3427 Y27.1377
G01 X73.3321 Y27.1453
G01 X73.3236 Y27.1502
G01 X73.3148 Y27.1545
G01 X73.3058 Y27.1581
G01 X73.2944 Y27.1616
G01 X73.2944 Y36.6010
G01 X73.2889 Y36.7121
G01 X73.2726 Y36.8221
G01 X73.2456 Y36.9300
G01 X73.2081 Y37.0347
G01 X73.1605 Y37.1353
G01 X73.1034 Y37.2307
G01 X73.0371 Y37.3200
G01 X72.9624 Y37.4024
G01 X72.8849 Y37.4728
G01 X72.8775 Y37.4791
G01 X72.7907 Y37.5434
G01 X72.6953 Y37.6005
G01 X72.5947 Y37.6481
G01 X72.4962 Y37.6835
G01 X72.4837 Y37.6873
G01 X72.3821 Y37.7126
G01 X72.2786 Y37.7281
G01 X72.2656 Y37.7294
G01 X72.1675 Y37.7342
G01 X72.1545 Y37.7342
G01 X72.0499 Y37.7289
G01 X71.9440 Y37.7133
G01 X71.7781 Y37.8793
G01 X71.7781 Y43.9588
G01 X72.6773 Y44.8579
G01 X73.6768 Y44.8579
G01 X75.2693 Y43.2653
G01 X75.3104 Y43.2279
G01 X75.3205 Y43.2196
G01 X75.3599 Y43.1904
G01 X75.3708 Y43.1831
G01 X75.4186 Y43.1547
G01 X75.4747 Y43.1281
G01 X75.5270 Y43.1092
G01 X75.5395 Y43.1054
G01 X75.5935 Y43.0921
G01 X75.6517 Y43.0833
G01 X75.6615 Y43.0825
G01 X75.7170 Y43.0799
G01 X89.4330 Y43.0799
G01 X89.4951 Y43.0830
G01 X89.5533 Y43.0915
G01 X89.5629 Y43.0935
G01 X89.6105 Y43.1054
G01 X89.6230 Y43.1092
G01 X89.6753 Y43.1281
G01 X89.7315 Y43.1547
G01 X89.7792 Y43.1831
G01 X89.7901 Y43.1904
G01 X89.8346 Y43.2236
G01 X89.8783 Y43.2631
G01 X91.4070 Y44.7917
G01 X91.4464 Y44.8354
G01 X91.4797 Y44.8799
G01 X91.4852 Y44.8880
G01 X91.5121 Y44.9329
G01 X91.5169 Y44.9415
G01 X91.5406 Y44.9917
G01 X91.5512 Y45.0202
G01 X92.0570 Y45.0202
G01 X92.0700 Y45.0208
G01 X92.0861 Y45.0234
G01 X92.0987 Y45.0269
G01 X92.1138 Y45.0329
G01 X92.1281 Y45.0408
G01 X92.1413 Y45.0503
G01 X92.1510 Y45.0591
G01 X92.1617 Y45.0713
G01 X92.1710 Y45.0847
G01 X92.1757 Y45.0933
G01 X92.1797 Y45.1022
G01 X92.1850 Y45.1176
G01 X92.1884 Y45.1335
G01 X92.1895 Y45.1432
G01 X92.1899 Y45.1530
G01 X92.1899 Y47.3530
G01 X92.1892 Y47.3660
G01 X92.1873 Y47.3789
G01 X92.1850 Y47.3884
G01 X92.1821 Y47.3978
G01 X92.1785 Y47.4068
G01 X92.1726 Y47.4185
G01 X92.1656 Y47.4295
G01 X92.1597 Y47.4373
G01 X92.1532 Y47.4446
G01 X92.1438 Y47.4536
G01 X92.1335 Y47.4616
G01 X92.1253 Y47.4670
G01 X92.1138 Y47.4731
G01 X92.1048 Y47.4770
G01 X92.0956 Y47.4801
G01 X92.0829 Y47.4833
G01 X92.0733 Y47.4849
G01 X92.0603 Y47.4858
G01 X89.8538 Y47.4858
G01 X89.8440 Y47.4852
G01 X89.8311 Y47.4833
G01 X89.8184 Y47.4801
G01 X89.8062 Y47.4757
G01 X89.7944 Y47.4702
G01 X89.7832 Y47.4635
G01 X89.7727 Y47.4557
G01 X89.7631 Y47.4470
G01 X89.7543 Y47.4373
G01 X89.7466 Y47.4268
G01 X89.7398 Y47.4156
G01 X89.7343 Y47.4039
G01 X89.7299 Y47.3916
G01 X89.7274 Y47.3821
G01 X89.7252 Y47.3693
G01 X89.7242 Y47.3563
G01 X89.7242 Y45.1498
G01 X89.7252 Y45.1368
G01 X89.7267 Y45.1271
G01 X89.7299 Y45.1144
G01 X89.7343 Y45.1022
G01 X89.7398 Y45.0904
G01 X89.7466 Y45.0792
G01 X89.7543 Y45.0687
G01 X89.7608 Y45.0614
G01 X89.7678 Y45.0546
G01 X89.7779 Y45.0463
G01 X89.7887 Y45.0391
G01 X89.8002 Y45.0329
G01 X89.8092 Y45.0291
G01 X89.8216 Y45.0250
G01 X89.8343 Y45.0221
G01 X89.8453 Y45.0207
G01 X89.1708 Y44.3461
G01 X75.9793 Y44.3461
G01 X74.5721 Y45.7533
G01 X74.5721 Y49.1411
G01 X74.5813 Y49.1513
G01 X74.5874 Y49.1589
G01 X74.6400 Y49.2299
G01 X74.6473 Y49.2407
G01 X74.6959 Y49.3221
G01 X74.7366 Y49.4078
G01 X74.7416 Y49.4198
G01 X74.7734 Y49.5092
G01 X74.7980 Y49.6075
G01 X74.8129 Y49.7078
G01 X74.8178 Y49.8058
G01 X74.8177 Y49.8155
G01 X74.8129 Y49.9102
G01 X74.7991 Y50.0041
G01 X74.7966 Y50.0169
G01 X74.7734 Y50.1088
G01 X74.7416 Y50.1982
G01 X74.7366 Y50.2102
G01 X74.6959 Y50.2959
G01 X74.6438 Y50.3828
G01 X74.5874 Y50.4591
G01 X74.5792 Y50.4692
G01 X74.5153 Y50.5393
G01 X74.4452 Y50.6032
G01 X74.4351 Y50.6114
G01 X74.3588 Y50.6678
G01 X74.2776 Y50.7167
G01 X74.2661 Y50.7228
G01 X74.1803 Y50.7632
G01 X74.0910 Y50.7953
G01 X74.0785 Y50.7991
G01 X73.9865 Y50.8220
G01 X73.8862 Y50.8369
G01 X73.7850 Y50.8419
G01 X73.5818 Y50.8418
G01 X73.4870 Y50.8372
G01 X73.4773 Y50.8361
G01 X73.3835 Y50.8220
G01 X73.2915 Y50.7991
G01 X73.2821 Y50.7964
G01 X73.1898 Y50.7632
G01 X73.1040 Y50.7228
G01 X73.0925 Y50.7167
G01 X73.0112 Y50.6678
G01 X72.9349 Y50.6114
G01 X72.9248 Y50.6032
G01 X72.8547 Y50.5393
G01 X72.7887 Y50.4667
G01 X72.7826 Y50.4591
G01 X72.7262 Y50.3828
G01 X72.6741 Y50.2959
G01 X72.6308 Y50.2043
G01 X72.5966 Y50.1088
G01 X72.5720 Y50.0105
G01 X72.5571 Y49.9102
G01 X72.5522 Y49.8090
G01 X72.5569 Y49.7110
G01 X72.5579 Y49.7013
G01 X72.5720 Y49.6075
G01 X72.5949 Y49.5155
G01 X72.5987 Y49.5030
G01 X72.6308 Y49.4138
G01 X72.6712 Y49.3280
G01 X72.6773 Y49.3165
G01 X72.7245 Y49.2379
G01 X72.7300 Y49.2299
G01 X72.7866 Y49.1538
G01 X72.8502 Y49.0834
G01 X72.8570 Y49.0764
G01 X72.9248 Y49.0149
G01 X72.9323 Y49.0086
G01 X73.0085 Y48.9521
G01 X73.0167 Y48.9467
G01 X73.0519 Y48.9256
G01 X73.0519 Y47.1765
G01 X73.0014 Y47.1691
G01 X72.9918 Y47.1673
G01 X72.9125 Y47.1474
G01 X72.9031 Y47.1447
G01 X72.8200 Y47.1149
G01 X72.7431 Y47.0786
G01 X72.7344 Y47.0741
G01 X72.6587 Y47.0286
G01 X72.5852 Y46.9741
G01 X72.5174 Y46.9126
G01 X72.4580 Y46.8473
G01 X72.4519 Y46.8397
G01 X72.4014 Y46.7713
G01 X72.3543 Y46.6928
G01 X72.3152 Y46.6100
G01 X72.2853 Y46.5269
G01 X72.2826 Y46.5175
G01 X72.2621 Y46.4350
G01 X72.2490 Y46.3477
G01 X72.2482 Y46.3379
G01 X72.2442 Y46.2563
G01 X72.2443 Y46.2465
G01 X72.2458 Y46.2171
G01 X70.6973 Y44.6687
G01 X70.6599 Y44.6276
G01 X70.6516 Y44.6175
G01 X70.6224 Y44.5781
G01 X70.6151 Y44.5672
G01 X70.5867 Y44.5195
G01 X70.5601 Y44.4633
G01 X70.5392 Y44.4048
G01 X70.5255 Y44.3509
G01 X70.5230 Y44.3381
G01 X70.5158 Y44.2895
G01 X70.5147 Y44.2798
G01 X70.5119 Y44.2210
G01 X70.5119 Y37.6170
G01 X70.5147 Y37.5582
G01 X70.5158 Y37.5485
G01 X70.5241 Y37.4935
G01 X70.5374 Y37.4395
G01 X70.5412 Y37.4270
G01 X70.5601 Y37.3747
G01 X70.5837 Y37.3244
G01 X70.5899 Y37.3129
G01 X70.6151 Y37.2708
G01 X70.6205 Y37.2626
G01 X70.6556 Y37.2154
G01 X70.6951 Y37.1717
G01 X71.0487 Y36.8180
G01 X71.0331 Y36.7121
G01 X71.0277 Y36.6010
G01 X71.0277 Y27.1616
G01 X71.0163 Y27.1581
G01 X71.0072 Y27.1545
G01 X70.9984 Y27.1502
G01 X70.9899 Y27.1453
G01 X70.9819 Y27.1397
G01 X70.9742 Y27.1336
G01 X70.9648 Y27.1246
G01 X70.9583 Y27.1173
G01 X70.9524 Y27.1095
G01 X70.9471 Y27.1013
G01 X70.9423 Y27.0927
G01 X70.9371 Y27.0808
G01 X70.9330 Y27.0684
G01 X70.9307 Y27.0589
G01 X70.9292 Y27.0493
G01 X70.9283 Y27.0395
G01 X70.9282 Y24.8330
G01 X70.9288 Y24.8200
G01 X70.9307 Y24.8071
G01 X70.9330 Y24.7976
G01 X70.9371 Y24.7852
G01 X70.9423 Y24.7733
G01 X70.9488 Y24.7619
G01 X70.9543 Y24.7539
G01 X70.9626 Y24.7438
G01 X70.9694 Y24.7368
G01 X70.9767 Y24.7303
G01 X70.9872 Y24.7226
G01 X70.9955 Y24.7174
G01 X71.0072 Y24.7116
G01 X71.0193 Y24.7069
G01 X71.0287 Y24.7041
G01 X71.0383 Y24.7021
G01 X71.0512 Y24.7005
G01 X71.0610 Y24.7002
G01 X72.4985 Y24.7002
G01 X76.0999 Y21.0988
G01 X76.0999 Y17.2210
G01 X76.0903 Y17.2139
G01 X75.9330 Y17.2139
G01 X75.9200 Y17.2132
G01 X75.9103 Y17.2119
G01 X75.9007 Y17.2099
G01 X75.8913 Y17.2072
G01 X75.8822 Y17.2037
G01 X75.8733 Y17.1997
G01 X75.8647 Y17.1950
G01 X75.8539 Y17.1877
G01 X75.8462 Y17.1816
G01 X75.8391 Y17.1750
G01 X75.8324 Y17.1678
G01 X75.8263 Y17.1602
G01 X75.8208 Y17.1521
G01 X75.8158 Y17.1436
G01 X75.8116 Y17.1348
G01 X75.8079 Y17.1258
G01 X75.8050 Y17.1164
G01 X75.8021 Y17.1037
G01 X75.8008 Y17.0940
G01 X75.8002 Y17.0843
G01 X75.8002 Y16.9510
G01 X71.6916 Y12.8424
G01 X68.2898 Y12.8423
G01 X68.1819 Y12.8369
G01 X68.0719 Y12.8206
G01 X67.9640 Y12.7936
G01 X67.8593 Y12.7561
G01 X67.7588 Y12.7085
G01 X67.6689 Y12.6548
G01 X67.6580 Y12.6476
G01 X67.5792 Y12.5891
G01 X67.5691 Y12.5808
G01 X67.4916 Y12.5104
G01 X67.4169 Y12.4280
G01 X67.3507 Y12.3387
G01 X67.2935 Y12.2433
G01 X67.2459 Y12.1427
G01 X67.2105 Y12.0442
G01 X67.2067 Y12.0317
G01 X67.1829 Y11.9365
G01 X67.1803 Y11.9237
G01 X67.1651 Y11.8201
G01 X67.1597 Y11.7090
G01 X67.1651 Y11.5979
G01 X67.1807 Y11.4920
G01 X66.2308 Y10.5421
G01 X61.7250 Y10.5421
G01 X61.6630 Y10.5391
G01 X61.6015 Y10.5299
G01 X61.5412 Y10.5149
G01 X61.4888 Y10.4963
G01 X61.4797 Y10.4926
G01 X61.4266 Y10.4674
G01 X61.3733 Y10.4354
G01 X61.3234 Y10.3984
G01 X61.2773 Y10.3567
G01 X57.5380 Y6.6173
G01 X57.3952 Y6.6683
G01 X57.2397 Y6.7072
G01 X57.0811 Y6.7307
G01 X56.9210 Y6.7386
G01 X24.0697 Y6.7386
G01 X12.3561 Y18.4521
G01 X12.3344 Y18.4721
G01 X12.3344 Y25.4250
G01 X12.3294 Y25.5296
G01 X12.3281 Y25.5426
G01 X12.3126 Y25.6461
G01 X12.2856 Y25.7540
G01 X12.2481 Y25.8587
G01 X12.2035 Y25.9534
G01 X12.1973 Y25.9649
G01 X12.1434 Y26.0547
G01 X12.0811 Y26.1389
G01 X12.0728 Y26.1489
G01 X12.0047 Y26.2241
G01 X9.2719 Y28.9569
G01 X9.1989 Y29.0233
G01 X9.1989 Y30.3380
G01 X10.6372 Y31.7766
G01 X10.6744 Y31.8179
G01 X10.7077 Y31.8624
G01 X10.7149 Y31.8733
G01 X10.7434 Y31.9211
G01 X10.7699 Y31.9772
G01 X10.7888 Y32.0295
G01 X10.7926 Y32.0420
G01 X10.8045 Y32.0896
G01 X10.8065 Y32.0992
G01 X10.8151 Y32.1575
G01 X10.8181 Y32.2195
G01 X10.8181 Y37.8628
G01 X13.4953 Y40.5399
G01 X16.0188 Y40.5399
G01 X17.1719 Y39.3868
G01 X17.1719 Y31.5210
G01 X17.1750 Y31.4590
G01 X17.1841 Y31.3975
G01 X17.1992 Y31.3372
G01 X17.2178 Y31.2848
G01 X17.2227 Y31.2728
G01 X17.2467 Y31.2226
G01 X17.2751 Y31.1748
G01 X17.2824 Y31.1639
G01 X17.3156 Y31.1194
G01 X17.3573 Y31.0733
G01 X18.8837 Y29.5471
G01 X18.9224 Y29.5119
G01 X18.9325 Y29.5036
G01 X18.9773 Y29.4706
G01 X19.0249 Y29.4419
G01 X19.0364 Y29.4357
G01 X19.0867 Y29.4121
G01 X19.1452 Y29.3912
G01 X19.1991 Y29.3775
G01 X19.2119 Y29.3750
G01 X19.2670 Y29.3670
G01 X19.3258 Y29.3640
G01 X20.1691 Y29.3639
G01 X20.1889 Y29.3421
G01 X20.1957 Y29.3351
G01 X20.2587 Y29.2780
G01 X20.2664 Y29.2719
G01 X20.3321 Y29.2232
G01 X20.3403 Y29.2179
G01 X20.4133 Y29.1743
G01 X20.4930 Y29.1365
G01 X20.5021 Y29.1328
G01 X20.5822 Y29.1043
G01 X20.6710 Y29.0821
G01 X20.7616 Y29.0687
G01 X20.8530 Y29.0642
G01 X20.9444 Y29.0687
G01 X21.0350 Y29.0821
G01 X21.1238 Y29.1043
G01 X21.2039 Y29.1328
G01 X21.2130 Y29.1365
G01 X21.2928 Y29.1743
G01 X21.3658 Y29.2179
G01 X21.3740 Y29.2232
G01 X21.4397 Y29.2719
G01 X21.4473 Y29.2780
G01 X21.5103 Y29.3351
G01 X21.5171 Y29.3421
G01 X21.5369 Y29.3639
G01 X22.3803 Y29.3640
G01 X22.4326 Y29.3665
G01 X22.4455 Y29.3678
G01 X22.5005 Y29.3761
G01 X22.5577 Y29.3903
G01 X22.5670 Y29.3932
G01 X22.6193 Y29.4121
G01 X22.6696 Y29.4357
G01 X22.6811 Y29.4419
G01 X22.7232 Y29.4671
G01 X22.7341 Y29.4744
G01 X22.7786 Y29.5076
G01 X22.8200 Y29.5448
G01 X23.9341 Y30.6588
G01 X25.5082 Y30.6588
G01 X25.5083 Y30.4854
G01 X25.5096 Y30.4724
G01 X25.5121 Y30.4596
G01 X25.5149 Y30.4502
G01 X25.5196 Y30.4381
G01 X25.5271 Y30.4236
G01 X25.5324 Y30.4154
G01 X25.5383 Y30.4076
G01 X25.5448 Y30.4003
G01 X25.5518 Y30.3935
G01 X25.5593 Y30.3872
G01 X25.5672 Y30.3814
G01 X25.5755 Y30.3763
G01 X25.5842 Y30.3718
G01 X25.5993 Y30.3658
G01 X25.6087 Y30.3630
G01 X25.6183 Y30.3610
G01 X25.6280 Y30.3597
G01 X25.6378 Y30.3591
G01 X27.2410 Y30.3591
G01 X27.2573 Y30.3600
G01 X27.2701 Y30.3623
G01 X27.2858 Y30.3668
G01 X27.3007 Y30.3732
G01 X27.3148 Y30.3814
G01 X27.3278 Y30.3913
G01 X27.3394 Y30.4027
G01 X27.3496 Y30.4154
G01 X27.3566 Y30.4264
G01 X27.3625 Y30.4381
G01 X27.3672 Y30.4502
G01 X27.3706 Y30.4628
G01 X27.3729 Y30.4756
G01 X27.3739 Y30.4919
G01 X27.3739 Y30.5704
G01 X30.6276 Y30.5704
G01 X30.6474 Y30.5486
G01 X30.6542 Y30.5416
G01 X30.7148 Y30.4867
G01 X30.7223 Y30.4804
G01 X30.7932 Y30.4279
G01 X30.8689 Y30.3824
G01 X30.8776 Y30.3779
G01 X30.9545 Y30.3417
G01 X31.0345 Y30.3129
G01 X31.0470 Y30.3091
G01 X31.1232 Y30.2900
G01 X31.1327 Y30.2880
G01 X31.2201 Y30.2752
G01 X31.3115 Y30.2707
G01 X32.1115 Y30.2707
G01 X32.1964 Y30.2747
G01 X32.2094 Y30.2760
G01 X32.2935 Y30.2886
G01 X32.3760 Y30.3091
G01 X32.3885 Y30.3129
G01 X32.4624 Y30.3393
G01 X32.4745 Y30.3443
G01 X32.5513 Y30.3808
G01 X32.6243 Y30.4244
G01 X32.6351 Y30.4316
G01 X32.7033 Y30.4824
G01 X32.7711 Y30.5439
G01 X32.8326 Y30.6117
G01 X32.8834 Y30.6799
G01 X32.8906 Y30.6908
G01 X32.9342 Y30.7638
G01 X32.9734 Y30.8465
G01 X33.0042 Y30.9327
G01 X33.0264 Y31.0215
G01 X33.0399 Y31.1121
G01 X33.0444 Y31.2035
G01 X33.0399 Y31.2949
G01 X33.0276 Y31.3791
G01 X33.0258 Y31.3887
G01 X33.0042 Y31.4743
G01 X32.9757 Y31.5544
G01 X32.9707 Y31.5665
G01 X32.9342 Y31.6433
G01 X32.8871 Y31.7218
G01 X32.8366 Y31.7902
G01 X32.8284 Y31.8002
G01 X32.7756 Y31.8584
G01 X32.7664 Y31.8676
G01 X32.7033 Y31.9246
G01 X32.6298 Y31.9791
G01 X32.5513 Y32.0262
G01 X32.4745 Y32.0627
G01 X32.4624 Y32.0677
G01 X32.3885 Y32.0941
G01 X32.3760 Y32.0979
G01 X32.2935 Y32.1184
G01 X32.2062 Y32.1315
G01 X32.1964 Y32.1324
G01 X32.1115 Y32.1364
G01 X31.3115 Y32.1364
G01 X31.2201 Y32.1319
G01 X31.1295 Y32.1184
G01 X31.0407 Y32.0962
G01 X30.9606 Y32.0677
G01 X30.9486 Y32.0627
G01 X30.8776 Y32.0291
G01 X30.8689 Y32.0246
G01 X30.7932 Y31.9791
G01 X30.7223 Y31.9267
G01 X30.7148 Y31.9204
G01 X30.6542 Y31.8654
G01 X30.6474 Y31.8584
G01 X30.6276 Y31.8366
G01 X27.3739 Y31.8366
G01 X27.3738 Y32.0952
G01 X27.3724 Y32.1114
G01 X27.3690 Y32.1273
G01 X27.3637 Y32.1427
G01 X27.3597 Y32.1516
G01 X27.3550 Y32.1602
G01 X27.3457 Y32.1736
G01 X27.3394 Y32.1811
G01 X27.3326 Y32.1881
G01 X27.3253 Y32.1946
G01 X27.3175 Y32.2005
G01 X27.3036 Y32.2091
G01 X27.2888 Y32.2158
G01 X27.2796 Y32.2190
G01 X27.2701 Y32.2215
G01 X27.2573 Y32.2238
G01 X27.2410 Y32.2248
G01 X25.6345 Y32.2246
G01 X25.6248 Y32.2238
G01 X25.6151 Y32.2222
G01 X25.6056 Y32.2199
G01 X25.5963 Y32.2170
G01 X25.5872 Y32.2134
G01 X25.5784 Y32.2091
G01 X25.5645 Y32.2005
G01 X25.5567 Y32.1946
G01 X25.5494 Y32.1881
G01 X25.5426 Y32.1811
G01 X25.5363 Y32.1736
G01 X25.5306 Y32.1657
G01 X25.5254 Y32.1574
G01 X25.5183 Y32.1427
G01 X25.5149 Y32.1336
G01 X25.5114 Y32.1210
G01 X25.5092 Y32.1082
G01 X25.5083 Y32.0984
G01 X25.5082 Y31.9250
G01 X23.6686 Y31.9250
G01 X23.6098 Y31.9220
G01 X23.5484 Y31.9128
G01 X23.4881 Y31.8977
G01 X23.4357 Y31.8792
G01 X23.4266 Y31.8755
G01 X23.3735 Y31.8502
G01 X23.3202 Y31.8183
G01 X23.2703 Y31.7813
G01 X23.2266 Y31.7418
G01 X22.1148 Y30.6301
G01 X21.5369 Y30.6301
G01 X21.5171 Y30.6519
G01 X21.5103 Y30.6589
G01 X21.4473 Y30.7160
G01 X21.4397 Y30.7221
G01 X21.3740 Y30.7708
G01 X21.3658 Y30.7761
G01 X21.2928 Y30.8197
G01 X21.2130 Y30.8576
G01 X21.2039 Y30.8612
G01 X21.1238 Y30.8897
G01 X21.0350 Y30.9119
G01 X20.9444 Y30.9254
G01 X20.8530 Y30.9299
G01 X20.7616 Y30.9254
G01 X20.6710 Y30.9119
G01 X20.5822 Y30.8897
G01 X20.5021 Y30.8612
G01 X20.4930 Y30.8576
G01 X20.4133 Y30.8197
G01 X20.3403 Y30.7761
G01 X20.3321 Y30.7708
G01 X20.2664 Y30.7221
G01 X20.2587 Y30.7160
G01 X20.1957 Y30.6589
G01 X20.1889 Y30.6519
G01 X20.1691 Y30.6301
G01 X19.5913 Y30.6301
G01 X18.4381 Y31.7833
G01 X18.4381 Y39.6490
G01 X18.4355 Y39.7046
G01 X18.4343 Y39.7175
G01 X18.4259 Y39.7725
G01 X18.4118 Y39.8297
G01 X18.4088 Y39.8390
G01 X18.3899 Y39.8913
G01 X18.3663 Y39.9416
G01 X18.3601 Y39.9531
G01 X18.3314 Y40.0007
G01 X18.2984 Y40.0455
G01 X18.2901 Y40.0556
G01 X18.2527 Y40.0967
G01 X16.7263 Y41.6230
G01 X16.6826 Y41.6624
G01 X16.6327 Y41.6994
G01 X16.5795 Y41.7314
G01 X16.5263 Y41.7566
G01 X16.5172 Y41.7603
G01 X16.4648 Y41.7789
G01 X16.4045 Y41.7939
G01 X16.3431 Y41.8031
G01 X16.2843 Y41.8061
G01 X13.2330 Y41.8061
G01 X13.1710 Y41.8031
G01 X13.1095 Y41.7939
G01 X13.0492 Y41.7789
G01 X12.9968 Y41.7603
G01 X12.9848 Y41.7553
G01 X12.9346 Y41.7314
G01 X12.8813 Y41.6994
G01 X12.8314 Y41.6624
G01 X12.7853 Y41.6207
G01 X9.7373 Y38.5727
G01 X9.6956 Y38.5266
G01 X9.6586 Y38.4767
G01 X9.6267 Y38.4235
G01 X9.6001 Y38.3673
G01 X9.5792 Y38.3088
G01 X9.5641 Y38.2485
G01 X9.5550 Y38.1871
G01 X9.5520 Y38.1283
G01 X9.5519 Y32.4818
G01 X6.8585 Y29.7884
G01 X4.6210 Y29.7884
G00 Z2.0000
G00 X3.8321 Y29.6611
G01 F60.00
G01 Z-0.2000
G01 F120.00
G01 X3.8334 Y29.6356
G01 X3.8371 Y29.6104
G01 X3.8433 Y29.5856
G01 X3.8495 Y29.5677
G01 X3.8532 Y29.5586
G01 X3.8644 Y29.5357
G01 X3.8777 Y29.5140
G01 X3.8932 Y29.4937
G01 X3.9059 Y29.4796
G01 X3.9129 Y29.4728
G01 X3.9271 Y29.4602
G01 X3.9423 Y29.4487
G01 X3.9503 Y29.4432
G01 X3.9638 Y29.4351
G01 X3.9724 Y29.4304
G01 X3.9896 Y29.4222
G01 X4.0104 Y29.4144
G01 X4.0197 Y29.4115
G01 X4.0381 Y29.4068
G01 X4.0633 Y29.4028
G01 X4.0730 Y29.4019
G01 X4.0920 Y29.4012
G01 X4.1175 Y29.4024
G01 X4.1427 Y29.4062
G01 X4.1675 Y29.4124
G01 X4.1915 Y29.4210
G01 X4.2145 Y29.4319
G01 X4.2364 Y29.4450
G01 X4.2569 Y29.4602
G01 X4.2758 Y29.4773
G01 X4.2908 Y29.4937
G01 X4.3063 Y29.5140
G01 X4.3197 Y29.5357
G01 X4.3309 Y29.5586
G01 X4.3387 Y29.5794
G01 X4.3416 Y29.5888
G01 X4.3455 Y29.6040
G01 X4.3480 Y29.6168
G01 X4.3507 Y29.6356
G01 X4.3578 Y29.7079
G01 X4.3731 Y29.7582
G01 X4.3979 Y29.8046
G01 X4.4312 Y29.8453
G01 X4.4719 Y29.8787
G01 X4.5183 Y29.9035
G01 X4.5687 Y29.9187
G01 X4.6338 Y29.9251
G01 X6.7014 Y29.9252
G01 X6.7204 Y29.9261
G01 X6.7301 Y29.9272
G01 X6.7489 Y29.9301
G01 X6.7673 Y29.9346
G01 X6.7767 Y29.9373
G01 X6.7946 Y29.9437
G01 X6.8178 Y29.9543
G01 X6.8371 Y29.9655
G01 X6.8479 Y29.9727
G01 X6.8631 Y29.9841
G01 X6.8820 Y30.0013
G01 X7.4797 Y30.5990
G01 X7.4947 Y30.6154
G01 X7.5127 Y30.6373
G01 X7.5346 Y30.6553
G01 X7.5510 Y30.6704
G01 X7.9877 Y31.1070
G01 X8.0027 Y31.1234
G01 X8.0207 Y31.1453
G01 X8.0426 Y31.1633
G01 X8.0590 Y31.1784
G01 X9.3418 Y32.4611
G01 X9.3589 Y32.4800
G01 X9.3704 Y32.4952
G01 X9.3776 Y32.5060
G01 X9.3887 Y32.5253
G01 X9.3981 Y32.5454
G01 X9.4058 Y32.5664
G01 X9.4115 Y32.5878
G01 X9.4140 Y32.6006
G01 X9.4167 Y32.6194
G01 X9.4179 Y32.6449
G01 X9.4179 Y38.0746
G01 X9.4170 Y38.0968
G01 X9.4142 Y38.1250
G01 X9.4290 Y38.2754
G01 X9.4729 Y38.4200
G01 X9.5441 Y38.5532
G01 X9.6400 Y38.6700
G01 X9.6619 Y38.6881
G01 X9.6783 Y38.7031
G01 X12.6549 Y41.6798
G01 X12.6700 Y41.6962
G01 X12.6880 Y41.7180
G01 X12.8048 Y41.8139
G01 X12.9380 Y41.8851
G01 X13.0826 Y41.9290
G01 X13.2330 Y41.9438
G01 X13.2612 Y41.9411
G01 X13.2835 Y41.9401
G01 X16.2306 Y41.9401
G01 X16.2528 Y41.9411
G01 X16.2810 Y41.9438
G01 X16.4314 Y41.9290
G01 X16.5760 Y41.8851
G01 X16.7092 Y41.8139
G01 X16.8260 Y41.7180
G01 X16.8441 Y41.6961
G01 X16.8591 Y41.6797
G01 X18.3117 Y40.2271
G01 X18.3282 Y40.2121
G01 X18.3500 Y40.1940
G01 X18.4459 Y40.0772
G01 X18.5171 Y39.9440
G01 X18.5610 Y39.7994
G01 X18.5758 Y39.6490
G01 X18.5731 Y39.6208
G01 X18.5721 Y39.5986
G01 X18.5721 Y31.9464
G01 X18.5729 Y31.9274
G01 X18.5737 Y31.9177
