(G-CODE GENERATED BY FLATCAM v8.993 - www.flatcam.org - Version Date: 2020/06/05)

(Name: b_cu)
(Type: G-code from Geometry)
(Units: MM)

(Created on quinta, 02 julho 2020 at 10:39)

(This preprocessor is the default preprocessor used by FlatCAM.)
(It is made to work with MACH3 compatible motion controllers.)

(TOOL DIAMETER: 0.2657 mm)
(Feedrate_XY: 120.0 mm/min)
(Feedrate_Z: 60.0 mm/min)
(Feedrate rapids 1500.0 mm/min)

(Z_Cut: -0.2 mm)
(Z_Move: 2.0 mm)
(Z Start: None mm)
(Z End: 15.0 mm)
(Steps per circle: 64)
(Preprocessor Geometry: default)

(X range:    0.2171 ...  114.6409  mm)
(Y range:    0.2171 ...   59.7769  mm)

(Spindle Speed: 12000 RPM)
G21
G90
G94



G01 F120.00
G00 Z2.0000

M03 S12000
G00 X0.2171 Y0.4770
G01 F60.00
G01 Z-0.2000
G01 F120.00
G01 X0.2184 Y0.4515
G01 X0.2221 Y0.4263
G01 X0.2283 Y0.4016
G01 X0.2369 Y0.3775
G01 X0.2478 Y0.3545
G01 X0.2609 Y0.3326
G01 X0.2761 Y0.3121
G01 X0.2932 Y0.2932
G01 X0.3121 Y0.2761
G01 X0.3326 Y0.2609
G01 X0.3545 Y0.2478
G01 X0.3775 Y0.2369
G01 X0.4016 Y0.2283
G01 X0.4263 Y0.2221
G01 X0.4515 Y0.2184
G01 X0.4770 Y0.2171
G01 X114.3810 Y0.2171
G01 X114.4000 Y0.2179
G01 X114.4097 Y0.2187
G01 X114.4285 Y0.2215
G01 X114.4381 Y0.2235
G01 X114.4565 Y0.2283
G01 X114.4744 Y0.2345
G01 X114.4835 Y0.2382
G01 X114.5006 Y0.2463
G01 X114.5199 Y0.2574
G01 X114.5281 Y0.2627
G01 X114.5459 Y0.2761
G01 X114.5601 Y0.2887
G01 X114.5671 Y0.2956
G01 X114.5819 Y0.3121
G01 X114.5953 Y0.3299
G01 X114.6006 Y0.3381
G01 X114.6102 Y0.3545
G01 X114.6185 Y0.3716
G01 X114.6224 Y0.3806
G01 X114.6297 Y0.4016
G01 X114.6353 Y0.4231
G01 X114.6370 Y0.4327
G01 X114.6397 Y0.4515
G01 X114.6409 Y0.4770
G01 X114.6409 Y59.5170
G01 X114.6402 Y59.5360
G01 X114.6393 Y59.5457
G01 X114.6365 Y59.5645
G01 X114.6345 Y59.5741
G01 X114.6297 Y59.5925
G01 X114.6235 Y59.6104
G01 X114.6199 Y59.6195
G01 X114.6117 Y59.6366
G01 X114.6038 Y59.6506
G01 X114.5953 Y59.6641
G01 X114.5820 Y59.6818
G01 X114.5693 Y59.6961
G01 X114.5625 Y59.7031
G01 X114.5460 Y59.7179
G01 X114.5307 Y59.7294
G01 X114.5199 Y59.7366
G01 X114.5043 Y59.7459
G01 X114.4864 Y59.7545
G01 X114.4774 Y59.7584
G01 X114.4565 Y59.7657
G01 X114.4349 Y59.7713
G01 X114.4253 Y59.7730
G01 X114.4065 Y59.7757
G01 X114.3810 Y59.7769
G01 X0.4770 Y59.7769
G01 X0.4580 Y59.7762
G01 X0.4483 Y59.7753
G01 X0.4295 Y59.7725
G01 X0.4199 Y59.7705
G01 X0.4016 Y59.7657
G01 X0.3836 Y59.7595
G01 X0.3746 Y59.7559
G01 X0.3574 Y59.7477
G01 X0.3488 Y59.7430
G01 X0.3299 Y59.7313
G01 X0.3121 Y59.7179
G01 X0.2979 Y59.7053
G01 X0.2909 Y59.6985
G01 X0.2761 Y59.6819
G01 X0.2627 Y59.6641
G01 X0.2574 Y59.6559
G01 X0.2478 Y59.6395
G01 X0.2395 Y59.6224
G01 X0.2357 Y59.6134
G01 X0.2283 Y59.5925
G01 X0.2228 Y59.5709
G01 X0.2210 Y59.5613
G01 X0.2184 Y59.5425
G01 X0.2171 Y59.5170
G01 X0.2171 Y0.4770
G00 Z2.0000
G00 X3.2379 Y4.9211
G01 F60.00
G01 Z-0.2000
G01 F120.00
G01 X3.3097 Y4.5604
G01 X3.4504 Y4.2206
G01 X3.6548 Y3.9148
G01 X3.9148 Y3.6548
G01 X4.2206 Y3.4504
G01 X4.5604 Y3.3097
G01 X4.9211 Y3.2379
G01 X5.2889 Y3.2379
G01 X5.6496 Y3.3097
G01 X5.9894 Y3.4504
G01 X6.2952 Y3.6548
G01 X6.5553 Y3.9148
G01 X6.7596 Y4.2206
G01 X6.9003 Y4.5604
G01 X6.9721 Y4.9211
G01 X6.9721 Y5.2889
G01 X6.9003 Y5.6496
G01 X6.7596 Y5.9894
G01 X6.5553 Y6.2952
G01 X6.2952 Y6.5553
G01 X5.9894 Y6.7596
G01 X5.6496 Y6.9003
G01 X5.2889 Y6.9721
G01 X4.9211 Y6.9721
G01 X4.5604 Y6.9003
G01 X4.2206 Y6.7596
G01 X3.9148 Y6.5553
G01 X3.6548 Y6.2952
G01 X3.4504 Y5.9894
G01 X3.3097 Y5.6496
G01 X3.2379 Y5.2889
G01 X3.2379 Y4.9211
G00 Z2.0000
G00 X1.2967 Y20.3945
G01 F60.00
G01 Z-0.2000
G01 F120.00
G01 X1.2918 Y20.3450
G01 X1.3163 Y20.0966
G01 X1.3887 Y19.8578
G01 X1.5064 Y19.6377
G01 X1.6647 Y19.4447
G01 X1.7057 Y19.4110
G01 X1.7221 Y19.3960
G01 X3.9655 Y17.1526
G01 X3.9805 Y17.1362
G01 X4.0142 Y17.0952
G01 X4.2072 Y16.9369
G01 X4.4273 Y16.8192
G01 X4.6661 Y16.7468
G01 X4.8005 Y16.7335
G01 X4.8193 Y16.7309
G01 X4.8289 Y16.7291
G01 X4.8505 Y16.7236
G01 X4.8715 Y16.7162
G01 X4.8805 Y16.7123
G01 X4.8976 Y16.7041
G01 X4.9139 Y16.6945
G01 X4.9221 Y16.6891
G01 X4.9374 Y16.6778
G01 X4.9565 Y16.6609
G01 X4.9946 Y16.6229
G01 X5.2840 Y16.4295
G01 X5.6056 Y16.2963
G01 X5.9470 Y16.2284
G01 X6.2951 Y16.2284
G01 X6.6365 Y16.2963
G01 X6.9580 Y16.4295
G01 X7.2475 Y16.6229
G01 X7.4936 Y16.8691
G01 X7.6870 Y17.1585
G01 X7.8202 Y17.4801
G01 X7.8881 Y17.8215
G01 X7.8881 Y18.1696
G01 X7.8202 Y18.5110
G01 X7.6870 Y18.8325
G01 X7.4936 Y19.1220
G01 X7.2475 Y19.3681
G01 X6.9580 Y19.5615
G01 X6.6365 Y19.6947
G01 X6.2951 Y19.7626
G01 X5.9470 Y19.7626
G01 X5.6056 Y19.6947
G01 X5.3399 Y19.5847
G01 X5.3189 Y19.5773
G01 X5.2942 Y19.5711
G01 X5.2690 Y19.5674
G01 X5.2468 Y19.5662
G01 X5.2245 Y19.5669
G01 X5.2115 Y19.5682
G01 X5.1928 Y19.5711
G01 X5.1680 Y19.5773
G01 X5.1440 Y19.5859
G01 X5.1268 Y19.5939
G01 X5.1153 Y19.6000
G01 X5.0964 Y19.6118
G01 X5.0786 Y19.6251
G01 X5.0597 Y19.6423
G01 X3.9082 Y20.7937
G01 X3.8954 Y20.8077
G01 X3.8891 Y20.8152
G01 X3.8777 Y20.8304
G01 X3.8724 Y20.8386
G01 X3.8628 Y20.8550
G01 X3.8545 Y20.8721
G01 X3.8507 Y20.8811
G01 X3.8443 Y20.8990
G01 X3.8385 Y20.9204
G01 X3.8360 Y20.9332
G01 X3.8334 Y20.9520
G01 X3.8321 Y20.9775
G01 X3.8321 Y22.4075
G01 X3.8334 Y22.4299
G01 X3.8360 Y22.4488
G01 X3.8378 Y22.4585
G01 X3.8434 Y22.4802
G01 X3.8509 Y22.5013
G01 X3.8548 Y22.5104
G01 X3.8632 Y22.5276
G01 X3.8765 Y22.5495
G01 X3.8919 Y22.5701
G01 X3.9069 Y22.5867
G01 X3.9234 Y22.6019
G01 X3.9336 Y22.6102
G01 X3.9491 Y22.6213
G01 X3.9712 Y22.6344
G01 X3.9945 Y22.6452
G01 X4.0157 Y22.6527
G01 X4.0405 Y22.6590
G01 X4.0627 Y22.6624
G01 X4.0758 Y22.6636
G01 X4.0982 Y22.6641
G01 X4.1205 Y22.6626
G01 X4.1459 Y22.6585
G01 X4.1707 Y22.6519
G01 X4.1887 Y22.6454
G01 X4.2007 Y22.6402
G01 X4.2207 Y22.6300
G01 X4.2397 Y22.6181
G01 X4.2601 Y22.6025
G01 X4.2788 Y22.5850
G01 X4.2915 Y22.5707
G01 X4.2997 Y22.5604
G01 X4.3124 Y22.5420
G01 X4.3249 Y22.5195
G01 X4.3352 Y22.4960
G01 X4.3422 Y22.4747
G01 X4.3662 Y22.3894
G01 X4.5063 Y22.1142
G01 X4.5774 Y22.0791
G01 X4.7270 Y22.2287
G01 X4.6842 Y22.3001
G01 X4.6795 Y22.3087
G01 X4.6137 Y22.4477
G01 X4.6101 Y22.4567
G01 X4.5605 Y22.5953
G01 X4.5576 Y22.6047
G01 X4.5195 Y22.7570
G01 X4.4968 Y22.9090
G01 X4.4955 Y22.9220
G01 X4.4882 Y23.0755
G01 X4.4955 Y23.2291
G01 X4.4968 Y23.2420
G01 X4.5195 Y23.3941
G01 X4.5576 Y23.5464
G01 X4.5605 Y23.5557
G01 X4.6101 Y23.6943
G01 X4.6137 Y23.7034
G01 X4.6795 Y23.8423
G01 X4.6842 Y23.8509
G01 X4.7270 Y23.9223
G01 X4.5774 Y24.0719
G01 X4.5037 Y24.0355
G01 X4.3958 Y23.8336
G01 X4.3381 Y23.6563
G01 X4.3288 Y23.6329
G01 X4.3205 Y23.6160
G01 X4.3156 Y23.6076
G01 X4.3055 Y23.5916
G01 X4.2901 Y23.5716
G01 X4.2727 Y23.5531
G01 X4.2537 Y23.5364
G01 X4.2331 Y23.5216
G01 X4.2112 Y23.5089
G01 X4.1882 Y23.4984
G01 X4.1642 Y23.4902
G01 X4.1396 Y23.4844
G01 X4.1145 Y23.4809
G01 X4.0891 Y23.4800
G01 X4.0639 Y23.4815
G01 X4.0389 Y23.4855
G01 X4.0143 Y23.4919
G01 X3.9906 Y23.5006
G01 X3.9678 Y23.5116
G01 X3.9461 Y23.5248
G01 X3.9259 Y23.5400
G01 X3.9072 Y23.5571
G01 X3.8903 Y23.5760
G01 X3.8753 Y23.5964
G01 X3.8624 Y23.6182
G01 X3.8516 Y23.6411
G01 X3.8441 Y23.6619
G01 X3.8384 Y23.6832
G01 X3.8359 Y23.6959
G01 X3.8333 Y23.7146
G01 X3.8321 Y23.7399
G01 X3.8321 Y26.6499
G01 X3.8334 Y26.6754
G01 X3.8360 Y26.6942
G01 X3.8378 Y26.7038
G01 X3.8424 Y26.7223
G01 X3.8453 Y26.7316
G01 X3.8519 Y26.7494
G01 X3.8599 Y26.7666
G01 X3.8644 Y26.7753
G01 X3.8724 Y26.7888
G01 X3.8777 Y26.7970
G01 X3.8891 Y26.8123
G01 X3.8954 Y26.8198
G01 X3.9082 Y26.8337
G01 X3.9271 Y26.8509
G01 X3.9423 Y26.8623
G01 X3.9503 Y26.8678
G01 X3.9666 Y26.8776
G01 X3.9753 Y26.8821
G01 X3.9925 Y26.8901
G01 X4.0104 Y26.8966
G01 X4.0197 Y26.8996
G01 X4.0381 Y26.9042
G01 X4.0477 Y26.9060
G01 X4.0665 Y26.9086
G01 X4.0855 Y26.9097
G01 X4.0953 Y26.9098
G01 X4.1142 Y26.9089
G01 X4.1240 Y26.9078
G01 X4.1395 Y26.9055
G01 X4.1491 Y26.9034
G01 X4.1675 Y26.8987
G01 X4.1854 Y26.8924
G01 X4.1945 Y26.8888
G01 X4.2087 Y26.8821
G01 X4.2202 Y26.8759
G01 X4.2391 Y26.8642
G01 X4.2594 Y26.8488
G01 X4.2758 Y26.8337
G01 X4.2929 Y26.8148
G01 X4.3081 Y26.7943
G01 X4.3197 Y26.7753
G01 X4.3295 Y26.7554
G01 X4.3334 Y26.7464
G01 X4.3407 Y26.7254
G01 X4.3455 Y26.7070
G01 X4.3475 Y26.6974
G01 X4.3503 Y26.6787
G01 X4.3578 Y26.6032
G01 X4.3731 Y26.5528
G01 X4.3979 Y26.5064
G01 X4.4312 Y26.4657
G01 X4.4719 Y26.4324
G01 X4.5183 Y26.4076
G01 X4.5687 Y26.3923
G01 X4.6338 Y26.3859
G01 X7.6082 Y26.3859
G01 X7.6734 Y26.3923
G01 X7.7237 Y26.4076
G01 X7.7701 Y26.4324
G01 X7.8108 Y26.4657
G01 X7.8442 Y26.5064
G01 X7.8490 Y26.5153
G01 X7.8587 Y26.5316
G01 X7.8737 Y26.5523
G01 X7.8905 Y26.5714
G01 X7.9068 Y26.5866
G01 X7.9143 Y26.5929
G01 X7.9295 Y26.6042
G01 X7.9512 Y26.6176
G01 X7.9741 Y26.6288
G01 X7.9981 Y26.6377
G01 X8.0074 Y26.6404
G01 X8.0259 Y26.6448
G01 X8.0447 Y26.6478
G01 X8.0544 Y26.6489
G01 X8.0733 Y26.6498
G01 X8.0831 Y26.6497
G01 X8.1021 Y26.6486
G01 X8.1241 Y26.6454
G01 X8.1337 Y26.6434
G01 X8.1521 Y26.6386
G01 X8.1700 Y26.6324
G01 X8.1791 Y26.6288
G01 X8.1991 Y26.6191
G01 X8.2155 Y26.6095
G01 X8.2237 Y26.6042
G01 X8.2389 Y26.5929
G01 X8.2464 Y26.5866
G01 X8.2604 Y26.5737
G01 X9.8601 Y24.9740
G01 X9.8749 Y24.9574
G01 X9.8883 Y24.9396
G01 X9.9000 Y24.9207
G01 X9.9062 Y24.9092
G01 X9.9141 Y24.8920
G01 X9.9227 Y24.8680
G01 X9.9289 Y24.8432
G01 X9.9319 Y24.8245
G01 X9.9330 Y24.8147
G01 X9.9339 Y24.7925
G01 X9.9339 Y18.6315
G01 X9.9330 Y18.6093
G01 X9.9319 Y18.5996
G01 X9.9289 Y18.5808
G01 X9.9227 Y18.5561
G01 X9.9165 Y18.5382
G01 X9.9129 Y18.5291
G01 X9.9047 Y18.5119
G01 X9.9000 Y18.5033
G01 X9.8901 Y18.4871
G01 X9.8770 Y18.4692
G01 X9.7246 Y18.2835
G01 X9.5605 Y17.9765
G01 X9.4595 Y17.6434
G01 X9.4254 Y17.2970
G01 X9.4595 Y16.9506
G01 X9.5605 Y16.6175
G01 X9.7246 Y16.3105
G01 X9.8901 Y16.1089
G01 X22.0731 Y3.9259
G01 X22.0881 Y3.9095
G01 X22.1374 Y3.8494
G01 X22.4065 Y3.6286
G01 X22.7135 Y3.4645
G01 X23.0466 Y3.3635
G01 X23.3930 Y3.3294
G01 X23.4704 Y3.3370
G01 X23.4926 Y3.3379
G01 X57.0078 Y3.3379
G01 X57.2674 Y3.3635
G01 X57.6005 Y3.4645
G01 X57.9075 Y3.6286
G01 X58.1766 Y3.8494
G01 X58.3974 Y4.1185
G01 X58.5615 Y4.4255
G01 X58.6625 Y4.7586
G01 X58.6966 Y5.1050
G01 X58.6625 Y5.4514
G01 X58.6355 Y5.5404
G01 X58.6300 Y5.5620
G01 X58.6282 Y5.5716
G01 X58.6256 Y5.5904
G01 X58.6245 Y5.6093
G01 X58.6244 Y5.6191
G01 X58.6256 Y5.6413
G01 X58.6293 Y5.6666
G01 X58.6355 Y5.6913
G01 X58.6418 Y5.7092
G01 X58.6468 Y5.7213
G01 X58.6566 Y5.7412
G01 X58.6681 Y5.7603
G01 X58.6833 Y5.7807
G01 X58.7005 Y5.7996
G01 X61.2975 Y8.3966
G01 X61.3141 Y8.4115
G01 X61.3346 Y8.4267
G01 X61.3564 Y8.4398
G01 X61.3795 Y8.4507
G01 X61.4035 Y8.4593
G01 X61.4283 Y8.4655
G01 X61.4535 Y8.4692
G01 X61.4790 Y8.4705
G01 X61.5012 Y8.4695
G01 X61.5109 Y8.4684
G01 X61.5297 Y8.4655
G01 X61.5544 Y8.4593
G01 X61.5784 Y8.4507
G01 X61.5957 Y8.4427
G01 X61.6043 Y8.4382
G01 X61.6234 Y8.4267
G01 X61.6413 Y8.4135
G01 X61.6488 Y8.4072
G01 X61.6627 Y8.3943
G01 X61.6799 Y8.3754
G01 X61.6932 Y8.3577
G01 X61.6986 Y8.3495
G01 X61.7082 Y8.3331
G01 X61.7178 Y8.3130
G01 X61.7267 Y8.2891
G01 X61.7332 Y8.2645
G01 X61.7373 Y8.2393
G01 X61.7387 Y8.2171
G01 X61.7388 Y8.2073
G01 X61.7376 Y8.1851
G01 X61.7203 Y8.0090
G01 X61.7428 Y7.7802
G01 X61.8095 Y7.5602
G01 X61.9179 Y7.3575
G01 X62.0638 Y7.1798
G01 X62.2415 Y7.0339
G01 X62.4295 Y6.9333
G01 X62.4457 Y6.9234
G01 X62.4610 Y6.9122
G01 X62.4687 Y6.9061
G01 X62.4851 Y6.8910
G01 X62.5022 Y6.8721
G01 X62.5136 Y6.8570
G01 X62.5209 Y6.8461
G01 X62.5320 Y6.8269
G01 X62.5414 Y6.8067
G01 X62.5490 Y6.7858
G01 X62.5737 Y6.7045
G01 X62.6357 Y6.5886
G01 X62.7190 Y6.4870
G01 X62.7371 Y6.4721
G01 X62.7535 Y6.4571
G01 X64.5451 Y4.6655
G01 X64.5601 Y4.6491
G01 X64.5750 Y4.6310
G01 X64.6766 Y4.5477
G01 X64.7925 Y4.4857
G01 X64.9182 Y4.4476
G01 X65.0490 Y4.4347
G01 X65.0723 Y4.4370
G01 X65.0945 Y4.4379
G01 X84.5540 Y4.4378
G01 X84.5729 Y4.4367
G01 X84.5917 Y4.4340
G01 X84.6014 Y4.4323
G01 X84.6229 Y4.4267
G01 X84.6469 Y4.4181
G01 X84.6642 Y4.4102
G01 X84.6728 Y4.4057
G01 X84.6919 Y4.3941
G01 X84.7124 Y4.3789
G01 X84.7265 Y4.3663
G01 X84.7335 Y4.3595
G01 X84.7484 Y4.3429
G01 X84.7617 Y4.3251
G01 X84.7671 Y4.3169
G01 X84.7767 Y4.3005
G01 X84.7863 Y4.2805
G01 X84.7952 Y4.2566
G01 X84.8010 Y4.2351
G01 X84.8035 Y4.2223
G01 X84.8064 Y4.2002
G01 X84.8074 Y4.1780
G01 X84.8074 Y3.9178
G01 X84.8138 Y3.8527
G01 X84.8291 Y3.8023
G01 X84.8539 Y3.7559
G01 X84.8872 Y3.7152
G01 X84.9279 Y3.6819
G01 X84.9743 Y3.6571
G01 X85.0247 Y3.6418
G01 X85.0898 Y3.6354
G01 X86.6642 Y3.6354
G01 X86.7294 Y3.6418
G01 X86.7797 Y3.6571
G01 X86.8261 Y3.6819
G01 X86.8668 Y3.7152
G01 X86.9002 Y3.7559
G01 X86.9250 Y3.8023
G01 X86.9402 Y3.8527
G01 X86.9466 Y3.9178
G01 X86.9466 Y4.0797
G01 X86.9476 Y4.1020
G01 X86.9487 Y4.1117
G01 X86.9523 Y4.1336
G01 X86.9588 Y4.1583
G01 X86.9677 Y4.1822
G01 X86.9758 Y4.1994
G01 X86.9806 Y4.2079
G01 X86.9905 Y4.2241
G01 X87.0016 Y4.2395
G01 X87.0077 Y4.2471
G01 X87.0205 Y4.2612
G01 X87.0275 Y4.2680
G01 X87.0417 Y4.2807
G01 X87.0568 Y4.2921
G01 X87.0649 Y4.2976
G01 X87.0812 Y4.3074
G01 X87.0899 Y4.3119
G01 X87.1071 Y4.3199
G01 X87.1280 Y4.3275
G01 X87.1374 Y4.3302
G01 X87.1559 Y4.3347
G01 X87.1778 Y4.3380
G01 X87.1876 Y4.3389
G01 X87.2098 Y4.3396
G01 X87.2353 Y4.3380
G01 X87.2605 Y4.3340
G01 X87.2851 Y4.3275
G01 X87.3090 Y4.3186
G01 X87.3319 Y4.3074
G01 X87.3537 Y4.2940
G01 X87.3689 Y4.2827
G01 X87.3764 Y4.2764
G01 X87.3903 Y4.2635
G01 X87.4032 Y4.2496
G01 X87.4095 Y4.2421
G01 X87.4227 Y4.2241
G01 X87.4358 Y4.2023
G01 X87.4855 Y4.1093
G01 X87.6188 Y3.9468
G01 X87.7813 Y3.8135
G01 X87.9667 Y3.7144
G01 X88.1678 Y3.6534
G01 X88.3770 Y3.6328
G01 X88.5862 Y3.6534
G01 X88.7873 Y3.7144
G01 X88.9727 Y3.8135
G01 X89.1352 Y3.9468
G01 X89.2686 Y4.1093
G01 X89.3723 Y4.3034
G01 X89.3821 Y4.3197
G01 X89.3876 Y4.3277
G01 X89.3991 Y4.3429
G01 X89.4139 Y4.3595
G01 X89.4326 Y4.3768
G01 X89.4503 Y4.3904
G01 X89.4611 Y4.3976
G01 X89.4746 Y4.4057
G01 X89.4833 Y4.4102
G01 X89.5005 Y4.4181
G01 X89.5245 Y4.4267
G01 X89.5493 Y4.4329
G01 X89.5745 Y4.4367
G01 X89.6000 Y4.4379
G01 X90.6171 Y4.4379
G01 X90.6426 Y4.4367
G01 X90.6614 Y4.4340
G01 X90.6710 Y4.4323
G01 X90.6957 Y4.4257
G01 X90.7196 Y4.4169
G01 X90.7425 Y4.4057
G01 X90.7642 Y4.3923
G01 X90.7795 Y4.3810
G01 X90.7869 Y4.3747
G01 X90.8009 Y4.3618
G01 X90.8143 Y4.3472
G01 X90.9773 Y4.2135
G01 X91.1627 Y4.1144
G01 X91.3638 Y4.0534
G01 X91.5206 Y4.0379
G01 X92.4254 Y4.0379
G01 X92.5822 Y4.0534
G01 X92.7833 Y4.1144
G01 X92.9687 Y4.2135
G01 X93.1312 Y4.3468
G01 X93.2646 Y4.5093
G01 X93.3636 Y4.6947
G01 X93.4247 Y4.8958
G01 X93.4453 Y5.1050
G01 X93.4247 Y5.3142
G01 X93.3636 Y5.5153
G01 X93.2646 Y5.7007
G01 X93.1312 Y5.8632
G01 X92.9687 Y5.9966
G01 X92.7833 Y6.0956
G01 X92.5822 Y6.1567
G01 X92.4254 Y6.1721
G01 X91.5206 Y6.1721
G01 X91.3638 Y6.1567
G01 X91.1627 Y6.0956
G01 X90.9773 Y5.9966
G01 X90.8143 Y5.8628
G01 X90.8009 Y5.8482
G01 X90.7869 Y5.8354
G01 X90.7795 Y5.8291
G01 X90.7642 Y5.8177
G01 X90.7425 Y5.8044
G01 X90.7196 Y5.7932
G01 X90.6957 Y5.7843
G01 X90.6710 Y5.7778
G01 X90.6614 Y5.7760
G01 X90.6426 Y5.7734
G01 X90.6171 Y5.7721
G01 X89.6000 Y5.7721
G01 X89.5745 Y5.7734
G01 X89.5493 Y5.7771
G01 X89.5245 Y5.7833
G01 X89.5005 Y5.7919
G01 X89.4833 Y5.7999
G01 X89.4718 Y5.8060
G01 X89.4583 Y5.8141
G01 X89.4503 Y5.8197
G01 X89.4326 Y5.8332
G01 X89.4139 Y5.8506
G01 X89.3991 Y5.8671
G01 X89.3876 Y5.8823
G01 X89.3821 Y5.8903
G01 X89.3723 Y5.9066
G01 X89.2686 Y6.1007
G01 X89.1352 Y6.2632
G01 X88.9727 Y6.3966
G01 X88.7873 Y6.4956
G01 X88.5862 Y6.5567
G01 X88.3770 Y6.5773
G01 X88.1678 Y6.5567
G01 X87.9667 Y6.4956
G01 X87.7813 Y6.3966
G01 X87.6188 Y6.2632
G01 X87.4855 Y6.1007
G01 X87.4342 Y6.0049
G01 X87.4227 Y5.9859
G01 X87.4075 Y5.9654
G01 X87.3948 Y5.9512
G01 X87.3880 Y5.9442
G01 X87.3739 Y5.9315
G01 X87.3663 Y5.9254
G01 X87.3510 Y5.9142
G01 X87.3348 Y5.9043
G01 X87.3262 Y5.8996
G01 X87.3090 Y5.8914
G01 X87.2851 Y5.8826
G01 X87.2636 Y5.8768
G01 X87.2508 Y5.8743
G01 X87.2288 Y5.8713
G01 X87.2066 Y5.8704
G01 X87.1811 Y5.8716
G01 X87.1559 Y5.8754
G01 X87.1374 Y5.8798
G01 X87.1249 Y5.8836
G01 X87.1041 Y5.8914
G01 X87.0840 Y5.9011
G01 X87.0622 Y5.9142
G01 X87.0417 Y5.9294
G01 X87.0275 Y5.9420
G01 X87.0183 Y5.9512
G01 X87.0036 Y5.9679
G01 X86.9923 Y5.9832
G01 X86.9870 Y5.9914
G01 X86.9773 Y6.0078
G01 X86.9691 Y6.0249
G01 X86.9652 Y6.0339
G01 X86.9588 Y6.0517
G01 X86.9523 Y6.0764
G01 X86.9483 Y6.1016
G01 X86.9467 Y6.1270
G01 X86.9466 Y6.2922
G01 X86.9402 Y6.3574
G01 X86.9250 Y6.4077
G01 X86.9002 Y6.4541
G01 X86.8668 Y6.4948
G01 X86.8261 Y6.5282
G01 X86.7797 Y6.5530
G01 X86.7224 Y6.5705
G01 X86.7045 Y6.5771
G01 X86.6844 Y6.5865
G01 X86.6651 Y6.5976
G01 X86.6569 Y6.6029
G01 X86.6391 Y6.6163
G01 X86.6226 Y6.6311
G01 X86.6074 Y6.6474
G01 X86.5991 Y6.6575
G01 X86.5861 Y6.6755
G01 X86.5733 Y6.6976
G01 X86.5639 Y6.7177
G01 X86.5553 Y6.7418
G01 X86.5491 Y6.7665
G01 X86.5457 Y6.7885
G01 X86.5449 Y6.7982
G01 X86.5441 Y6.8172
G01 X86.5441 Y9.4700
G01 X86.5451 Y9.4923
G01 X86.5485 Y9.5175
G01 X86.5544 Y9.5423
G01 X86.5627 Y9.5665
G01 X86.5719 Y9.5867
G01 X86.5780 Y9.5982
G01 X86.5861 Y9.6117
G01 X86.5917 Y9.6198
G01 X86.6052 Y9.6374
G01 X86.6226 Y9.6561
G01 X86.6391 Y9.6709
G01 X86.6543 Y9.6824
G01 X86.6623 Y9.6879
G01 X86.6786 Y9.6977
G01 X86.8727 Y9.8015
G01 X87.0352 Y9.9348
G01 X87.1686 Y10.0973
G01 X87.2676 Y10.2827
G01 X87.3287 Y10.4838
G01 X87.3493 Y10.6930
G01 X87.3287 Y10.9022
G01 X87.2676 Y11.1033
G01 X87.1686 Y11.2887
G01 X87.0352 Y11.4512
G01 X86.8727 Y11.5846
G01 X86.6873 Y11.6836
G01 X86.4862 Y11.7447
G01 X86.3294 Y11.7601
G01 X85.4246 Y11.7601
G01 X85.2678 Y11.7447
G01 X85.0667 Y11.6836
G01 X84.8813 Y11.5846
G01 X84.7188 Y11.4512
G01 X84.5855 Y11.2887
G01 X84.4864 Y11.1033
G01 X84.4254 Y10.9022
G01 X84.4048 Y10.6930
G01 X84.4254 Y10.4838
G01 X84.4864 Y10.2827
G01 X84.5855 Y10.0973
G01 X84.7188 Y9.9348
G01 X84.8813 Y9.8015
G01 X85.0754 Y9.6977
G01 X85.0971 Y9.6843
G01 X85.1174 Y9.6688
G01 X85.1338 Y9.6538
G01 X85.1509 Y9.6349
G01 X85.1661 Y9.6144
G01 X85.1777 Y9.5954
G01 X85.1889 Y9.5725
G01 X85.1967 Y9.5517
G01 X85.2005 Y9.5392
G01 X85.2055 Y9.5175
G01 X85.2087 Y9.4955
G01 X85.2099 Y9.4700
G01 X85.2099 Y6.8139
G01 X85.2087 Y6.7917
G01 X85.2049 Y6.7665
G01 X85.1987 Y6.7418
G01 X85.1901 Y6.7177
G01 X85.1792 Y6.6947
G01 X85.1661 Y6.6728
G01 X85.1509 Y6.6523
G01 X85.1338 Y6.6334
G01 X85.1149 Y6.6163
G01 X85.0997 Y6.6048
G01 X85.0889 Y6.5976
G01 X85.0696 Y6.5865
G01 X85.0495 Y6.5771
G01 X85.0317 Y6.5705
G01 X84.9743 Y6.5530
G01 X84.9279 Y6.5282
G01 X84.8872 Y6.4948
G01 X84.8539 Y6.4541
G01 X84.8291 Y6.4077
G01 X84.8138 Y6.3574
G01 X84.8074 Y6.2922
G01 X84.8074 Y6.2294
G01 X84.8064 Y6.2072
G01 X84.8030 Y6.1819
G01 X84.7971 Y6.1571
G01 X84.7888 Y6.1330
G01 X84.7782 Y6.1098
G01 X84.7654 Y6.0878
G01 X84.7504 Y6.0671
G01 X84.7441 Y6.0596
G01 X84.7312 Y6.0457
G01 X84.5338 Y5.8482
G01 X84.5149 Y5.8311
G01 X84.4998 Y5.8197
G01 X84.4917 Y5.8141
G01 X84.4754 Y5.8044
G01 X84.4667 Y5.7999
G01 X84.4495 Y5.7919
G01 X84.4317 Y5.7853
G01 X84.4224 Y5.7824
G01 X84.4039 Y5.7778
G01 X84.3943 Y5.7760
G01 X84.3755 Y5.7734
G01 X84.3500 Y5.7721
G01 X65.4330 Y5.7721
G01 X65.4140 Y5.7729
G01 X65.4043 Y5.7737
G01 X65.3887 Y5.7760
G01 X65.3759 Y5.7785
G01 X65.3544 Y5.7843
G01 X65.3305 Y5.7932
G01 X65.3105 Y5.8028
G01 X65.2886 Y5.8159
G01 X65.2681 Y5.8311
G01 X65.2539 Y5.8437
G01 X64.3005 Y6.7969
G01 X64.2836 Y6.8161
G01 X64.2723 Y6.8313
G01 X64.2670 Y6.8395
G01 X64.2574 Y6.8559
G01 X64.2491 Y6.8730
G01 X64.2453 Y6.8820
G01 X64.2399 Y6.8968
G01 X64.2370 Y6.9061
G01 X64.2324 Y6.9245
G01 X64.2283 Y6.9497
G01 X64.2275 Y6.9594
G01 X64.2267 Y6.9784
G01 X64.2279 Y7.0039
G01 X64.2306 Y7.0227
G01 X64.2324 Y7.0323
G01 X64.2370 Y7.0507
G01 X64.2399 Y7.0600
G01 X64.2465 Y7.0779
G01 X64.2544 Y7.0951
G01 X64.2589 Y7.1038
G01 X64.2687 Y7.1201
G01 X64.2817 Y7.1381
G01 X64.2899 Y7.1482
G01 X64.3028 Y7.1622
G01 X64.3223 Y7.1798
G01 X64.4681 Y7.3575
G01 X64.5765 Y7.5602
G01 X64.6463 Y7.7900
G01 X64.6529 Y7.8078
G01 X64.6623 Y7.8280
G01 X64.6670 Y7.8365
G01 X64.6787 Y7.8554
G01 X64.6901 Y7.8707
G01 X64.6964 Y7.8782
G01 X64.7092 Y7.8921
G01 X64.7232 Y7.9050
G01 X64.7307 Y7.9113
G01 X64.7459 Y7.9226
G01 X64.7541 Y7.9279
G01 X64.7705 Y7.9376
G01 X64.7906 Y7.9472
G01 X64.7996 Y7.9508
G01 X64.8176 Y7.9571
G01 X64.8359 Y7.9618
G01 X64.8455 Y7.9638
G01 X64.8643 Y7.9666
G01 X64.8740 Y7.9675
G01 X64.8930 Y7.9682
G01 X64.9185 Y7.9670
G01 X64.9373 Y7.9644
G01 X64.9469 Y7.9626
G01 X64.9716 Y7.9561
G01 X64.9894 Y7.9497
G01 X64.9984 Y7.9458
G01 X65.0155 Y7.9376
G01 X65.0319 Y7.9279
G01 X65.0401 Y7.9226
G01 X65.0528 Y7.9133
G01 X65.0604 Y7.9071
G01 X65.0745 Y7.8944
G01 X65.0813 Y7.8874
G01 X65.0939 Y7.8732
G01 X65.1091 Y7.8527
G01 X65.1207 Y7.8337
G01 X65.1305 Y7.8138
G01 X65.1355 Y7.8017
G01 X65.1417 Y7.7838
G01 X65.2095 Y7.5602
G01 X65.3179 Y7.3575
G01 X65.4638 Y7.1798
G01 X65.6415 Y7.0339
G01 X65.8442 Y6.9255
G01 X66.0291 Y6.8693
G01 X66.0469 Y6.8628
G01 X66.0641 Y6.8548
G01 X66.1058 Y6.8327
G01 X66.3446 Y6.7603
G01 X66.5308 Y6.7419
G01 X78.0380 Y6.7419
G01 X78.0602 Y6.7410
G01 X78.1130 Y6.7358
G01 X78.3614 Y6.7603
G01 X78.6003 Y6.8327
G01 X78.8204 Y6.9504
G01 X79.0133 Y7.1087
G01 X79.0470 Y7.1497
G01 X79.0620 Y7.1661
G01 X85.4017 Y13.5058
G01 X85.4206 Y13.5229
G01 X85.4411 Y13.5381
G01 X85.4630 Y13.5512
G01 X85.4831 Y13.5609
G01 X85.5070 Y13.5697
G01 X85.5284 Y13.5755
G01 X85.5412 Y13.5780
G01 X85.5568 Y13.5803
G01 X85.5665 Y13.5812
G01 X85.5855 Y13.5819
G01 X86.5090 Y13.5819
G01 X86.5280 Y13.5812
G01 X86.5410 Y13.5799
G01 X86.5629 Y13.5763
G01 X86.5845 Y13.5707
G01 X86.6055 Y13.5634
G01 X86.6257 Y13.5542
G01 X86.6344 Y13.5497
G01 X86.6534 Y13.5381
G01 X86.6714 Y13.5250
G01 X86.6789 Y13.5187
G01 X86.6928 Y13.5058
G01 X89.9451 Y10.2535
G01 X89.9601 Y10.2371
G01 X89.9750 Y10.2190
G01 X90.0766 Y10.1357
G01 X90.1925 Y10.0737
G01 X90.3182 Y10.0356
G01 X90.4490 Y10.0227
G01 X90.4723 Y10.0250
G01 X90.4945 Y10.0259
G01 X92.1411 Y10.0259
G01 X92.1666 Y10.0247
G01 X92.1854 Y10.0220
G01 X92.1950 Y10.0203
G01 X92.2166 Y10.0147
G01 X92.2406 Y10.0061
G01 X92.2636 Y9.9952
G01 X92.2828 Y9.9839
G01 X92.2909 Y9.9784
G01 X92.3060 Y9.9669
G01 X92.3249 Y9.9498
G01 X92.3383 Y9.9352
G01 X92.5013 Y9.8015
G01 X92.6918 Y9.6997
G01 X92.7103 Y9.6912
G01 X92.7190 Y9.6866
G01 X92.7353 Y9.6769
G01 X92.7434 Y9.6714
G01 X92.7560 Y9.6620
G01 X92.7897 Y9.6344
G01 X93.0098 Y9.5167
G01 X93.2486 Y9.4443
G01 X93.4348 Y9.4259
G01 X106.6300 Y9.4259
G01 X106.6522 Y9.4250
G01 X106.7050 Y9.4198
G01 X106.9534 Y9.4443
G01 X107.1923 Y9.5167
G01 X107.4124 Y9.6344
G01 X107.6053 Y9.7927
G01 X107.6390 Y9.8337
G01 X107.6540 Y9.8501
G01 X110.5959 Y12.7920
G01 X110.6123 Y12.8070
G01 X110.6533 Y12.8407
G01 X110.8117 Y13.0337
G01 X110.9293 Y13.2538
G01 X111.0018 Y13.4926
G01 X111.0262 Y13.7410
G01 X111.0211 Y13.7938
G01 X111.0201 Y13.8160
G01 X111.0203 Y23.4046
G01 X111.0217 Y23.4268
G01 X111.0258 Y23.4520
G01 X111.0323 Y23.4767
G01 X111.0412 Y23.5006
G01 X111.0524 Y23.5235
G01 X111.0657 Y23.5452
G01 X111.0812 Y23.5655
G01 X111.0986 Y23.5842
G01 X111.1177 Y23.6011
G01 X111.1383 Y23.6160
G01 X111.1604 Y23.6288
G01 X111.1836 Y23.6395
G01 X111.2077 Y23.6478
G01 X111.2325 Y23.6536
G01 X111.2513 Y23.6564
G01 X111.3054 Y23.6618
G01 X111.3557 Y23.6771
G01 X111.4021 Y23.7019
G01 X111.4428 Y23.7352
G01 X111.4762 Y23.7759
G01 X111.5010 Y23.8223
G01 X111.5162 Y23.8727
G01 X111.5226 Y23.9378
G01 X111.5226 Y26.9122
G01 X111.5162 Y26.9774
G01 X111.5010 Y27.0277
G01 X111.4762 Y27.0741
G01 X111.4428 Y27.1148
G01 X111.4021 Y27.1482
G01 X111.3557 Y27.1730
G01 X111.3054 Y27.1882
G01 X111.2402 Y27.1946
G01 X108.2658 Y27.1946
G01 X108.2007 Y27.1882
G01 X108.1503 Y27.1730
G01 X108.1039 Y27.1482
G01 X108.0632 Y27.1148
G01 X108.0299 Y27.0741
G01 X108.0051 Y27.0277
G01 X107.9898 Y26.9774
G01 X107.9834 Y26.9122
G01 X107.9834 Y26.4790
G01 X107.9826 Y26.4600
G01 X107.9818 Y26.4503
G01 X107.9790 Y26.4315
G01 X107.9731 Y26.4067
G01 X107.9648 Y26.3826
G01 X107.9542 Y26.3594
G01 X107.9495 Y26.3508
G01 X107.9377 Y26.3319
G01 X107.9244 Y26.3141
G01 X107.9117 Y26.2999
G01 X107.9049 Y26.2929
G01 X107.8884 Y26.2781
G01 X107.8732 Y26.2667
G01 X107.8651 Y26.2611
G01 X107.8460 Y26.2498
G01 X107.8289 Y26.2415
G01 X107.8199 Y26.2377
G01 X107.7989 Y26.2303
G01 X107.7774 Y26.2248
G01 X107.7677 Y26.2230
G01 X107.7489 Y26.2204
G01 X107.7267 Y26.2191
G01 X101.8379 Y26.2191
G01 X101.8189 Y26.2199
G01 X101.8092 Y26.2207
G01 X101.7872 Y26.2241
G01 X101.7687 Y26.2286
G01 X101.7593 Y26.2313
G01 X101.7415 Y26.2377
G01 X101.7325 Y26.2415
G01 X101.7154 Y26.2498
G01 X101.6990 Y26.2594
G01 X101.6908 Y26.2647
G01 X101.6730 Y26.2781
G01 X101.6541 Y26.2952
G01 X101.6407 Y26.3098
G01 X101.4777 Y26.4436
G01 X101.2923 Y26.5426
G01 X101.0912 Y26.6037
G01 X100.9344 Y26.6191
G01 X100.0296 Y26.6191
G01 X99.8728 Y26.6037
G01 X99.6717 Y26.5426
G01 X99.4863 Y26.4436
G01 X99.3238 Y26.3102
G01 X99.1905 Y26.1477
G01 X99.0914 Y25.9623
G01 X99.0304 Y25.7612
G01 X99.0098 Y25.5520
G01 X99.0304 Y25.3428
G01 X99.0914 Y25.1417
G01 X99.1905 Y24.9563
G01 X99.3238 Y24.7938
G01 X99.4863 Y24.6605
G01 X99.6717 Y24.5614
G01 X99.8728 Y24.5004
G01 X100.0296 Y24.4849
G01 X100.9344 Y24.4849
G01 X101.0912 Y24.5004
G01 X101.2923 Y24.5614
G01 X101.4777 Y24.6605
G01 X101.6407 Y24.7942
G01 X101.6541 Y24.8088
G01 X101.6730 Y24.8259
G01 X101.6908 Y24.8393
G01 X101.6990 Y24.8446
G01 X101.7154 Y24.8542
G01 X101.7325 Y24.8625
G01 X101.7415 Y24.8664
G01 X101.7593 Y24.8727
G01 X101.7687 Y24.8755
G01 X101.7872 Y24.8799
G01 X101.8092 Y24.8833
G01 X101.8189 Y24.8842
G01 X101.8379 Y24.8849
G01 X107.4640 Y24.8849
G01 X107.4830 Y24.8842
G01 X107.4928 Y24.8833
G01 X107.5147 Y24.8799
G01 X107.5364 Y24.8746
G01 X107.5457 Y24.8717
G01 X107.5665 Y24.8639
G01 X107.5866 Y24.8542
G01 X107.6057 Y24.8429
G01 X107.6138 Y24.8374
G01 X107.6314 Y24.8238
G01 X107.6478 Y24.8088
G01 X107.9095 Y24.5470
G01 X107.9244 Y24.5305
G01 X107.9377 Y24.5127
G01 X107.9495 Y24.4938
G01 X107.9556 Y24.4823
G01 X107.9648 Y24.4620
G01 X107.9731 Y24.4379
G01 X107.9790 Y24.4131
G01 X107.9818 Y24.3943
G01 X107.9826 Y24.3846
G01 X107.9834 Y24.3656
G01 X107.9834 Y23.9378
G01 X107.9898 Y23.8727
G01 X108.0051 Y23.8223
G01 X108.0299 Y23.7759
G01 X108.0632 Y23.7352
G01 X108.1039 Y23.7019
G01 X108.1503 Y23.6771
G01 X108.2007 Y23.6618
G01 X108.2580 Y23.6560
G01 X108.2767 Y23.6530
G01 X108.2983 Y23.6478
G01 X108.3194 Y23.6406
G01 X108.3285 Y23.6370
G01 X108.3485 Y23.6273
G01 X108.3649 Y23.6177
G01 X108.3731 Y23.6124
G01 X108.3909 Y23.5990
G01 X108.4075 Y23.5842
G01 X108.4143 Y23.5772
G01 X108.4269 Y23.5630
G01 X108.4403 Y23.5452
G01 X108.4520 Y23.5263
G01 X108.4567 Y23.5178
G01 X108.4649 Y23.5006
G01 X108.4685 Y23.4915
G01 X108.4747 Y23.4736
G01 X108.4795 Y23.4552
G01 X108.4815 Y23.4456
G01 X108.4843 Y23.4268
G01 X108.4852 Y23.4171
G01 X108.4859 Y23.3981
G01 X108.4859 Y14.3735
G01 X108.4847 Y14.3480
G01 X108.4809 Y14.3228
G01 X108.4747 Y14.2981
G01 X108.4685 Y14.2801
G01 X108.4649 Y14.2711
G01 X108.4552 Y14.2510
G01 X108.4421 Y14.2291
G01 X108.4309 Y14.2138
G01 X108.4248 Y14.2061
G01 X108.4098 Y14.1897
G01 X106.2563 Y12.0362
G01 X106.2374 Y12.0191
G01 X106.2169 Y12.0039
G01 X106.1950 Y11.9908
G01 X106.1720 Y11.9799
G01 X106.1480 Y11.9713
G01 X106.1232 Y11.9651
G01 X106.0980 Y11.9614
G01 X106.0725 Y11.9601
G01 X93.4348 Y11.9601
G01 X93.2486 Y11.9418
G01 X93.0098 Y11.8693
G01 X92.7897 Y11.7517
G01 X92.7560 Y11.7241
G01 X92.7434 Y11.7147
G01 X92.7353 Y11.7091
G01 X92.7190 Y11.6994
G01 X92.7103 Y11.6949
G01 X92.6918 Y11.6864
G01 X92.5013 Y11.5846
G01 X92.3383 Y11.4508
G01 X92.3249 Y11.4362
G01 X92.3109 Y11.4234
G01 X92.3035 Y11.4171
G01 X92.2882 Y11.4057
G01 X92.2800 Y11.4004
G01 X92.2636 Y11.3908
G01 X92.2406 Y11.3799
G01 X92.2166 Y11.3713
G01 X92.1918 Y11.3651
G01 X92.1666 Y11.3614
G01 X92.1411 Y11.3601
G01 X90.8297 Y11.3601
G01 X90.8075 Y11.3614
G01 X90.7887 Y11.3640
G01 X90.7791 Y11.3658
G01 X90.7575 Y11.3713
G01 X90.7366 Y11.3787
G01 X90.7276 Y11.3825
G01 X90.7105 Y11.3908
G01 X90.6913 Y11.4021
G01 X90.6833 Y11.4077
G01 X90.6681 Y11.4191
G01 X90.6492 Y11.4362
G01 X88.2219 Y13.8638
G01 X88.2092 Y13.8780
G01 X88.1959 Y13.8958
G01 X88.1841 Y13.9147
G01 X88.1780 Y13.9262
G01 X88.1700 Y13.9434
G01 X88.1614 Y13.9674
G01 X88.1552 Y13.9921
G01 X88.1523 Y14.0109
G01 X88.1510 Y14.0239
G01 X88.1503 Y14.0461
G01 X88.1515 Y14.0683
G01 X88.1546 Y14.0904
G01 X88.1567 Y14.0999
G01 X88.1624 Y14.1214
G01 X88.1700 Y14.1423
G01 X88.1794 Y14.1625
G01 X88.1923 Y14.1845
G01 X88.2052 Y14.2026
G01 X88.2113 Y14.2102
G01 X88.2219 Y14.2219
G01 X88.2311 Y14.2311
G01 X88.2453 Y14.2438
G01 X88.2657 Y14.2590
G01 X88.2876 Y14.2721
G01 X88.3107 Y14.2830
G01 X88.3316 Y14.2906
G01 X88.3410 Y14.2933
G01 X88.3594 Y14.2978
G01 X88.3782 Y14.3007
G01 X88.5862 Y14.3214
G01 X88.7873 Y14.3824
G01 X88.9727 Y14.4815
G01 X89.1352 Y14.6148
G01 X89.2686 Y14.7773
G01 X89.3723 Y14.9714
G01 X89.3821 Y14.9877
G01 X89.3876 Y14.9957
G01 X89.3991 Y15.0109
G01 X89.4139 Y15.0275
G01 X89.4302 Y15.0427
G01 X89.4402 Y15.0509
G01 X89.4583 Y15.0639
G01 X89.4804 Y15.0767
G01 X89.5005 Y15.0861
G01 X89.5245 Y15.0947
G01 X89.5493 Y15.1009
G01 X89.5713 Y15.1043
G01 X89.5810 Y15.1052
G01 X89.6000 Y15.1059
G01 X90.6171 Y15.1059
G01 X90.6426 Y15.1047
G01 X90.6614 Y15.1020
G01 X90.6710 Y15.1003
G01 X90.6957 Y15.0937
G01 X90.7196 Y15.0849
G01 X90.7425 Y15.0737
G01 X90.7642 Y15.0603
G01 X90.7795 Y15.0490
G01 X90.7869 Y15.0427
G01 X90.8009 Y15.0298
G01 X90.8143 Y15.0152
G01 X90.9773 Y14.8815
G01 X91.1627 Y14.7824
G01 X91.3638 Y14.7214
G01 X91.5206 Y14.7059
G01 X92.4254 Y14.7059
G01 X92.5822 Y14.7214
G01 X92.7833 Y14.7824
G01 X92.9687 Y14.8815
G01 X93.1312 Y15.0148
G01 X93.2646 Y15.1773
G01 X93.3636 Y15.3627
G01 X93.4051 Y15.4994
G01 X93.4247 Y15.5638
G01 X93.4453 Y15.7730
G01 X93.4247 Y15.9822
G01 X93.3636 Y16.1833
G01 X93.2646 Y16.3687
G01 X93.1312 Y16.5312
G01 X92.9687 Y16.6646
G01 X92.7833 Y16.7636
G01 X92.5822 Y16.8247
G01 X92.4254 Y16.8401
G01 X91.5206 Y16.8401
G01 X91.3638 Y16.8247
G01 X91.1627 Y16.7636
G01 X90.9773 Y16.6646
G01 X90.8143 Y16.5308
G01 X90.8009 Y16.5162
G01 X90.7869 Y16.5034
G01 X90.7795 Y16.4971
G01 X90.7615 Y16.4839
G01 X90.7453 Y16.4740
G01 X90.7367 Y16.4693
G01 X90.7196 Y16.4612
G01 X90.7105 Y16.4575
G01 X90.6957 Y16.4523
G01 X90.6863 Y16.4496
G01 X90.6678 Y16.4451
G01 X90.6491 Y16.4421
G01 X90.6393 Y16.4411
G01 X90.6171 Y16.4401
G01 X89.6000 Y16.4401
G01 X89.5745 Y16.4414
G01 X89.5525 Y16.4445
G01 X89.5308 Y16.4496
G01 X89.5184 Y16.4533
G01 X89.5005 Y16.4599
G01 X89.4775 Y16.4708
G01 X89.4556 Y16.4839
G01 X89.4402 Y16.4951
G01 X89.4302 Y16.5034
G01 X89.4139 Y16.5186
G01 X89.3991 Y16.5351
G01 X89.3876 Y16.5503
G01 X89.3821 Y16.5583
G01 X89.3723 Y16.5746
G01 X89.2686 Y16.7687
G01 X89.1352 Y16.9312
G01 X88.9727 Y17.0646
G01 X88.7873 Y17.1636
G01 X88.5862 Y17.2247
G01 X88.3770 Y17.2453
G01 X88.1678 Y17.2247
G01 X87.9667 Y17.1636
G01 X87.7813 Y17.0646
G01 X87.6188 Y16.9312
G01 X87.4855 Y16.7687
G01 X87.4358 Y16.6758
G01 X87.4227 Y16.6539
G01 X87.4095 Y16.6359
G01 X87.4032 Y16.6285
G01 X87.3903 Y16.6145
G01 X87.3739 Y16.5995
G01 X87.3663 Y16.5934
G01 X87.3510 Y16.5822
G01 X87.3291 Y16.5691
G01 X87.3060 Y16.5582
G01 X87.2820 Y16.5496
G01 X87.2573 Y16.5434
G01 X87.2320 Y16.5396
G01 X87.2066 Y16.5384
G01 X87.1876 Y16.5391
G01 X87.1778 Y16.5400
G01 X87.1591 Y16.5428
G01 X87.1495 Y16.5448
G01 X87.1311 Y16.5496
G01 X87.1132 Y16.5558
G01 X87.1041 Y16.5594
G01 X87.0869 Y16.5676
G01 X87.0784 Y16.5723
G01 X87.0622 Y16.5822
G01 X87.0468 Y16.5934
G01 X87.0392 Y16.5995
G01 X87.0251 Y16.6122
G01 X87.0183 Y16.6192
G01 X87.0077 Y16.6309
G01 X87.0016 Y16.6385
G01 X86.9905 Y16.6539
G01 X86.9806 Y16.6701
G01 X86.9758 Y16.6787
G01 X86.9677 Y16.6958
G01 X86.9588 Y16.7197
G01 X86.9523 Y16.7444
G01 X86.9487 Y16.7663
G01 X86.9476 Y16.7761
G01 X86.9466 Y16.7983
G01 X86.9466 Y16.9602
G01 X86.9402 Y17.0254
G01 X86.9250 Y17.0757
G01 X86.9002 Y17.1221
G01 X86.8668 Y17.1628
G01 X86.8261 Y17.1962
G01 X86.7797 Y17.2210
G01 X86.7294 Y17.2362
G01 X86.6642 Y17.2426
G01 X85.4584 Y17.2426
G01 X85.4362 Y17.2436
G01 X85.4109 Y17.2470
G01 X85.3893 Y17.2521
G01 X85.3799 Y17.2548
G01 X85.3651 Y17.2601
G01 X85.3530 Y17.2651
G01 X85.3359 Y17.2733
G01 X85.3140 Y17.2865
G01 X85.2936 Y17.3016
G01 X85.2747 Y17.3188
G01 X84.8569 Y17.7365
G01 X84.8419 Y17.7529
G01 X84.8270 Y17.7710
G01 X84.8089 Y17.7859
G01 X84.7925 Y17.8009
G01 X83.0642 Y19.5292
G01 X83.0514 Y19.5432
G01 X83.0451 Y19.5506
G01 X83.0337 Y19.5659
G01 X83.0284 Y19.5741
G01 X83.0188 Y19.5905
G01 X83.0105 Y19.6076
G01 X83.0067 Y19.6166
G01 X82.9993 Y19.6375
G01 X82.9938 Y19.6591
G01 X82.9920 Y19.6687
G01 X82.9894 Y19.6875
G01 X82.9881 Y19.7130
G01 X82.9881 Y19.7347
G01 X82.9897 Y19.7602
G01 X82.9931 Y19.7822
G01 X82.9984 Y19.8038
G01 X83.0055 Y19.8248
G01 X83.0105 Y19.8369
G01 X83.0188 Y19.8540
G01 X83.0319 Y19.8759
G01 X83.0471 Y19.8964
G01 X83.0597 Y19.9105
G01 X83.0666 Y19.9175
G01 X83.0831 Y19.9324
G01 X83.1009 Y19.9457
G01 X83.1091 Y19.9511
G01 X83.1255 Y19.9607
G01 X83.1426 Y19.9689
G01 X83.1516 Y19.9728
G01 X83.1726 Y19.9802
G01 X83.1909 Y19.9850
G01 X83.2005 Y19.9870
G01 X83.2225 Y19.9901
G01 X83.2448 Y19.9913
G01 X83.4082 Y19.9914
G01 X83.4734 Y19.9978
G01 X83.5237 Y20.0131
G01 X83.5701 Y20.0379
G01 X83.6108 Y20.0712
G01 X83.6442 Y20.1119
G01 X83.6690 Y20.1583
G01 X83.6842 Y20.2087
G01 X83.6906 Y20.2738
G01 X83.6906 Y22.4482
G01 X83.6842 Y22.5134
G01 X83.6690 Y22.5637
G01 X83.6442 Y22.6101
G01 X83.6108 Y22.6508
G01 X83.5701 Y22.6842
G01 X83.5237 Y22.7090
G01 X83.4734 Y22.7242
G01 X83.4082 Y22.7306
G01 X83.2480 Y22.7306
G01 X83.2258 Y22.7316
G01 X83.2037 Y22.7345
G01 X83.1941 Y22.7363
G01 X83.1726 Y22.7418
G01 X83.1516 Y22.7492
G01 X83.1426 Y22.7531
G01 X83.1255 Y22.7613
G01 X83.1036 Y22.7745
G01 X83.0831 Y22.7896
G01 X83.0689 Y22.8023
G01 X83.0619 Y22.8091
G01 X83.0492 Y22.8232
G01 X83.0431 Y22.8308
G01 X83.0319 Y22.8462
G01 X83.0220 Y22.8624
G01 X83.0173 Y22.8709
G01 X83.0092 Y22.8881
G01 X83.0003 Y22.9120
G01 X82.9945 Y22.9335
G01 X82.9920 Y22.9463
G01 X82.9894 Y22.9651
G01 X82.9881 Y22.9906
G01 X82.9881 Y24.5956
G01 X82.9894 Y24.6211
G01 X82.9925 Y24.6431
G01 X82.9976 Y24.6648
G01 X83.0013 Y24.6773
G01 X83.0079 Y24.6951
G01 X83.0188 Y24.7182
G01 X83.0319 Y24.7400
G01 X83.0451 Y24.7580
G01 X83.0514 Y24.7655
G01 X83.0642 Y24.7794
G01 X83.0782 Y24.7923
G01 X83.0857 Y24.7986
G01 X83.1036 Y24.8117
G01 X83.1925 Y24.8711
G01 X83.3829 Y25.0615
G01 X83.5325 Y25.2855
G01 X83.6356 Y25.5342
G01 X83.6881 Y25.7984
G01 X83.6881 Y26.0677
G01 X83.6356 Y26.3318
G01 X83.5325 Y26.5806
G01 X83.3829 Y26.8045
G01 X83.1925 Y26.9949
G01 X82.9686 Y27.1445
G01 X82.7198 Y27.2476
G01 X82.4557 Y27.3001
G01 X82.1864 Y27.3001
G01 X81.9222 Y27.2476
G01 X81.6735 Y27.1445
G01 X81.4495 Y26.9949
G01 X81.2591 Y26.8045
G01 X81.1095 Y26.5806
G01 X81.0065 Y26.3318
G01 X80.9539 Y26.0677
G01 X80.9539 Y25.7984
G01 X81.0065 Y25.5342
G01 X81.1095 Y25.2855
G01 X81.2591 Y25.0615
G01 X81.4495 Y24.8711
G01 X81.5384 Y24.8117
G01 X81.5564 Y24.7986
G01 X81.5638 Y24.7923
G01 X81.5778 Y24.7794
G01 X81.5907 Y24.7655
G01 X81.5970 Y24.7580
G01 X81.6101 Y24.7400
G01 X81.6232 Y24.7182
G01 X81.6341 Y24.6951
G01 X81.6407 Y24.6773
G01 X81.6445 Y24.6648
G01 X81.6495 Y24.6431
G01 X81.6527 Y24.6211
G01 X81.6539 Y24.5956
G01 X81.6539 Y22.9906
G01 X81.6527 Y22.9651
G01 X81.6500 Y22.9463
G01 X81.6475 Y22.9335
G01 X81.6418 Y22.9120
G01 X81.6354 Y22.8941
G01 X81.6315 Y22.8851
G01 X81.6232 Y22.8680
G01 X81.6136 Y22.8517
G01 X81.6083 Y22.8435
G01 X81.5970 Y22.8282
G01 X81.5801 Y22.8091
G01 X81.5731 Y22.8023
G01 X81.5589 Y22.7896
G01 X81.5384 Y22.7745
G01 X81.5165 Y22.7613
G01 X81.4994 Y22.7531
G01 X81.4905 Y22.7492
G01 X81.4695 Y22.7418
G01 X81.4479 Y22.7363
G01 X81.4383 Y22.7345
G01 X81.4162 Y22.7316
G01 X81.3940 Y22.7306
G01 X81.2338 Y22.7306
G01 X81.1687 Y22.7242
G01 X81.1183 Y22.7090
G01 X81.0719 Y22.6842
G01 X81.0312 Y22.6508
G01 X80.9979 Y22.6101
G01 X80.9731 Y22.5637
G01 X80.9578 Y22.5134
G01 X80.9514 Y22.4482
G01 X80.9514 Y20.2738
G01 X80.9578 Y20.2087
G01 X80.9731 Y20.1583
G01 X80.9979 Y20.1119
G01 X81.0312 Y20.0712
G01 X81.0719 Y20.0379
G01 X81.1183 Y20.0131
G01 X81.1687 Y19.9978
G01 X81.2338 Y19.9914
G01 X81.3973 Y19.9913
G01 X81.4227 Y19.9898
G01 X81.4415 Y19.9870
G01 X81.4511 Y19.9850
G01 X81.4695 Y19.9802
G01 X81.4935 Y19.9716
G01 X81.5165 Y19.9607
G01 X81.5329 Y19.9511
G01 X81.5437 Y19.9438
G01 X81.5614 Y19.9303
G01 X81.5778 Y19.9152
G01 X81.5928 Y19.8988
G01 X81.6064 Y19.8812
G01 X81.6136 Y19.8704
G01 X81.6232 Y19.8540
G01 X81.6341 Y19.8309
G01 X81.6427 Y19.8069
G01 X81.6475 Y19.7885
G01 X81.6495 Y19.7790
G01 X81.6527 Y19.7569
G01 X81.6539 Y19.7315
G01 X81.6539 Y19.3745
G01 X81.6530 Y19.3523
G01 X81.6507 Y19.3290
G01 X81.6636 Y19.1982
G01 X81.7017 Y19.0725
G01 X81.7637 Y18.9566
G01 X81.8470 Y18.8550
G01 X81.8651 Y18.8401
G01 X81.8815 Y18.8251
G01 X83.6098 Y17.0968
G01 X83.6248 Y17.0804
G01 X83.6309 Y17.0728
G01 X83.6421 Y17.0574
G01 X83.6552 Y17.0356
G01 X83.6635 Y17.0185
G01 X83.6674 Y17.0095
G01 X83.6738 Y16.9916
G01 X83.6765 Y16.9822
G01 X83.6809 Y16.9637
G01 X83.6839 Y16.9450
G01 X83.6850 Y16.9353
G01 X83.6859 Y16.9163
G01 X83.6859 Y15.4783
G01 X83.6847 Y15.4560
G01 X83.6809 Y15.4308
G01 X83.6747 Y15.4061
G01 X83.6685 Y15.3881
G01 X83.6635 Y15.3761
G01 X83.6537 Y15.3561
G01 X83.6421 Y15.3371
G01 X83.6269 Y15.3166
G01 X83.6098 Y15.2977
G01 X77.6643 Y9.3522
G01 X77.6454 Y9.3351
G01 X77.6249 Y9.3199
G01 X77.6030 Y9.3068
G01 X77.5859 Y9.2985
G01 X77.5769 Y9.2947
G01 X77.5560 Y9.2873
G01 X77.5312 Y9.2811
G01 X77.5060 Y9.2774
G01 X77.4805 Y9.2761
G01 X67.5724 Y9.2761
G01 X67.5469 Y9.2774
G01 X67.5217 Y9.2811
G01 X67.4970 Y9.2873
G01 X67.4729 Y9.2959
G01 X67.4499 Y9.3068
G01 X67.4335 Y9.3164
G01 X67.4253 Y9.3217
G01 X67.4050 Y9.3372
G01 X67.3910 Y9.3499
G01 X67.3841 Y9.3569
G01 X67.3736 Y9.3686
G01 X67.3675 Y9.3763
G01 X67.3563 Y9.3916
G01 X67.3464 Y9.4078
G01 X67.3417 Y9.4164
G01 X67.3336 Y9.4336
G01 X67.3247 Y9.4575
G01 X67.3219 Y9.4668
G01 X67.3175 Y9.4853
G01 X67.3137 Y9.5105
G01 X67.3125 Y9.5360
G01 X67.3133 Y9.5550
G01 X67.3141 Y9.5647
G01 X67.3182 Y9.5899
G01 X67.3228 Y9.6083
G01 X67.3257 Y9.6177
G01 X67.3311 Y9.6324
G01 X67.3349 Y9.6414
G01 X67.3432 Y9.6585
G01 X67.3528 Y9.6749
G01 X67.3581 Y9.6831
G01 X67.3695 Y9.6984
G01 X67.3758 Y9.7058
G01 X67.3886 Y9.7198
G01 X68.0370 Y10.3681
G01 X68.0535 Y10.3829
G01 X68.0687 Y10.3944
G01 X68.0767 Y10.3999
G01 X68.0959 Y10.4112
G01 X68.1159 Y10.4209
G01 X68.1250 Y10.4245
G01 X68.1430 Y10.4307
G01 X68.1613 Y10.4355
G01 X68.1709 Y10.4375
G01 X68.1897 Y10.4403
G01 X68.1994 Y10.4412
G01 X68.2184 Y10.4419
G01 X72.0860 Y10.4419
G01 X72.1082 Y10.4410
G01 X72.1610 Y10.4358
G01 X72.4094 Y10.4603
G01 X72.6483 Y10.5327
G01 X72.8684 Y10.6504
G01 X73.0613 Y10.8087
G01 X73.0950 Y10.8497
G01 X73.1100 Y10.8661
G01 X76.9792 Y14.7352
G01 X76.9981 Y14.7524
G01 X77.0186 Y14.7676
G01 X77.0376 Y14.7791
G01 X77.0463 Y14.7836
G01 X77.0635 Y14.7916
G01 X77.0813 Y14.7981
G01 X77.0907 Y14.8011
G01 X77.1091 Y14.8057
G01 X77.1187 Y14.8075
G01 X77.1375 Y14.8101
G01 X77.1630 Y14.8114
G01 X77.5202 Y14.8114
G01 X77.5854 Y14.8178
G01 X77.6357 Y14.8331
G01 X77.6821 Y14.8579
G01 X77.7228 Y14.8912
G01 X77.7562 Y14.9319
G01 X77.7810 Y14.9783
G01 X77.7962 Y15.0287
G01 X77.8017 Y15.0840
G01 X77.8045 Y15.1028
G01 X77.8104 Y15.1277
G01 X77.8176 Y15.1489
G01 X77.8227 Y15.1610
G01 X77.8295 Y15.1752
G01 X77.8342 Y15.1838
G01 X77.8461 Y15.2027
G01 X77.8616 Y15.2231
G01 X77.8791 Y15.2418
G01 X77.8933 Y15.2546
G01 X77.9009 Y15.2607
G01 X77.9164 Y15.2718
G01 X77.9327 Y15.2817
G01 X77.9413 Y15.2864
G01 X77.9556 Y15.2932
G01 X77.9646 Y15.2970
G01 X77.9826 Y15.3033
G01 X78.0074 Y15.3097
G01 X78.0171 Y15.3115
G01 X78.0360 Y15.3140
G01 X78.0616 Y15.3151
G01 X78.0839 Y15.3140
G01 X78.0936 Y15.3129
G01 X78.1124 Y15.3098
G01 X78.1372 Y15.3034
G01 X78.1583 Y15.2958
G01 X78.1673 Y15.2919
G01 X78.1844 Y15.2835
G01 X78.2062 Y15.2701
G01 X78.2241 Y15.2568
G01 X78.2316 Y15.2504
G01 X78.2455 Y15.2373
G01 X78.2604 Y15.2207
G01 X78.2757 Y15.2002
G01 X78.3139 Y15.1419
G01 X78.4758 Y14.9767
G01 X78.6668 Y14.8464
G01 X78.8461 Y14.7700
G01 X78.8461 Y15.0331
G01 X78.7933 Y15.0583
G01 X78.7175 Y15.1036
G01 X78.7094 Y15.1091
G01 X78.6464 Y15.1559
G01 X78.6387 Y15.1620
G01 X78.5734 Y15.2214
G01 X78.5162 Y15.2843
G01 X78.5079 Y15.2944
G01 X78.4611 Y15.3574
G01 X78.4556 Y15.3655
G01 X78.4103 Y15.4413
G01 X78.3738 Y15.5181
G01 X78.3688 Y15.5301
G01 X78.3403 Y15.6102
G01 X78.3181 Y15.6990
G01 X78.3055 Y15.7831
G01 X78.3042 Y15.7961
G01 X78.3002 Y15.8810
G01 X78.3002 Y16.6843
G01 X78.3047 Y16.7724
G01 X78.3170 Y16.8566
G01 X78.3195 Y16.8694
G01 X78.3394 Y16.9487
G01 X78.3424 Y16.9580
G01 X78.3712 Y17.0380
G01 X78.4103 Y17.1208
G01 X78.4574 Y17.1993
G01 X78.5079 Y17.2677
G01 X78.5140 Y17.2753
G01 X78.5734 Y17.3406
G01 X78.6363 Y17.3979
G01 X78.6438 Y17.4042
G01 X78.7094 Y17.4529
G01 X78.7175 Y17.4584
G01 X78.7933 Y17.5037
G01 X78.8461 Y17.5289
G01 X78.8461 Y17.7920
G01 X78.6668 Y17.7156
G01 X78.4758 Y17.5853
G01 X78.3139 Y17.4202
G01 X78.2757 Y17.3618
G01 X78.2604 Y17.3413
G01 X78.2455 Y17.3247
G01 X78.2316 Y17.3116
G01 X78.2241 Y17.3053
G01 X78.2062 Y17.2919
G01 X78.1844 Y17.2786
G01 X78.1643 Y17.2687
G01 X78.1434 Y17.2607
G01 X78.1309 Y17.2568
G01 X78.1124 Y17.2522
G01 X78.0871 Y17.2483
G01 X78.0616 Y17.2469
G01 X78.0360 Y17.2480
G01 X78.0106 Y17.2516
G01 X77.9858 Y17.2577
G01 X77.9616 Y17.2662
G01 X77.9384 Y17.2771
G01 X77.9164 Y17.2902
G01 X77.8958 Y17.3054
G01 X77.8767 Y17.3225
G01 X77.8595 Y17.3414
G01 X77.8442 Y17.3620
G01 X77.8310 Y17.3839
G01 X77.8200 Y17.4070
G01 X77.8134 Y17.4249
G01 X77.8096 Y17.4375
G01 X77.8058 Y17.4528
G01 X77.8040 Y17.4624
G01 X77.8014 Y17.4813
G01 X77.7962 Y17.5334
G01 X77.7810 Y17.5837
G01 X77.7562 Y17.6301
G01 X77.7228 Y17.6708
G01 X77.6821 Y17.7042
G01 X77.6346 Y17.7296
G01 X77.6156 Y17.7411
G01 X77.6003 Y17.7523
G01 X77.5926 Y17.7584
G01 X77.5786 Y17.7712
G01 X77.5717 Y17.7782
G01 X77.5591 Y17.7923
G01 X77.5477 Y17.8075
G01 X77.5421 Y17.8156
G01 X77.5308 Y17.8347
G01 X77.5212 Y17.8548
G01 X77.5175 Y17.8639
G01 X77.5113 Y17.8818
G01 X77.5051 Y17.9065
G01 X77.5014 Y17.9318
G01 X77.5001 Y17.9572
G01 X77.5001 Y21.3106
G01 X77.5011 Y21.3328
G01 X77.5038 Y21.3610
G01 X77.4890 Y21.5114
G01 X77.4451 Y21.6560
G01 X77.3739 Y21.7892
G01 X77.2780 Y21.9060
G01 X77.2562 Y21.9241
G01 X77.2398 Y21.9391
G01 X73.6068 Y25.5721
G01 X73.5917 Y25.5885
G01 X73.5856 Y25.5961
G01 X73.5745 Y25.6115
G01 X73.5613 Y25.6333
G01 X73.5517 Y25.6534
G01 X73.5481 Y25.6625
G01 X73.5418 Y25.6804
G01 X73.5363 Y25.7020
G01 X73.5345 Y25.7116
G01 X73.5319 Y25.7304
G01 X73.5306 Y25.7559
G01 X73.5306 Y27.0202
G01 X73.5242 Y27.0854
G01 X73.5090 Y27.1357
G01 X73.4839 Y27.1826
G01 X73.4719 Y27.1990
G01 X73.4604 Y27.2180
G01 X73.4559 Y27.2267
G01 X73.4467 Y27.2470
G01 X73.4393 Y27.2680
G01 X73.4331 Y27.2927
G01 X73.4294 Y27.3179
G01 X73.4281 Y27.3434
G01 X73.4281 Y36.6633
G01 X73.4098 Y36.8494
G01 X73.3373 Y37.0883
G01 X73.2197 Y37.3084
G01 X73.0613 Y37.5013
G01 X72.8684 Y37.6597
G01 X72.6483 Y37.7773
G01 X72.4094 Y37.8498
G01 X72.1465 Y37.8757
G01 X72.1277 Y37.8783
G01 X72.1149 Y37.8808
G01 X72.0935 Y37.8866
G01 X72.0725 Y37.8942
G01 X72.0524 Y37.9036
G01 X72.0438 Y37.9083
G01 X72.0276 Y37.9182
G01 X72.0071 Y37.9334
G01 X71.9929 Y37.9460
G01 X71.9859 Y37.9529
G01 X71.9732 Y37.9669
G01 X71.9671 Y37.9746
G01 X71.9577 Y37.9872
G01 X71.9524 Y37.9954
G01 X71.9428 Y38.0118
G01 X71.9345 Y38.0289
G01 X71.9307 Y38.0379
G01 X71.9243 Y38.0558
G01 X71.9216 Y38.0652
G01 X71.9171 Y38.0836
G01 X71.9134 Y38.1088
G01 X71.9121 Y38.1343
G01 X71.9121 Y39.8335
G01 X71.9131 Y39.8525
G01 X71.9142 Y39.8623
G01 X71.9171 Y39.8811
G01 X71.9216 Y39.8997
G01 X71.9244 Y39.9091
G01 X71.9308 Y39.9270
G01 X71.9347 Y39.9361
G01 X71.9430 Y39.9532
G01 X71.9563 Y39.9752
G01 X71.9695 Y39.9931
G01 X71.9843 Y40.0099
G01 X71.9936 Y40.0191
G01 X72.0079 Y40.0317
G01 X72.0285 Y40.0469
G01 X72.0505 Y40.0600
G01 X72.0707 Y40.0696
G01 X72.0917 Y40.0773
G01 X72.1042 Y40.0811
G01 X72.1228 Y40.0854
G01 X72.1481 Y40.0890
G01 X72.1737 Y40.0901
G01 X72.1960 Y40.0890
G01 X72.2182 Y40.0859
G01 X72.2310 Y40.0833
G01 X72.2494 Y40.0783
G01 X72.2735 Y40.0695
G01 X72.2965 Y40.0584
G01 X72.3184 Y40.0450
G01 X72.3388 Y40.0296
G01 X72.3553 Y40.0145
G01 X72.4198 Y39.9488
G01 X72.6108 Y39.8184
G01 X72.7901 Y39.7420
G01 X72.7901 Y40.0051
G01 X72.7373 Y40.0303
G01 X72.6615 Y40.0756
G01 X72.6534 Y40.0811
G01 X72.5904 Y40.1279
G01 X72.5827 Y40.1340
G01 X72.5174 Y40.1934
G01 X72.4602 Y40.2563
G01 X72.4519 Y40.2664
G01 X72.4051 Y40.3294
G01 X72.3996 Y40.3375
G01 X72.3543 Y40.4133
G01 X72.3178 Y40.4901
G01 X72.3128 Y40.5021
G01 X72.2843 Y40.5822
G01 X72.2621 Y40.6710
G01 X72.2495 Y40.7551
G01 X72.2482 Y40.7681
G01 X72.2442 Y40.8530
G01 X72.2442 Y41.6563
G01 X72.2482 Y41.7379
G01 X72.2495 Y41.7509
G01 X72.2621 Y41.8350
G01 X72.2834 Y41.9207
G01 X72.2864 Y41.9300
G01 X72.3152 Y42.0100
G01 X72.3543 Y42.0928
G01 X72.4014 Y42.1713
G01 X72.4519 Y42.2397
G01 X72.4580 Y42.2473
G01 X72.5174 Y42.3126
G01 X72.5803 Y42.3699
G01 X72.5878 Y42.3762
G01 X72.6534 Y42.4249
G01 X72.6615 Y42.4304
G01 X72.7373 Y42.4757
G01 X72.7901 Y42.5009
G01 X72.7901 Y42.7640
G01 X72.6108 Y42.6876
G01 X72.4198 Y42.5573
G01 X72.3553 Y42.4915
G01 X72.3388 Y42.4765
G01 X72.3211 Y42.4629
G01 X72.3022 Y42.4509
G01 X72.2907 Y42.4447
G01 X72.2735 Y42.4365
G01 X72.2494 Y42.4277
G01 X72.2246 Y42.4213
G01 X72.2058 Y42.4182
G01 X72.1960 Y42.4170
G01 X72.1737 Y42.4159
G01 X72.1481 Y42.4170
G01 X72.1292 Y42.4195
G01 X72.1164 Y42.4220
G01 X72.0948 Y42.4277
G01 X72.0737 Y42.4352
G01 X72.0534 Y42.4445
G01 X72.0448 Y42.4492
G01 X72.0258 Y42.4609
G01 X72.0079 Y42.4743
G01 X71.9912 Y42.4891
G01 X71.9759 Y42.5054
G01 X71.9675 Y42.5155
G01 X71.9563 Y42.5309
G01 X71.9430 Y42.5528
G01 X71.9320 Y42.5759
G01 X71.9254 Y42.5938
G01 X71.9216 Y42.6064
G01 X71.9165 Y42.6281
G01 X71.9134 Y42.6502
G01 X71.9121 Y42.6725
G01 X71.9121 Y43.7989
G01 X71.9134 Y43.8211
G01 X71.9171 Y43.8463
G01 X71.9233 Y43.8711
G01 X71.9319 Y43.8951
G01 X71.9428 Y43.9181
G01 X71.9559 Y43.9400
G01 X71.9711 Y43.9605
G01 X71.9882 Y43.9794
G01 X72.6566 Y44.6478
G01 X72.6755 Y44.6649
G01 X72.6907 Y44.6764
G01 X72.7015 Y44.6836
G01 X72.7208 Y44.6947
G01 X72.7440 Y44.7054
G01 X72.7619 Y44.7117
G01 X72.7712 Y44.7145
G01 X72.7897 Y44.7189
G01 X72.8085 Y44.7219
G01 X72.8182 Y44.7230
G01 X72.8371 Y44.7239
G01 X73.5169 Y44.7239
G01 X73.5391 Y44.7227
G01 X73.5611 Y44.7195
G01 X73.5828 Y44.7145
G01 X73.5953 Y44.7107
G01 X73.6131 Y44.7041
G01 X73.6303 Y44.6962
G01 X73.6390 Y44.6917
G01 X73.6525 Y44.6836
G01 X73.6607 Y44.6783
G01 X73.6760 Y44.6670
G01 X73.6951 Y44.6501
G01 X75.1389 Y43.2063
G01 X75.1540 Y43.1899
G01 X75.1720 Y43.1680
G01 X75.2888 Y43.0721
G01 X75.4220 Y43.0009
G01 X75.5666 Y42.9570
G01 X75.7170 Y42.9422
G01 X75.7452 Y42.9450
G01 X75.7675 Y42.9459
G01 X76.2460 Y42.9459
G01 X76.2714 Y42.9447
G01 X76.2965 Y42.9410
G01 X76.3212 Y42.9348
G01 X76.3451 Y42.9263
G01 X76.3681 Y42.9155
G01 X76.3844 Y42.9059
G01 X76.3952 Y42.8988
G01 X76.4078 Y42.8894
G01 X76.4153 Y42.8832
G01 X76.4315 Y42.8681
G01 X76.4484 Y42.8491
G01 X76.4615 Y42.8313
G01 X76.4715 Y42.8152
G01 X76.4762 Y42.8067
G01 X76.4844 Y42.7896
G01 X76.4880 Y42.7806
G01 X76.4943 Y42.7628
G01 X76.4992 Y42.7445
G01 X76.5013 Y42.7350
G01 X76.5045 Y42.7131
G01 X76.5057 Y42.6942
G01 X76.5059 Y42.6845
G01 X76.5051 Y42.6656
G01 X76.5041 Y42.6559
G01 X76.5013 Y42.6372
G01 X76.4970 Y42.6188
G01 X76.4944 Y42.6094
G01 X76.4870 Y42.5885
G01 X76.4763 Y42.5655
G01 X76.4634 Y42.5436
G01 X76.4524 Y42.5282
G01 X76.4464 Y42.5205
G01 X76.4316 Y42.5041
G01 X76.3219 Y42.3922
G01 X76.1954 Y42.1987
G01 X76.1090 Y41.9842
G01 X76.0659 Y41.7557
G01 X76.0659 Y41.6399
G01 X76.3082 Y41.6399
G01 X76.3083 Y41.6595
G01 X76.3127 Y41.7444
G01 X76.3261 Y41.8350
G01 X76.3483 Y41.9238
G01 X76.3768 Y42.0039
G01 X76.3818 Y42.0160
G01 X76.4183 Y42.0928
G01 X76.4619 Y42.1658
G01 X76.4691 Y42.1766
G01 X76.5159 Y42.2397
G01 X76.5242 Y42.2497
G01 X76.5814 Y42.3126
G01 X76.6492 Y42.3741
G01 X76.7227 Y42.4286
G01 X76.8013 Y42.4757
G01 X76.8840 Y42.5149
G01 X76.9640 Y42.5436
G01 X76.9765 Y42.5474
G01 X77.0527 Y42.5665
G01 X77.0654 Y42.5691
G01 X77.1496 Y42.5814
G01 X77.2410 Y42.5859
G01 X77.3324 Y42.5814
G01 X77.4166 Y42.5691
G01 X77.4294 Y42.5665
G01 X77.5055 Y42.5474
G01 X77.5180 Y42.5436
G01 X77.5980 Y42.5149
G01 X77.6808 Y42.4757
G01 X77.7593 Y42.4286
G01 X77.8328 Y42.3741
G01 X77.9006 Y42.3126
G01 X77.9579 Y42.2497
G01 X77.9661 Y42.2397
G01 X78.0129 Y42.1766
G01 X78.0201 Y42.1658
G01 X78.0637 Y42.0928
G01 X78.1002 Y42.0160
G01 X78.1052 Y42.0039
G01 X78.1337 Y41.9238
G01 X78.1559 Y41.8350
G01 X78.1694 Y41.7444
G01 X78.1737 Y41.6595
G01 X78.1739 Y41.6399
G01 X78.4161 Y41.6399
G01 X78.4161 Y41.7557
G01 X78.3730 Y41.9842
G01 X78.2866 Y42.1987
G01 X78.1601 Y42.3922
G01 X78.0482 Y42.5064
G01 X78.0335 Y42.5230
G01 X78.0204 Y42.5409
G01 X78.0152 Y42.5491
G01 X78.0057 Y42.5655
G01 X77.9951 Y42.5885
G01 X77.9867 Y42.6125
G01 X77.9821 Y42.6309
G01 X77.9801 Y42.6404
G01 X77.9769 Y42.6656
G01 X77.9762 Y42.6910
G01 X77.9779 Y42.7163
G01 X77.9821 Y42.7414
G01 X77.9887 Y42.7659
G01 X77.9977 Y42.7896
G01 X78.0089 Y42.8124
G01 X78.0223 Y42.8340
G01 X78.0378 Y42.8541
G01 X78.0552 Y42.8727
G01 X78.0742 Y42.8894
G01 X78.0949 Y42.9042
G01 X78.1168 Y42.9170
G01 X78.1400 Y42.9275
G01 X78.1640 Y42.9357
G01 X78.1887 Y42.9416
G01 X78.2106 Y42.9447
G01 X78.2360 Y42.9459
G01 X89.3826 Y42.9459
G01 X89.4048 Y42.9450
G01 X89.4330 Y42.9422
G01 X89.5834 Y42.9570
G01 X89.7280 Y43.0009
G01 X89.8612 Y43.0721
G01 X89.9780 Y43.1680
G01 X89.9961 Y43.1899
G01 X90.0111 Y43.2063
G01 X91.4637 Y44.6589
G01 X91.4802 Y44.6740
G01 X91.5020 Y44.6920
G01 X91.5832 Y44.7908
G01 X91.6006 Y44.8095
G01 X91.6197 Y44.8264
G01 X91.6377 Y44.8396
G01 X91.6539 Y44.8495
G01 X91.6624 Y44.8542
G01 X91.6826 Y44.8636
G01 X91.7035 Y44.8712
G01 X91.7129 Y44.8739
G01 X91.7314 Y44.8784
G01 X91.7501 Y44.8813
G01 X91.7598 Y44.8824
G01 X91.7821 Y44.8834
G01 X92.0442 Y44.8834
G01 X92.1094 Y44.8898
G01 X92.1597 Y44.9051
G01 X92.2061 Y44.9299
G01 X92.2468 Y44.9632
G01 X92.2802 Y45.0039
G01 X92.3050 Y45.0503
G01 X92.3202 Y45.1007
G01 X92.3266 Y45.1658
G01 X92.3266 Y47.3402
G01 X92.3202 Y47.4054
G01 X92.3050 Y47.4557
G01 X92.2802 Y47.5021
G01 X92.2468 Y47.5428
G01 X92.2061 Y47.5762
G01 X92.1597 Y47.6010
G01 X92.1094 Y47.6162
G01 X92.0442 Y47.6226
G01 X89.8698 Y47.6226
G01 X89.8047 Y47.6162
G01 X89.7543 Y47.6010
G01 X89.7079 Y47.5762
G01 X89.6672 Y47.5428
G01 X89.6339 Y47.5021
G01 X89.6091 Y47.4557
G01 X89.5938 Y47.4054
G01 X89.5874 Y47.3402
G01 X89.5874 Y45.1658
G01 X89.5948 Y45.0904
G01 X89.5957 Y45.0682
G01 X89.5945 Y45.0427
G01 X89.5918 Y45.0239
G01 X89.5901 Y45.0143
G01 X89.5845 Y44.9928
G01 X89.5783 Y44.9748
G01 X89.5747 Y44.9657
G01 X89.5665 Y44.9486
G01 X89.5618 Y44.9400
G01 X89.5519 Y44.9238
G01 X89.5407 Y44.9085
G01 X89.5346 Y44.9008
G01 X89.5196 Y44.8844
G01 X89.1867 Y44.5517
G01 X89.1725 Y44.5391
G01 X89.1520 Y44.5239
G01 X89.1301 Y44.5108
G01 X89.1071 Y44.4999
G01 X89.0831 Y44.4913
G01 X89.0583 Y44.4851
G01 X89.0331 Y44.4814
G01 X89.0141 Y44.4803
G01 X87.5921 Y44.4801
G01 X87.5698 Y44.4811
G01 X87.5601 Y44.4821
G01 X87.5413 Y44.4851
G01 X87.5229 Y44.4896
G01 X87.5135 Y44.4923
G01 X87.4956 Y44.4987
G01 X87.4866 Y44.5025
G01 X87.4695 Y44.5108
G01 X87.4504 Y44.5221
G01 X87.4423 Y44.5277
G01 X87.4272 Y44.5391
G01 X87.4130 Y44.5517
G01 X87.4060 Y44.5586
G01 X87.3932 Y44.5726
G01 X87.3871 Y44.5803
G01 X87.3759 Y44.5956
G01 X87.3644 Y44.6146
G01 X87.3599 Y44.6233
G01 X87.3507 Y44.6436
G01 X87.3433 Y44.6646
G01 X87.3378 Y44.6861
G01 X87.3360 Y44.6957
G01 X87.3331 Y44.7178
G01 X87.3321 Y44.7400
G01 X87.3331 Y44.7622
G01 X87.3360 Y44.7843
G01 X87.3378 Y44.7939
G01 X87.3433 Y44.8155
G01 X87.3507 Y44.8364
G01 X87.3599 Y44.8567
G01 X87.3644 Y44.8654
G01 X87.3759 Y44.8844
G01 X87.3891 Y44.9024
G01 X87.4038 Y44.9191
G01 X87.4130 Y44.9283
G01 X87.4272 Y44.9409
G01 X87.4477 Y44.9561
G01 X87.4695 Y44.9692
G01 X87.4866 Y44.9775
G01 X87.5406 Y45.0000
G01 X87.7645 Y45.1496
G01 X87.9549 Y45.3400
G01 X88.1045 Y45.5640
G01 X88.2076 Y45.8127
G01 X88.2601 Y46.0769
G01 X88.2601 Y46.3462
G01 X88.2076 Y46.6103
G01 X88.1045 Y46.8591
G01 X87.9549 Y47.0830
G01 X87.7645 Y47.2734
G01 X87.5406 Y47.4230
G01 X87.2918 Y47.5261
G01 X87.0277 Y47.5786
G01 X86.7584 Y47.5786
G01 X86.4942 Y47.5261
G01 X86.2455 Y47.4230
G01 X86.0215 Y47.2734
G01 X85.8287 Y47.0806
G01 X85.8213 Y47.0711
G01 X85.8062 Y47.0547
G01 X85.7873 Y47.0376
G01 X85.7722 Y47.0262
G01 X85.7641 Y47.0206
G01 X85.7450 Y47.0093
G01 X85.7249 Y46.9997
G01 X85.7158 Y46.9960
G01 X85.6979 Y46.9898
G01 X85.6764 Y46.9843
G01 X85.6667 Y46.9825
G01 X85.6447 Y46.9796
G01 X85.6225 Y46.9786
G01 X78.7239 Y46.9786
G01 X78.6984 Y46.9798
G01 X78.6796 Y46.9825
G01 X78.6668 Y46.9850
G01 X78.6454 Y46.9908
G01 X78.6214 Y46.9997
G01 X78.6043 Y47.0078
G01 X78.5957 Y47.0125
G01 X78.5795 Y47.0224
G01 X78.5642 Y47.0336
G01 X78.5565 Y47.0397
G01 X78.5425 Y47.0524
G01 X77.9728 Y47.6221
G01 X77.9601 Y47.6361
G01 X77.9413 Y47.6589
G01 X77.9259 Y47.6733
G01 X77.9111 Y47.6899
G01 X77.8959 Y47.7104
G01 X77.8860 Y47.7266
G01 X77.8813 Y47.7352
G01 X77.8707 Y47.7584
G01 X77.8643 Y47.7762
G01 X77.8616 Y47.7856
G01 X77.8571 Y47.8041
G01 X77.8541 Y47.8229
G01 X77.8531 Y47.8326
G01 X77.8521 Y47.8515
G01 X77.8521 Y48.5828
G01 X77.8534 Y48.6050
G01 X77.8571 Y48.6303
G01 X77.8633 Y48.6550
G01 X77.8707 Y48.6760
G01 X77.8813 Y48.6992
G01 X77.8924 Y48.7184
G01 X77.8997 Y48.7293
G01 X77.9132 Y48.7469
G01 X77.9282 Y48.7633
G01 X77.9422 Y48.7762
G01 X77.9497 Y48.7825
G01 X77.9649 Y48.7938
G01 X77.9866 Y48.8072
G01 X78.0365 Y48.8339
G01 X78.2143 Y48.9798
G01 X78.3601 Y49.1575
G01 X78.4685 Y49.3602
G01 X78.5067 Y49.4864
G01 X78.5141 Y49.5074
G01 X78.5233 Y49.5276
G01 X78.5278 Y49.5363
G01 X78.5394 Y49.5553
G01 X78.5525 Y49.5733
G01 X78.5694 Y49.5924
G01 X78.5881 Y49.6097
G01 X78.6084 Y49.6252
G01 X78.6273 Y49.6369
G01 X78.6388 Y49.6431
G01 X78.6530 Y49.6498
G01 X78.6621 Y49.6534
G01 X78.6831 Y49.6606
G01 X78.7080 Y49.6664
G01 X78.7300 Y49.6696
G01 X78.7522 Y49.6708
G01 X78.7744 Y49.6701
G01 X78.7874 Y49.6688
G01 X78.8062 Y49.6658
G01 X78.8309 Y49.6596
G01 X78.8549 Y49.6511
G01 X78.8722 Y49.6431
G01 X78.8837 Y49.6369
G01 X78.9026 Y49.6252
G01 X78.9204 Y49.6118
G01 X78.9369 Y49.5970
G01 X78.9437 Y49.5900
G01 X78.9584 Y49.5733
G01 X78.9716 Y49.5553
G01 X78.9831 Y49.5363
G01 X78.9876 Y49.5276
G01 X78.9956 Y49.5104
G01 X79.0042 Y49.4864
G01 X79.0104 Y49.4616
G01 X79.0133 Y49.4429
G01 X79.0144 Y49.4331
G01 X79.0154 Y49.4109
G01 X79.0154 Y48.9218
G01 X79.0218 Y48.8567
G01 X79.0371 Y48.8063
G01 X79.0619 Y48.7599
G01 X79.0952 Y48.7192
G01 X79.1359 Y48.6859
G01 X79.1823 Y48.6611
G01 X79.2327 Y48.6458
G01 X79.2978 Y48.6394
G01 X81.6722 Y48.6394
G01 X81.7374 Y48.6458
G01 X81.7877 Y48.6611
G01 X81.8341 Y48.6859
G01 X81.8748 Y48.7192
G01 X81.9082 Y48.7599
G01 X81.9330 Y48.8063
G01 X81.9482 Y48.8567
G01 X81.9536 Y48.9107
G01 X81.9564 Y48.9295
G01 X81.9623 Y48.9543
G01 X81.9706 Y48.9784
G01 X81.9812 Y49.0016
G01 X81.9940 Y49.0237
G01 X82.0089 Y49.0444
G01 X82.0258 Y49.0635
G01 X82.0445 Y49.0808
G01 X82.0648 Y49.0963
G01 X82.0865 Y49.1097
G01 X82.1094 Y49.1209
G01 X82.1333 Y49.1297
G01 X82.1580 Y49.1363
G01 X82.1832 Y49.1403
G01 X82.2054 Y49.1418
G01 X91.8430 Y49.1419
G01 X91.8620 Y49.1412
G01 X91.8718 Y49.1403
G01 X91.8937 Y49.1369
G01 X91.9185 Y49.1307
G01 X91.9425 Y49.1221
G01 X91.9597 Y49.1142
G01 X91.9712 Y49.1080
G01 X91.9901 Y49.0963
G01 X92.0079 Y49.0829
G01 X92.0245 Y49.0681
G01 X93.3888 Y47.7038
G01 X93.4017 Y47.6899
G01 X93.4080 Y47.6824
G01 X93.4174 Y47.6698
G01 X93.4246 Y47.6589
G01 X93.4357 Y47.6397
G01 X93.4464 Y47.6165
G01 X93.4537 Y47.5955
G01 X93.4599 Y47.5707
G01 X93.4637 Y47.5455
G01 X93.4649 Y47.5233
G01 X93.4649 Y44.0970
G01 X93.4640 Y44.0748
G01 X93.4629 Y44.0650
G01 X93.4599 Y44.0463
G01 X93.4546 Y44.0247
G01 X93.4517 Y44.0153
G01 X93.4451 Y43.9975
G01 X93.4372 Y43.9803
G01 X93.4327 Y43.9716
G01 X93.4211 Y43.9526
G01 X93.4099 Y43.9372
G01 X93.4038 Y43.9296
G01 X93.3911 Y43.9155
G01 X92.9305 Y43.4549
G01 X92.9141 Y43.4399
G01 X92.8960 Y43.4250
G01 X92.8127 Y43.3234
G01 X92.7507 Y43.2075
G01 X92.7126 Y43.0818
G01 X92.6997 Y42.9510
G01 X92.7020 Y42.9277
G01 X92.7029 Y42.9055
G01 X92.7029 Y41.9888
G01 X92.7017 Y41.9665
G01 X92.6990 Y41.9477
G01 X92.6973 Y41.9381
G01 X92.6917 Y41.9166
G01 X92.6844 Y41.8956
G01 X92.6805 Y41.8866
G01 X92.6722 Y41.8695
G01 X92.6626 Y41.8531
G01 X92.6554 Y41.8423
G01 X92.6460 Y41.8297
G01 X92.6397 Y41.8222
G01 X92.6245 Y41.8059
G01 X92.6054 Y41.7891
G01 X92.5874 Y41.7759
G01 X92.5655 Y41.7628
G01 X92.5425 Y41.7519
G01 X92.5216 Y41.7443
G01 X92.5122 Y41.7416
G01 X92.4937 Y41.7371
G01 X92.4685 Y41.7334
G01 X92.4463 Y41.7321
G01 X92.4096 Y41.7321
G01 X92.2528 Y41.7167
G01 X92.0517 Y41.6556
G01 X91.8663 Y41.5566
G01 X91.7038 Y41.4232
G01 X91.5705 Y41.2607
G01 X91.4714 Y41.0753
G01 X91.4104 Y40.8742
G01 X91.3898 Y40.6650
G01 X91.4104 Y40.4558
G01 X91.4714 Y40.2547
G01 X91.5705 Y40.0693
G01 X91.7038 Y39.9068
G01 X91.8663 Y39.7735
G01 X92.0517 Y39.6744
G01 X92.2528 Y39.6134
G01 X92.4096 Y39.5979
G01 X93.3144 Y39.5979
G01 X93.4712 Y39.6134
G01 X93.6723 Y39.6744
G01 X93.8445 Y39.7664
G01 X93.8646 Y39.7760
G01 X93.8736 Y39.7796
G01 X93.8947 Y39.7868
G01 X93.9195 Y39.7927
G01 X93.9448 Y39.7961
G01 X93.9638 Y39.7970
G01 X93.9735 Y39.7969
G01 X93.9925 Y39.7958
G01 X94.0177 Y39.7921
G01 X94.0425 Y39.7859
G01 X94.0604 Y39.7796
G01 X94.0724 Y39.7747
G01 X94.0924 Y39.7648
G01 X94.1114 Y39.7533
G01 X94.1319 Y39.7381
G01 X94.1508 Y39.7210
G01 X94.1658 Y39.7046
G01 X94.1794 Y39.6869
G01 X94.1866 Y39.6761
G01 X94.1962 Y39.6597
G01 X94.2071 Y39.6366
G01 X94.2157 Y39.6126
G01 X94.2213 Y39.5911
G01 X94.2230 Y39.5815
G01 X94.2257 Y39.5627
G01 X94.2269 Y39.5372
G01 X94.2269 Y27.9680
G01 X94.2260 Y27.9458
G01 X94.2230 Y27.9237
G01 X94.2205 Y27.9109
G01 X94.2148 Y27.8894
G01 X94.2059 Y27.8655
G01 X94.1962 Y27.8455
G01 X94.1831 Y27.8236
G01 X94.1679 Y27.8031
G01 X94.1531 Y27.7865
G01 X93.0618 Y26.6952
G01 X93.0429 Y26.6781
G01 X93.0251 Y26.6647
G01 X93.0169 Y26.6594
G01 X92.9977 Y26.6483
G01 X92.9775 Y26.6389
G01 X92.9597 Y26.6323
G01 X92.9504 Y26.6294
G01 X92.9287 Y26.6241
G01 X92.9100 Y26.6211
G01 X92.9003 Y26.6201
G01 X92.8780 Y26.6191
G01 X92.4096 Y26.6191
G01 X92.2528 Y26.6037
G01 X92.0517 Y26.5426
G01 X91.8663 Y26.4436
G01 X91.7038 Y26.3102
G01 X91.5705 Y26.1477
G01 X91.4714 Y25.9623
G01 X91.4104 Y25.7612
G01 X91.3898 Y25.5520
G01 X91.4104 Y25.3428
G01 X91.4714 Y25.1417
G01 X91.5705 Y24.9563
G01 X91.7038 Y24.7938
G01 X91.8663 Y24.6605
G01 X92.0604 Y24.5567
G01 X92.0821 Y24.5433
G01 X92.1024 Y24.5278
G01 X92.1188 Y24.5128
G01 X92.1359 Y24.4939
G01 X92.1511 Y24.4734
G01 X92.1610 Y24.4572
G01 X92.1672 Y24.4457
G01 X92.1764 Y24.4255
G01 X92.1837 Y24.4045
G01 X92.1899 Y24.3797
G01 X92.1937 Y24.3545
G01 X92.1949 Y24.3290
G01 X92.1949 Y22.1997
G01 X92.1937 Y22.1775
G01 X92.1899 Y22.1523
G01 X92.1837 Y22.1275
G01 X92.1751 Y22.1035
G01 X92.1642 Y22.0805
G01 X92.1511 Y22.0586
G01 X92.1359 Y22.0381
G01 X92.1188 Y22.0192
G01 X92.1024 Y22.0042
G01 X92.0948 Y21.9981
G01 X92.0794 Y21.9869
G01 X92.0632 Y21.9770
G01 X91.8663 Y21.8716
G01 X91.7038 Y21.7382
G01 X91.5705 Y21.5757
G01 X91.4714 Y21.3903
G01 X91.4104 Y21.1892
G01 X91.3898 Y20.9800
G01 X91.4104 Y20.7708
G01 X91.4714 Y20.5697
G01 X91.5705 Y20.3843
G01 X91.7038 Y20.2218
G01 X91.8663 Y20.0885
G01 X92.0517 Y19.9894
G01 X92.2528 Y19.9284
G01 X92.4096 Y19.9129
G01 X93.3144 Y19.9129
G01 X93.4712 Y19.9284
G01 X93.6723 Y19.9894
G01 X93.8577 Y20.0885
G01 X94.0202 Y20.2218
G01 X94.1536 Y20.3843
G01 X94.2526 Y20.5697
G01 X94.3137 Y20.7708
G01 X94.3343 Y20.9800
G01 X94.3137 Y21.1892
G01 X94.2526 Y21.3903
G01 X94.1536 Y21.5757
G01 X94.0202 Y21.7382
G01 X93.8577 Y21.8716
G01 X93.6636 Y21.9753
G01 X93.6473 Y21.9851
G01 X93.6393 Y21.9906
G01 X93.6241 Y22.0021
G01 X93.6099 Y22.0147
G01 X93.6007 Y22.0239
G01 X93.5861 Y22.0407
G01 X93.5729 Y22.0586
G01 X93.5614 Y22.0776
G01 X93.5569 Y22.0863
G01 X93.5477 Y22.1066
G01 X93.5403 Y22.1275
G01 X93.5348 Y22.1491
G01 X93.5330 Y22.1587
G01 X93.5304 Y22.1775
G01 X93.5291 Y22.2030
G01 X93.5291 Y24.3290
G01 X93.5301 Y24.3513
G01 X93.5311 Y24.3610
G01 X93.5341 Y24.3797
G01 X93.5394 Y24.4013
G01 X93.5465 Y24.4224
G01 X93.5515 Y24.4345
G01 X93.5598 Y24.4516
G01 X93.5729 Y24.4734
G01 X93.5861 Y24.4914
G01 X93.5924 Y24.4989
G01 X93.6052 Y24.5128
G01 X93.6241 Y24.5299
G01 X93.6446 Y24.5451
G01 X93.6636 Y24.5567
G01 X93.8577 Y24.6605
G01 X94.0202 Y24.7938
G01 X94.1536 Y24.9563
G01 X94.2526 Y25.1417
G01 X94.3137 Y25.3428
G01 X94.3343 Y25.5520
G01 X94.3137 Y25.7612
G01 X94.2893 Y25.8416
G01 X94.2838 Y25.8631
G01 X94.2797 Y25.8883
G01 X94.2781 Y25.9138
G01 X94.2789 Y25.9360
G01 X94.2801 Y25.9490
G01 X94.2831 Y25.9677
G01 X94.2893 Y25.9925
G01 X94.2967 Y26.0135
G01 X94.3005 Y26.0224
G01 X94.3088 Y26.0395
G01 X94.3219 Y26.0614
G01 X94.3371 Y26.0819
G01 X94.3542 Y26.1008
G01 X95.3335 Y27.0801
G01 X95.3499 Y27.0951
G01 X95.3680 Y27.1100
G01 X95.4514 Y27.2116
G01 X95.4804 Y27.2659
G01 X95.5133 Y27.3275
G01 X95.5514 Y27.4532
G01 X95.5643 Y27.5840
G01 X95.5621 Y27.6073
G01 X95.5611 Y27.6295
G01 X95.5611 Y33.4082
G01 X95.5624 Y33.4336
G01 X95.5655 Y33.4557
G01 X95.5706 Y33.4773
G01 X95.5743 Y33.4898
G01 X95.5809 Y33.5076
G01 X95.5918 Y33.5307
G01 X95.6049 Y33.5526
G01 X95.6161 Y33.5679
G01 X95.6244 Y33.5780
G01 X95.6396 Y33.5942
G01 X95.6561 Y33.6091
G01 X95.6739 Y33.6224
G01 X95.6928 Y33.6342
G01 X95.7043 Y33.6403
G01 X95.7215 Y33.6483
G01 X95.7456 Y33.6569
G01 X95.7703 Y33.6631
G01 X95.7923 Y33.6665
G01 X95.8145 Y33.6679
G01 X95.8275 Y33.6679
G01 X95.8432 Y33.6671
G01 X95.8530 Y33.6660
G01 X95.8717 Y33.6631
G01 X95.8902 Y33.6586
G01 X95.8996 Y33.6559
G01 X95.9174 Y33.6495
G01 X95.9264 Y33.6456
G01 X95.9435 Y33.6374
G01 X95.9654 Y33.6243
G01 X95.9834 Y33.6111
G01 X96.0573 Y33.5505
G01 X96.2427 Y33.4514
G01 X96.4438 Y33.3904
G01 X96.6006 Y33.3749
G01 X97.5054 Y33.3749
G01 X97.6622 Y33.3904
G01 X97.8633 Y33.4514
G01 X98.0487 Y33.5505
G01 X98.2112 Y33.6838
G01 X98.3446 Y33.8463
G01 X98.4436 Y34.0317
G01 X98.5047 Y34.2328
G01 X98.5253 Y34.4420
G01 X98.5047 Y34.6512
G01 X98.4436 Y34.8523
G01 X98.3446 Y35.0377
G01 X98.2112 Y35.2002
G01 X98.0487 Y35.3336
G01 X97.8546 Y35.4373
G01 X97.8383 Y35.4471
G01 X97.8303 Y35.4526
G01 X97.8151 Y35.4641
G01 X97.7986 Y35.4789
G01 X97.7812 Y35.4976
G01 X97.7677 Y35.5153
G01 X97.7604 Y35.5261
G01 X97.7524 Y35.5396
G01 X97.7479 Y35.5483
G01 X97.7387 Y35.5686
G01 X97.7304 Y35.5927
G01 X97.7245 Y35.6175
G01 X97.7211 Y35.6428
G01 X97.7201 Y35.6650
G01 X97.7201 Y38.9281
G01 X97.7214 Y38.9536
G01 X97.7245 Y38.9756
G01 X97.7265 Y38.9852
G01 X97.7313 Y39.0036
G01 X97.7375 Y39.0215
G01 X97.7412 Y39.0306
G01 X97.7493 Y39.0477
G01 X97.7540 Y39.0563
G01 X97.7639 Y39.0725
G01 X97.7771 Y39.0905
G01 X97.7834 Y39.0979
G01 X97.7962 Y39.1119
G01 X97.8108 Y39.1253
G01 X97.9446 Y39.2883
G01 X98.0483 Y39.4824
G01 X98.0599 Y39.5014
G01 X98.0711 Y39.5168
G01 X98.0772 Y39.5244
G01 X98.0899 Y39.5385
G01 X98.1086 Y39.5558
G01 X98.1162 Y39.5619
G01 X98.1316 Y39.5731
G01 X98.1535 Y39.5862
G01 X98.1706 Y39.5945
G01 X98.1796 Y39.5984
G01 X98.1974 Y39.6047
G01 X98.2068 Y39.6075
G01 X98.2253 Y39.6119
G01 X98.2440 Y39.6149
G01 X98.2538 Y39.6160
G01 X98.2760 Y39.6169
G01 X106.1908 Y39.6169
G01 X106.2163 Y39.6157
G01 X106.2383 Y39.6125
G01 X106.2600 Y39.6075
G01 X106.2725 Y39.6037
G01 X106.2903 Y39.5971
G01 X106.3134 Y39.5862
G01 X106.3352 Y39.5731
G01 X106.3532 Y39.5600
G01 X106.3761 Y39.5411
G01 X106.3925 Y39.5261
G01 X106.8938 Y39.0248
G01 X106.9088 Y39.0084
G01 X106.9224 Y38.9908
G01 X106.9296 Y38.9799
G01 X106.9392 Y38.9636
G01 X106.9501 Y38.9405
G01 X106.9587 Y38.9165
G01 X106.9635 Y38.8981
G01 X106.9660 Y38.8853
G01 X106.9690 Y38.8633
G01 X106.9699 Y38.8410
G01 X106.9699 Y31.6206
G01 X106.9690 Y31.5984
G01 X106.9614 Y31.5210
G01 X106.9955 Y31.1746
G01 X107.0965 Y30.8415
G01 X107.2606 Y30.5345
G01 X107.4814 Y30.2654
G01 X107.5415 Y30.2161
G01 X107.5579 Y30.2011
G01 X108.6266 Y29.1324
G01 X108.6938 Y29.0873
G01 X108.7090 Y29.0759
G01 X108.7665 Y29.0286
G01 X108.8322 Y28.9935
G01 X108.8485 Y28.9839
G01 X108.9160 Y28.9390
G01 X108.9908 Y28.9079
G01 X109.0079 Y28.8996
G01 X109.0735 Y28.8645
G01 X109.1447 Y28.8429
G01 X109.1627 Y28.8367
G01 X109.2376 Y28.8058
G01 X109.3170 Y28.7899
G01 X109.3354 Y28.7851
G01 X109.4066 Y28.7635
G01 X109.4807 Y28.7562
G01 X109.4995 Y28.7536
G01 X109.5790 Y28.7379
G01 X109.6600 Y28.7378
G01 X109.6789 Y28.7367
G01 X109.7530 Y28.7294
G01 X109.8271 Y28.7367
G01 X109.8461 Y28.7378
G01 X109.9271 Y28.7379
G01 X110.0065 Y28.7536
G01 X110.0253 Y28.7562
G01 X110.0994 Y28.7635
G01 X110.1707 Y28.7851
G01 X110.1890 Y28.7899
G01 X110.2685 Y28.8058
G01 X110.3434 Y28.8367
G01 X110.3613 Y28.8429
G01 X110.4325 Y28.8645
G01 X110.4982 Y28.8996
G01 X110.5153 Y28.9079
G01 X110.5900 Y28.9390
G01 X110.6575 Y28.9839
G01 X110.6739 Y28.9935
G01 X110.7395 Y29.0286
G01 X110.7970 Y29.0759
G01 X110.8122 Y29.0873
G01 X110.8795 Y29.1324
G01 X110.9368 Y29.1896
G01 X110.9510 Y29.2022
G01 X111.0086 Y29.2494
G01 X111.0558 Y29.3070
G01 X111.0684 Y29.3212
G01 X111.1256 Y29.3786
G01 X111.1707 Y29.4458
G01 X111.1822 Y29.4610
G01 X111.2294 Y29.5185
G01 X111.2645 Y29.5842
G01 X111.2741 Y29.6005
G01 X111.3190 Y29.6680
G01 X111.3501 Y29.7428
G01 X111.3584 Y29.7599
G01 X111.3935 Y29.8255
G01 X111.4151 Y29.8967
G01 X111.4213 Y29.9147
G01 X111.4522 Y29.9896
G01 X111.4681 Y30.0690
G01 X111.4729 Y30.0874
G01 X111.4945 Y30.1586
G01 X111.5018 Y30.2327
G01 X111.5045 Y30.2515
G01 X111.5201 Y30.3310
G01 X111.5203 Y30.4120
G01 X111.5214 Y30.4309
G01 X111.5286 Y30.5050
G01 X111.5214 Y30.5791
G01 X111.5203 Y30.5981
G01 X111.5201 Y30.6791
G01 X111.5045 Y30.7585
G01 X111.5018 Y30.7773
G01 X111.4945 Y30.8514
G01 X111.4729 Y30.9227
G01 X111.4681 Y30.9410
G01 X111.4522 Y31.0205
G01 X111.4213 Y31.0953
G01 X111.4151 Y31.1133
G01 X111.3935 Y31.1845
G01 X111.3584 Y31.2502
G01 X111.3501 Y31.2673
G01 X111.3190 Y31.3420
G01 X111.2741 Y31.4095
G01 X111.2645 Y31.4259
G01 X111.2294 Y31.4915
G01 X111.1822 Y31.5490
G01 X111.1707 Y31.5642
G01 X111.1256 Y31.6315
G01 X110.5802 Y32.1768
G01 X110.5631 Y32.1957
G01 X110.5479 Y32.2162
G01 X110.5364 Y32.2352
G01 X110.5265 Y32.2552
G01 X110.5215 Y32.2672
G01 X110.5153 Y32.2852
G01 X110.5091 Y32.3099
G01 X110.5054 Y32.3351
G01 X110.5043 Y32.3541
G01 X110.5041 Y47.6774
G01 X110.5051 Y47.6997
G01 X110.5126 Y47.7770
G01 X110.4785 Y48.1234
G01 X110.3775 Y48.4565
G01 X110.2134 Y48.7635
G01 X109.9926 Y49.0326
G01 X109.9325 Y49.0819
G01 X109.9161 Y49.0969
G01 X101.7972 Y57.2159
G01 X101.5955 Y57.3814
G01 X101.2885 Y57.5455
G01 X100.9554 Y57.6465
G01 X100.6090 Y57.6806
G01 X100.2626 Y57.6465
G01 X99.9295 Y57.5455
G01 X99.6225 Y57.3814
G01 X99.4368 Y57.2291
G01 X99.4189 Y57.2159
G01 X99.3999 Y57.2044
G01 X99.3912 Y57.1999
G01 X99.3740 Y57.1919
G01 X99.3530 Y57.1843
G01 X99.3437 Y57.1816
G01 X99.3252 Y57.1771
G01 X99.3064 Y57.1741
G01 X99.2967 Y57.1731
G01 X99.2745 Y57.1721
G01 X92.2329 Y57.1721
G01 X92.2107 Y57.1731
G01 X92.2010 Y57.1741
G01 X92.1790 Y57.1778
G01 X92.1575 Y57.1833
G01 X92.1365 Y57.1907
G01 X92.1275 Y57.1945
G01 X92.1075 Y57.2044
G01 X92.0885 Y57.2159
G01 X92.0732 Y57.2271
G01 X92.0655 Y57.2332
G01 X92.0491 Y57.2482
G01 X92.0320 Y57.2671
G01 X92.0192 Y57.2842
G01 X91.8285 Y57.4749
G01 X91.6046 Y57.6245
G01 X91.3558 Y57.7276
G01 X91.0917 Y57.7801
G01 X90.8224 Y57.7801
G01 X90.5582 Y57.7276
G01 X90.3912 Y57.6584
G01 X90.3703 Y57.6508
G01 X90.3488 Y57.6450
G01 X90.3361 Y57.6425
G01 X90.3172 Y57.6398
G01 X90.2918 Y57.6386
G01 X88.2969 Y57.6388
G01 X88.2779 Y57.6398
G01 X88.2527 Y57.6436
G01 X88.2280 Y57.6498
G01 X88.2040 Y57.6584
G01 X88.1867 Y57.6664
G01 X88.1780 Y57.6709
G01 X88.1590 Y57.6824
G01 X88.1426 Y57.6944
G01 X88.0957 Y57.7195
G01 X88.0454 Y57.7347
G01 X87.9802 Y57.7411
G01 X85.8058 Y57.7411
G01 X85.7407 Y57.7347
G01 X85.6903 Y57.7195
G01 X85.6711 Y57.7092
G01 X85.6540 Y57.7012
G01 X85.6449 Y57.6975
G01 X85.6239 Y57.6904
G01 X85.6023 Y57.6851
G01 X85.5835 Y57.6821
G01 X85.5738 Y57.6811
G01 X85.5516 Y57.6801
G01 X77.3160 Y57.6801
G01 X77.2938 Y57.6811
G01 X77.2410 Y57.6862
G01 X76.9926 Y57.6618
G01 X76.7538 Y57.5893
G01 X76.5337 Y57.4717
G01 X76.3407 Y57.3133
G01 X76.3070 Y57.2723
G01 X76.2920 Y57.2559
G01 X74.5421 Y55.5060
G01 X74.5257 Y55.4910
G01 X74.4847 Y55.4573
G01 X74.3264 Y55.2644
G01 X74.2087 Y55.0443
G01 X74.1363 Y54.8054
G01 X74.1118 Y54.5570
G01 X74.1170 Y54.5042
G01 X74.1179 Y54.4820
G01 X74.1179 Y54.2374
G01 X74.1167 Y54.2152
G01 X74.1135 Y54.1931
G01 X74.1085 Y54.1715
G01 X74.1057 Y54.1621
G01 X74.0981 Y54.1412
G01 X74.0902 Y54.1239
G01 X74.0015 Y53.9578
G01 X73.9348 Y53.7378
G01 X73.9123 Y53.5090
G01 X73.9348 Y53.2802
G01 X74.0015 Y53.0602
G01 X74.1099 Y52.8575
G01 X74.1584 Y52.7984
G01 X74.1715 Y52.7804
G01 X74.1831 Y52.7614
G01 X74.1929 Y52.7414
G01 X74.1979 Y52.7294
G01 X74.2042 Y52.7115
G01 X74.2104 Y52.6867
G01 X74.2141 Y52.6615
G01 X74.2152 Y52.6425
G01 X74.2153 Y52.6328
G01 X74.2141 Y52.6105
G01 X74.2110 Y52.5885
G01 X74.2089 Y52.5789
G01 X74.2042 Y52.5606
G01 X74.1979 Y52.5426
G01 X74.1943 Y52.5336
G01 X74.1847 Y52.5135
G01 X74.1733 Y52.4943
G01 X74.1678 Y52.4863
G01 X74.1564 Y52.4711
G01 X74.1415 Y52.4546
G01 X74.1345 Y52.4477
G01 X74.1178 Y52.4331
G01 X74.0998 Y52.4199
G01 X74.0780 Y52.4068
G01 X74.0549 Y52.3959
G01 X74.0371 Y52.3893
G01 X74.0246 Y52.3856
G01 X74.0029 Y52.3805
G01 X73.9809 Y52.3774
G01 X73.9587 Y52.3761
G01 X70.4555 Y52.3761
G01 X70.4332 Y52.3771
G01 X70.4050 Y52.3798
G01 X70.2546 Y52.3650
G01 X70.1100 Y52.3211
G01 X69.9768 Y52.2499
G01 X69.8600 Y52.1540
G01 X69.8420 Y52.1322
G01 X69.8269 Y52.1158
G01 X68.8587 Y51.1478
G01 X68.8445 Y51.1351
G01 X68.8241 Y51.1199
G01 X68.8022 Y51.1068
G01 X68.7791 Y51.0959
G01 X68.7551 Y51.0873
G01 X68.7304 Y51.0811
G01 X68.7051 Y51.0774
G01 X68.6829 Y51.0762
G01 X68.6574 Y51.0771
G01 X68.6050 Y51.0822
G01 X68.5522 Y51.0771
G01 X68.5300 Y51.0761
G01 X51.4575 Y51.0761
G01 X51.4320 Y51.0774
G01 X51.4100 Y51.0805
G01 X51.4004 Y51.0825
G01 X51.3790 Y51.0883
G01 X51.3581 Y51.0959
G01 X51.3408 Y51.1039
G01 X51.3321 Y51.1084
G01 X51.3131 Y51.1199
G01 X51.2978 Y51.1311
G01 X51.2901 Y51.1372
G01 X51.2737 Y51.1522
G01 X51.1361 Y51.2901
G01 X51.1235 Y51.3042
G01 X51.1101 Y51.3220
G01 X51.1048 Y51.3302
G01 X51.0937 Y51.3495
G01 X51.0843 Y51.3697
G01 X51.0767 Y51.3906
G01 X51.0709 Y51.4120
G01 X51.0684 Y51.4248
G01 X51.0658 Y51.4436
G01 X51.0425 Y51.6794
G01 X50.9415 Y52.0125
G01 X50.7774 Y52.3195
G01 X50.6119 Y52.5212
G01 X49.0969 Y54.0361
G01 X49.0819 Y54.0525
G01 X49.0326 Y54.1126
G01 X48.7635 Y54.3334
G01 X48.4565 Y54.4975
G01 X48.1234 Y54.5985
G01 X47.7770 Y54.6326
G01 X47.6997 Y54.6251
G01 X47.6775 Y54.6241
G01 X10.0982 Y54.6241
G01 X9.8386 Y54.5985
G01 X9.5055 Y54.4975
G01 X9.1985 Y54.3334
G01 X8.9294 Y54.1126
G01 X8.7086 Y53.8435
G01 X8.5445 Y53.5365
G01 X8.4435 Y53.2034
G01 X8.4199 Y52.9644
G01 X8.4165 Y52.9424
G01 X8.4121 Y52.9239
G01 X8.4093 Y52.9146
G01 X8.4029 Y52.8967
G01 X8.3991 Y52.8877
G01 X8.3908 Y52.8706
G01 X8.3777 Y52.8487
G01 X8.3665 Y52.8334
G01 X8.3604 Y52.8257
G01 X8.3454 Y52.8093
G01 X1.7221 Y46.1860
G01 X1.7057 Y46.1710
G01 X1.6647 Y46.1373
G01 X1.5064 Y45.9444
G01 X1.3887 Y45.7243
G01 X1.3163 Y45.4854
G01 X1.2918 Y45.2370
G01 X1.2970 Y45.1842
G01 X1.2979 Y45.1620
G01 X1.2979 Y20.4200
G01 X1.2967 Y20.3945
G00 Z2.0000
G00 X5.2742 Y21.6815
G01 F60.00
G01 Z-0.2000
G01 F120.00
G01 X5.1246 Y21.5319
G01 X5.1610 Y21.4582
G01 X5.3629 Y21.3503
G01 X5.7166 Y21.2353
G01 X6.0834 Y21.1917
G01 X6.4516 Y21.2206
G01 X6.8072 Y21.3207
G01 X7.0823 Y21.4608
G01 X7.1174 Y21.5319
G01 X6.9678 Y21.6815
G01 X6.8964 Y21.6387
G01 X6.8878 Y21.6340
G01 X6.7518 Y21.5696
G01 X6.7428 Y21.5657
G01 X6.5950 Y21.5130
G01 X6.4428 Y21.4747
G01 X6.4331 Y21.4729
G01 X6.2875 Y21.4513
G01 X6.2746 Y21.4500
G01 X6.1210 Y21.4427
G01 X5.9642 Y21.4502
G01 X5.9545 Y21.4513
G01 X5.8025 Y21.4740
G01 X5.6533 Y21.5112
G01 X5.6439 Y21.5140
G01 X5.5022 Y21.5646
G01 X5.4932 Y21.5682
G01 X5.3542 Y21.6340
G01 X5.3456 Y21.6387
G01 X5.2742 Y21.6815
G00 Z2.0000
G00 X7.5150 Y22.2287
G01 F60.00
G01 Z-0.2000
G01 F120.00
G01 X7.6646 Y22.0791
G01 X7.7383 Y22.1155
G01 X7.8462 Y22.3174
G01 X7.9613 Y22.6711
G01 X8.0048 Y23.0379
G01 X7.9759 Y23.4061
G01 X7.8758 Y23.7617
G01 X7.7357 Y24.0368
G01 X7.6646 Y24.0719
G01 X7.5150 Y23.9223
G01 X7.5578 Y23.8509
G01 X7.5626 Y23.8423
G01 X7.6269 Y23.7063
G01 X7.6308 Y23.6973
G01 X7.6836 Y23.5495
G01 X7.7218 Y23.3973
G01 X7.7236 Y23.3876
G01 X7.7452 Y23.2420
G01 X7.7465 Y23.2291
G01 X7.7539 Y23.0755
G01 X7.7463 Y22.9187
G01 X7.7452 Y22.9090
G01 X7.7225 Y22.7570
G01 X7.6853 Y22.6078
G01 X7.6826 Y22.5984
G01 X7.6319 Y22.4567
G01 X7.6283 Y22.4477
G01 X7.5626 Y22.3087
G01 X7.5578 Y22.3001
G01 X7.5150 Y22.2287
G00 Z2.0000
G00 X5.2742 Y24.4695
G01 F60.00
G01 Z-0.2000
G01 F120.00
G01 X5.3456 Y24.5123
G01 X5.3542 Y24.5171
G01 X5.4932 Y24.5828
G01 X5.5022 Y24.5864
G01 X5.6439 Y24.6371
G01 X5.6533 Y24.6398
G01 X5.8025 Y24.6770
G01 X5.9545 Y24.6997
G01 X5.9642 Y24.7008
G01 X6.1210 Y24.7084
G01 X6.2746 Y24.7010
G01 X6.2875 Y24.6997
G01 X6.4331 Y24.6781
G01 X6.4428 Y24.6763
G01 X6.5950 Y24.6381
G01 X6.7428 Y24.5853
G01 X6.7518 Y24.5814
G01 X6.8878 Y24.5171
G01 X6.8964 Y24.5123
G01 X6.9678 Y24.4695
G01 X7.1174 Y24.6191
G01 X7.0810 Y24.6928
G01 X6.8791 Y24.8007
G01 X6.5254 Y24.9158
G01 X6.1586 Y24.9593
G01 X5.7904 Y24.9304
G01 X5.4349 Y24.8303
G01 X5.1597 Y24.6902
G01 X5.1246 Y24.6191
G01 X5.2742 Y24.4695
G00 Z2.0000
G00 X4.6210 Y29.7884
G01 F60.00
G01 Z-0.2000
G01 F120.00
G01 X4.6080 Y29.7877
G01 X4.5951 Y29.7858
G01 X4.5824 Y29.7826
G01 X4.5702 Y29.7782
G01 X4.5584 Y29.7727
G01 X4.5472 Y29.7660
G01 X4.5367 Y29.7582
G01 X4.5271 Y29.7495
G01 X4.5183 Y29.7398
G01 X4.5124 Y29.7320
G01 X4.5054 Y29.7210
G01 X4.4996 Y29.7093
G01 X4.4949 Y29.6972
G01 X4.4914 Y29.6846
G01 X4.4892 Y29.6718
G01 X4.4882 Y29.6588
G01 X4.4882 Y26.6523
G01 X4.4892 Y26.6393
G01 X4.4914 Y26.6264
G01 X4.4949 Y26.6138
G01 X4.4996 Y26.6017
G01 X4.5054 Y26.5900
G01 X4.5124 Y26.5790
G01 X4.5226 Y26.5663
G01 X4.5318 Y26.5571
G01 X4.5393 Y26.5508
G01 X4.5499 Y26.5433
G01 X4.5613 Y26.5368
G01 X4.5732 Y26.5316
G01 X4.5856 Y26.5275
G01 X4.5983 Y26.5246
G01 X4.6112 Y26.5230
G01 X4.6210 Y26.5227
G01 X7.6210 Y26.5227
G01 X7.6373 Y26.5237
G01 X7.6469 Y26.5252
G01 X7.6596 Y26.5284
G01 X7.6688 Y26.5316
G01 X7.6778 Y26.5354
G01 X7.6865 Y26.5399
G01 X7.6948 Y26.5451
G01 X7.7027 Y26.5508
G01 X7.7102 Y26.5571
G01 X7.7172 Y26.5639
G01 X7.7257 Y26.5738
G01 X7.7315 Y26.5817
G01 X7.7366 Y26.5900
G01 X7.7411 Y26.5987
G01 X7.7450 Y26.6077
G01 X7.7481 Y26.6169
G01 X7.7506 Y26.6264
G01 X7.7529 Y26.6393
G01 X7.7539 Y26.6555
G01 X7.7539 Y27.0222
G01 X8.0011 Y27.0222
G01 X10.0677 Y24.9556
G01 X10.0677 Y18.4721
G01 X10.0506 Y18.4566
G01 X10.0436 Y18.4498
G01 X9.9382 Y18.3334
G01 X9.8427 Y18.2046
G01 X9.7603 Y18.0671
G01 X9.6918 Y17.9222
G01 X9.6378 Y17.7712
G01 X9.5988 Y17.6157
G01 X9.5753 Y17.4571
G01 X9.5675 Y17.3003
G01 X9.5676 Y17.2905
G01 X9.5748 Y17.1434
G01 X9.5761 Y17.1304
G01 X9.5988 Y16.9783
G01 X9.6378 Y16.8228
G01 X9.6918 Y16.6719
G01 X9.7574 Y16.5328
G01 X9.7635 Y16.5213
G01 X9.8392 Y16.3949
G01 X9.8446 Y16.3867
G01 X9.9382 Y16.2607
G01 X10.0459 Y16.1419
G01 X22.2379 Y3.9499
G01 X22.3567 Y3.8422
G01 X22.4801 Y3.7505
G01 X22.4909 Y3.7432
G01 X22.6173 Y3.6675
G01 X22.6258 Y3.6628
G01 X22.7619 Y3.5984
G01 X22.7739 Y3.5934
G01 X22.9188 Y3.5418
G01 X23.0680 Y3.5042
G01 X23.0807 Y3.5017
G01 X23.2329 Y3.4793
G01 X23.3930 Y3.4714
G01 X56.9210 Y3.4714
G01 X57.0811 Y3.4793
G01 X57.2397 Y3.5028
G01 X57.3952 Y3.5418
G01 X57.5462 Y3.5958
G01 X57.6911 Y3.6643
G01 X57.8231 Y3.7432
G01 X57.8339 Y3.7505
G01 X57.9522 Y3.8382
G01 X57.9623 Y3.8465
G01 X58.0761 Y3.9499
G01 X58.1795 Y4.0637
G01 X58.1878 Y4.0738
G01 X58.2793 Y4.1974
G01 X58.3617 Y4.3349
G01 X58.4303 Y4.4799
G01 X58.4843 Y4.6308
G01 X58.5232 Y4.7863
G01 X58.5459 Y4.9384
G01 X58.5472 Y4.9514
G01 X58.5546 Y5.1050
G01 X58.5472 Y5.2586
G01 X58.5459 Y5.2716
G01 X58.5243 Y5.4173
G01 X58.5218 Y5.4301
G01 X58.4843 Y5.5792
G01 X58.4333 Y5.7220
G01 X61.9872 Y9.2759
G01 X66.4930 Y9.2759
G01 X66.5486 Y9.2785
G01 X66.5583 Y9.2793
G01 X66.6165 Y9.2881
G01 X66.6705 Y9.3014
G01 X66.6830 Y9.3052
G01 X66.7353 Y9.3241
G01 X66.7915 Y9.3507
G01 X66.8392 Y9.3791
G01 X66.8501 Y9.3864
G01 X66.8895 Y9.4156
G01 X66.8971 Y9.4217
G01 X66.9407 Y9.4613
G01 X68.0760 Y10.5967
G01 X68.1819 Y10.5811
G01 X68.2930 Y10.5757
G01 X72.1643 Y10.5757
G01 X72.2721 Y10.5811
G01 X72.3821 Y10.5974
G01 X72.4900 Y10.6245
G01 X72.5886 Y10.6596
G01 X72.6007 Y10.6646
G01 X72.6953 Y10.7095
G01 X72.7907 Y10.7667
G01 X72.8800 Y10.8329
G01 X72.9601 Y10.9053
G01 X77.0030 Y14.9482
G01 X77.5330 Y14.9482
G01 X77.5493 Y14.9492
G01 X77.5653 Y14.9521
G01 X77.5747 Y14.9549
G01 X77.5839 Y14.9583
G01 X77.5927 Y14.9623
G01 X77.6013 Y14.9671
G01 X77.6095 Y14.9724
G01 X77.6173 Y14.9783
G01 X77.6246 Y14.9848
G01 X77.6314 Y14.9918
G01 X77.6416 Y15.0045
G01 X77.6502 Y15.0184
G01 X77.6545 Y15.0272
G01 X77.6581 Y15.0363
G01 X77.6610 Y15.0456
G01 X77.6633 Y15.0551
G01 X77.6652 Y15.0680
G01 X77.6658 Y15.0778
G01 X77.6659 Y15.6383
G01 X77.6735 Y15.6487
G01 X77.6788 Y15.6569
G01 X77.7293 Y15.7411
G01 X77.7355 Y15.7526
G01 X77.7801 Y15.8473
G01 X77.8155 Y15.9458
G01 X77.8193 Y15.9583
G01 X77.8446 Y16.0599
G01 X77.8609 Y16.1699
G01 X77.8664 Y16.2810
G01 X77.8614 Y16.3856
G01 X77.8601 Y16.3986
G01 X77.8457 Y16.4957
G01 X77.8432 Y16.5085
G01 X77.8176 Y16.6100
G01 X77.7824 Y16.7086
G01 X77.7774 Y16.7207
G01 X77.7325 Y16.8153
G01 X77.6788 Y16.9052
G01 X77.6735 Y16.9134
G01 X77.6659 Y16.9237
G01 X77.6658 Y17.4843
G01 X77.6649 Y17.4973
G01 X77.6626 Y17.5101
G01 X77.6601 Y17.5196
G01 X77.6557 Y17.5319
G01 X77.6486 Y17.5465
G01 X77.6416 Y17.5575
G01 X77.6314 Y17.5702
G01 X77.6222 Y17.5794
G01 X77.6122 Y17.5877
G01 X77.5985 Y17.5966
G01 X77.5839 Y17.6037
G01 X77.5684 Y17.6090
G01 X77.5525 Y17.6124
G01 X77.5363 Y17.6138
G01 X77.3661 Y17.6139
G01 X77.3661 Y21.3610
G01 X77.3631 Y21.4231
G01 X77.3539 Y21.4845
G01 X77.3389 Y21.5448
G01 X77.3179 Y21.6033
G01 X77.2914 Y21.6595
G01 X77.2594 Y21.7127
G01 X77.2224 Y21.7626
G01 X77.1807 Y21.8087
G01 X73.3939 Y25.5955
G01 X73.3939 Y27.0330
G01 X73.3935 Y27.0428
G01 X73.3924 Y27.0525
G01 X73.3899 Y27.0653
G01 X73.3872 Y27.0747
G01 X73.3837 Y27.0839
G01 X73.3797 Y27.0927
G01 X73.3750 Y27.1013
G01 X73.3696 Y27.1095
G01 X73.3637 Y27.1173
G01 X73.3572 Y27.1246
G01 X73.3502 Y27.1314
G01 X73.3427 Y27.1377
G01 X73.3321 Y27.1453
G01 X73.3236 Y27.1502
G01 X73.3148 Y27.1545
G01 X73.3058 Y27.1581
G01 X73.2944 Y27.1616
G01 X73.2944 Y36.6010
G01 X73.2889 Y36.7121
G01 X73.2726 Y36.8221
G01 X73.2456 Y36.9300
G01 X73.2081 Y37.0347
G01 X73.1605 Y37.1353
G01 X73.1034 Y37.2307
G01 X73.0371 Y37.3200
G01 X72.9624 Y37.4024
G01 X72.8849 Y37.4728
G01 X72.8775 Y37.4791
G01 X72.7907 Y37.5434
G01 X72.6953 Y37.6005
G01 X72.5947 Y37.6481
G01 X72.4962 Y37.6835
G01 X72.4837 Y37.6873
G01 X72.3821 Y37.7126
G01 X72.2786 Y37.7281
G01 X72.2656 Y37.7294
G01 X72.1675 Y37.7342
G01 X72.1545 Y37.7342
G01 X72.0499 Y37.7289
G01 X71.9440 Y37.7133
G01 X71.7781 Y37.8793
G01 X71.7781 Y43.9588
G01 X72.6773 Y44.8579
G01 X73.6768 Y44.8579
G01 X75.2693 Y43.2653
G01 X75.3104 Y43.2279
G01 X75.3205 Y43.2196
G01 X75.3599 Y43.1904
G01 X75.3708 Y43.1831
G01 X75.4186 Y43.1547
G01 X75.4747 Y43.1281
G01 X75.5270 Y43.1092
G01 X75.5395 Y43.1054
G01 X75.5935 Y43.0921
G01 X75.6517 Y43.0833
G01 X75.6615 Y43.0825
G01 X75.7170 Y43.0799
G01 X89.4330 Y43.0799
G01 X89.4951 Y43.0830
G01 X89.5533 Y43.0915
G01 X89.5629 Y43.0935
G01 X89.6105 Y43.1054
G01 X89.6230 Y43.1092
G01 X89.6753 Y43.1281
G01 X89.7315 Y43.1547
G01 X89.7792 Y43.1831
G01 X89.7901 Y43.1904
G01 X89.8346 Y43.2236
G01 X89.8783 Y43.2631
G01 X91.4070 Y44.7917
G01 X91.4464 Y44.8354
G01 X91.4797 Y44.8799
G01 X91.4852 Y44.8880
G01 X91.5121 Y44.9329
G01 X91.5169 Y44.9415
G01 X91.5406 Y44.9917
G01 X91.5512 Y45.0202
G01 X92.0570 Y45.0202
G01 X92.0700 Y45.0208
G01 X92.0861 Y45.0234
G01 X92.0987 Y45.0269
G01 X92.1138 Y45.0329
G01 X92.1281 Y45.0408
G01 X92.1413 Y45.0503
G01 X92.1510 Y45.0591
G01 X92.1617 Y45.0713
G01 X92.1710 Y45.0847
G01 X92.1757 Y45.0933
G01 X92.1797 Y45.1022
G01 X92.1850 Y45.1176
G01 X92.1884 Y45.1335
G01 X92.1895 Y45.1432
G01 X92.1899 Y45.1530
G01 X92.1899 Y47.3530
G01 X92.1892 Y47.3660
G01 X92.1873 Y47.3789
G01 X92.1850 Y47.3884
G01 X92.1821 Y47.3978
G01 X92.1785 Y47.4068
G01 X92.1726 Y47.4185
G01 X92.1656 Y47.4295
G01 X92.1597 Y47.4373
G01 X92.1532 Y47.4446
G01 X92.1438 Y47.4536
G01 X92.1335 Y47.4616
G01 X92.1253 Y47.4670
G01 X92.1138 Y47.4731
G01 X92.1048 Y47.4770
G01 X92.0956 Y47.4801
G01 X92.0829 Y47.4833
G01 X92.0733 Y47.4849
G01 X92.0603 Y47.4858
G01 X89.8538 Y47.4858
G01 X89.8440 Y47.4852
G01 X89.8311 Y47.4833
G01 X89.8184 Y47.4801
G01 X89.8062 Y47.4757
G01 X89.7944 Y47.4702
G01 X89.7832 Y47.4635
G01 X89.7727 Y47.4557
G01 X89.7631 Y47.4470
G01 X89.7543 Y47.4373
G01 X89.7466 Y47.4268
G01 X89.7398 Y47.4156
G01 X89.7343 Y47.4039
G01 X89.7299 Y47.3916
G01 X89.7274 Y47.3821
G01 X89.7252 Y47.3693
G01 X89.7242 Y47.3563
G01 X89.7242 Y45.1498
G01 X89.7252 Y45.1368
G01 X89.7267 Y45.1271
G01 X89.7299 Y45.1144
G01 X89.7343 Y45.1022
G01 X89.7398 Y45.0904
G01 X89.7466 Y45.0792
G01 X89.7543 Y45.0687
G01 X89.7608 Y45.0614
G01 X89.7678 Y45.0546
G01 X89.7779 Y45.0463
G01 X89.7887 Y45.0391
G01 X89.8002 Y45.0329
G01 X89.8092 Y45.0291
G01 X89.8216 Y45.0250
G01 X89.8343 Y45.0221
G01 X89.8453 Y45.0207
G01 X89.1708 Y44.3461
G01 X75.9793 Y44.3461
G01 X74.5721 Y45.7533
G01 X74.5721 Y48.9599
G01 X74.6402 Y49.0106
G01 X74.7153 Y49.0787
G01 X74.7834 Y49.1538
G01 X74.8438 Y49.2352
G01 X74.8959 Y49.3221
G01 X74.9392 Y49.4138
G01 X74.9734 Y49.5092
G01 X74.9966 Y49.6012
G01 X74.9991 Y49.6139
G01 X75.0121 Y49.7013
G01 X75.0134 Y49.7143
G01 X75.0179 Y49.8090
G01 X75.0134 Y49.9037
G01 X75.0121 Y49.9167
G01 X74.9980 Y50.0105
G01 X74.9734 Y50.1088
G01 X74.9392 Y50.2043
G01 X74.8988 Y50.2901
G01 X74.8943 Y50.2988
G01 X74.8473 Y50.3773
G01 X74.8400 Y50.3882
G01 X74.7834 Y50.4642
G01 X74.7198 Y50.5346
G01 X74.7106 Y50.5438
G01 X74.6402 Y50.6074
G01 X74.5588 Y50.6678
G01 X74.4776 Y50.7167
G01 X74.4661 Y50.7228
G01 X74.3803 Y50.7632
G01 X74.2910 Y50.7953
G01 X74.2785 Y50.7991
G01 X74.1865 Y50.8220
G01 X74.0927 Y50.8361
G01 X74.0830 Y50.8372
G01 X73.9850 Y50.8419
G01 X73.3818 Y50.8418
G01 X73.2838 Y50.8369
G01 X73.1899 Y50.8231
G01 X73.1772 Y50.8206
G01 X73.0852 Y50.7974
G01 X72.9898 Y50.7632
G01 X72.8981 Y50.7199
G01 X72.8167 Y50.6713
G01 X72.8059 Y50.6640
G01 X72.7349 Y50.6114
G01 X72.7248 Y50.6032
G01 X72.6547 Y50.5393
G01 X72.5887 Y50.4667
G01 X72.5826 Y50.4591
G01 X72.5262 Y50.3828
G01 X72.4741 Y50.2959
G01 X72.4308 Y50.2043
G01 X72.3987 Y50.1150
G01 X72.3949 Y50.1025
G01 X72.3720 Y50.0105
G01 X72.3579 Y49.9167
G01 X72.3567 Y49.9037
G01 X72.3523 Y49.8155
G01 X72.3523 Y49.8025
G01 X72.3571 Y49.7078
G01 X72.3709 Y49.6139
G01 X72.3734 Y49.6012
G01 X72.3966 Y49.5092
G01 X72.4284 Y49.4198
G01 X72.4334 Y49.4078
G01 X72.4741 Y49.3221
G01 X72.5227 Y49.2407
G01 X72.5300 Y49.2299
G01 X72.5826 Y49.1589
G01 X72.5887 Y49.1513
G01 X72.6547 Y49.0787
G01 X72.7248 Y49.0149
G01 X72.7349 Y49.0066
G01 X72.8085 Y48.9521
G01 X72.8167 Y48.9467
G01 X72.8925 Y48.9013
G01 X72.9010 Y48.8966
G01 X72.9898 Y48.8548
G01 X73.0519 Y48.8324
G01 X73.0519 Y47.5765
G01 X73.0014 Y47.5691
G01 X72.9918 Y47.5673
G01 X72.9125 Y47.5474
G01 X72.9031 Y47.5447
G01 X72.8200 Y47.5149
G01 X72.7431 Y47.4786
G01 X72.7344 Y47.4741
G01 X72.6587 Y47.4286
G01 X72.5852 Y47.3741
G01 X72.5174 Y47.3126
G01 X72.4602 Y47.2497
G01 X72.4539 Y47.2423
G01 X72.4051 Y47.1766
G01 X72.3979 Y47.1658
G01 X72.3543 Y47.0928
G01 X72.3178 Y47.0160
G01 X72.3128 Y47.0039
G01 X72.2843 Y46.9238
G01 X72.2621 Y46.8350
G01 X72.2487 Y46.7444
G01 X72.2442 Y46.6563
G01 X72.2442 Y46.2155
G01 X70.6973 Y44.6687
G01 X70.6599 Y44.6276
G01 X70.6516 Y44.6175
G01 X70.6224 Y44.5781
G01 X70.6151 Y44.5672
G01 X70.5867 Y44.5195
G01 X70.5601 Y44.4633
G01 X70.5392 Y44.4048
G01 X70.5255 Y44.3509
G01 X70.5230 Y44.3381
G01 X70.5158 Y44.2895
G01 X70.5147 Y44.2798
G01 X70.5119 Y44.2210
G01 X70.5119 Y37.6170
G01 X70.5147 Y37.5582
G01 X70.5158 Y37.5485
G01 X70.5241 Y37.4935
G01 X70.5374 Y37.4395
G01 X70.5412 Y37.4270
G01 X70.5601 Y37.3747
G01 X70.5837 Y37.3244
G01 X70.5899 Y37.3129
G01 X70.6151 Y37.2708
G01 X70.6205 Y37.2626
G01 X70.6556 Y37.2154
G01 X70.6951 Y37.1717
G01 X71.0487 Y36.8180
G01 X71.0331 Y36.7121
G01 X71.0277 Y36.6010
G01 X71.0277 Y27.1616
G01 X71.0163 Y27.1581
G01 X71.0072 Y27.1545
G01 X70.9984 Y27.1502
G01 X70.9899 Y27.1453
G01 X70.9819 Y27.1397
G01 X70.9742 Y27.1336
G01 X70.9648 Y27.1246
G01 X70.9583 Y27.1173
G01 X70.9524 Y27.1095
G01 X70.9471 Y27.1013
G01 X70.9423 Y27.0927
G01 X70.9371 Y27.0808
G01 X70.9330 Y27.0684
G01 X70.9307 Y27.0589
G01 X70.9292 Y27.0493
G01 X70.9283 Y27.0395
G01 X70.9282 Y24.8330
G01 X70.9288 Y24.8200
G01 X70.9307 Y24.8071
G01 X70.9330 Y24.7976
G01 X70.9371 Y24.7852
G01 X70.9423 Y24.7733
G01 X70.9488 Y24.7619
G01 X70.9543 Y24.7539
G01 X70.9626 Y24.7438
G01 X70.9694 Y24.7368
G01 X70.9767 Y24.7303
G01 X70.9872 Y24.7226
G01 X70.9955 Y24.7174
G01 X71.0072 Y24.7116
G01 X71.0193 Y24.7069
G01 X71.0287 Y24.7041
G01 X71.0383 Y24.7021
G01 X71.0512 Y24.7005
G01 X71.0610 Y24.7002
G01 X72.4985 Y24.7002
G01 X76.0999 Y21.0988
G01 X76.0999 Y17.6139
G01 X75.9298 Y17.6138
G01 X75.9135 Y17.6124
G01 X75.8976 Y17.6090
G01 X75.8852 Y17.6050
G01 X75.8704 Y17.5982
G01 X75.8565 Y17.5896
G01 X75.8462 Y17.5816
G01 X75.8368 Y17.5726
G01 X75.8263 Y17.5602
G01 X75.8174 Y17.5465
G01 X75.8116 Y17.5348
G01 X75.8069 Y17.5227
G01 X75.8034 Y17.5101
G01 X75.8012 Y17.4973
G01 X75.8002 Y17.4843
G01 X75.8002 Y16.9510
G01 X71.6916 Y12.8424
G01 X68.2865 Y12.8422
G01 X68.1884 Y12.8374
G01 X68.1755 Y12.8361
G01 X68.0719 Y12.8206
G01 X67.9703 Y12.7953
G01 X67.9578 Y12.7915
G01 X67.8593 Y12.7561
G01 X67.7824 Y12.7199
G01 X67.6932 Y12.6974
G01 X67.5978 Y12.6632
G01 X67.5061 Y12.6199
G01 X67.4192 Y12.5678
G01 X67.3378 Y12.5074
G01 X67.2627 Y12.4393
G01 X67.1946 Y12.3642
G01 X67.1342 Y12.2828
G01 X67.0821 Y12.1959
G01 X67.0401 Y12.1073
G01 X67.0364 Y12.0982
G01 X67.0046 Y12.0088
G01 X66.9800 Y11.9105
G01 X66.9651 Y11.8102
G01 X66.9602 Y11.7123
G01 X66.9603 Y11.7025
G01 X66.9651 Y11.6078
G01 X66.9794 Y11.5107
G01 X66.9814 Y11.5012
G01 X67.0046 Y11.4092
G01 X67.0291 Y11.3404
G01 X66.2308 Y10.5421
G01 X61.7250 Y10.5421
G01 X61.6630 Y10.5391
G01 X61.6015 Y10.5299
G01 X61.5412 Y10.5149
G01 X61.4888 Y10.4963
G01 X61.4797 Y10.4926
G01 X61.4266 Y10.4674
G01 X61.3733 Y10.4354
G01 X61.3234 Y10.3984
G01 X61.2773 Y10.3567
G01 X57.5380 Y6.6173
G01 X57.3952 Y6.6683
G01 X57.2397 Y6.7072
G01 X57.0811 Y6.7307
G01 X56.9210 Y6.7386
G01 X24.0697 Y6.7386
G01 X12.3561 Y18.4521
G01 X12.3344 Y18.4721
G01 X12.3344 Y25.4250
G01 X12.3294 Y25.5296
G01 X12.3281 Y25.5426
G01 X12.3126 Y25.6461
G01 X12.2856 Y25.7540
G01 X12.2481 Y25.8587
G01 X12.2035 Y25.9534
G01 X12.1973 Y25.9649
G01 X12.1434 Y26.0547
G01 X12.0811 Y26.1389
G01 X12.0728 Y26.1489
G01 X12.0047 Y26.2241
G01 X9.2719 Y28.9569
G01 X9.1989 Y29.0233
G01 X9.1989 Y30.3380
G01 X10.6372 Y31.7766
G01 X10.6744 Y31.8179
G01 X10.7077 Y31.8624
G01 X10.7149 Y31.8733
G01 X10.7434 Y31.9211
G01 X10.7699 Y31.9772
G01 X10.7888 Y32.0295
G01 X10.7926 Y32.0420
G01 X10.8045 Y32.0896
G01 X10.8065 Y32.0992
G01 X10.8151 Y32.1575
G01 X10.8181 Y32.2195
G01 X10.8181 Y37.8628
G01 X13.4953 Y40.5399
G01 X16.0188 Y40.5399
G01 X17.1719 Y39.3868
G01 X17.1719 Y31.5210
G01 X17.1750 Y31.4590
G01 X17.1841 Y31.3975
G01 X17.1992 Y31.3372
G01 X17.2189 Y31.2818
G01 X17.2227 Y31.2728
G01 X17.2467 Y31.2226
G01 X17.2786 Y31.1693
G01 X17.3156 Y31.1194
G01 X17.3551 Y31.0757
G01 X18.8813 Y29.5493
G01 X18.9224 Y29.5119
G01 X18.9299 Y29.5056
G01 X18.9773 Y29.4706
G01 X19.0249 Y29.4419
G01 X19.0364 Y29.4357
G01 X19.0867 Y29.4121
G01 X19.1390 Y29.3932
G01 X19.1515 Y29.3894
G01 X19.2055 Y29.3761
G01 X19.2605 Y29.3678
G01 X19.2735 Y29.3665
G01 X19.3290 Y29.3639
G01 X19.9507 Y29.3639
G01 X19.9586 Y29.3325
G01 X19.9613 Y29.3231
G01 X19.9900 Y29.2431
G01 X19.9938 Y29.2341
G01 X20.0274 Y29.1631
G01 X20.0319 Y29.1544
G01 X20.0774 Y29.0787
G01 X20.1279 Y29.0104
G01 X20.1362 Y29.0003
G01 X20.1911 Y28.9397
G01 X20.1981 Y28.9329
G01 X20.2612 Y28.8759
G01 X20.3294 Y28.8251
G01 X20.3403 Y28.8179
G01 X20.4133 Y28.7743
G01 X20.4901 Y28.7378
G01 X20.5021 Y28.7328
G01 X20.5822 Y28.7043
G01 X20.6710 Y28.6821
G01 X20.7616 Y28.6687
G01 X20.8530 Y28.6642
G01 X20.9444 Y28.6687
G01 X21.0350 Y28.6821
G01 X21.1238 Y28.7043
G01 X21.2100 Y28.7352
G01 X21.2869 Y28.7714
G01 X21.2956 Y28.7759
G01 X21.3713 Y28.8214
G01 X21.4448 Y28.8759
G01 X21.5126 Y28.9374
G01 X21.5699 Y29.0003
G01 X21.5762 Y29.0078
G01 X21.6286 Y29.0787
G01 X21.6725 Y29.1516
G01 X21.6772 Y29.1602
G01 X21.7122 Y29.2341
G01 X21.7161 Y29.2431
G01 X21.7447 Y29.3231
G01 X21.7474 Y29.3325
G01 X21.7553 Y29.3639
G01 X22.3770 Y29.3639
G01 X22.4358 Y29.3667
G01 X22.4455 Y29.3678
G01 X22.5005 Y29.3761
G01 X22.5608 Y29.3912
G01 X22.6193 Y29.4121
G01 X22.6696 Y29.4357
G01 X22.6811 Y29.4419
G01 X22.7287 Y29.4706
G01 X22.7735 Y29.5036
G01 X22.7836 Y29.5119
G01 X22.8223 Y29.5471
G01 X23.9341 Y30.6588
G01 X25.1082 Y30.6588
G01 X25.1083 Y30.4854
G01 X25.1092 Y30.4756
G01 X25.1114 Y30.4628
G01 X25.1139 Y30.4533
G01 X25.1183 Y30.4411
G01 X25.1254 Y30.4264
G01 X25.1306 Y30.4181
G01 X25.1363 Y30.4102
G01 X25.1426 Y30.4027
G01 X25.1494 Y30.3957
G01 X25.1567 Y30.3892
G01 X25.1645 Y30.3833
G01 X25.1727 Y30.3780
G01 X25.1813 Y30.3732
G01 X25.1902 Y30.3692
G01 X25.1993 Y30.3658
G01 X25.2151 Y30.3616
G01 X25.2248 Y30.3600
G01 X25.2345 Y30.3592
G01 X27.6410 Y30.3591
G01 X27.6508 Y30.3594
G01 X27.6669 Y30.3616
G01 X27.6827 Y30.3658
G01 X27.6978 Y30.3718
G01 X27.7121 Y30.3797
G01 X27.7253 Y30.3892
G01 X27.7350 Y30.3980
G01 X27.7457 Y30.4102
G01 X27.7550 Y30.4236
G01 X27.7611 Y30.4351
G01 X27.7661 Y30.4471
G01 X27.7706 Y30.4628
G01 X27.7729 Y30.4756
G01 X27.7739 Y30.4919
G01 X27.7739 Y30.5704
G01 X30.6276 Y30.5704
G01 X30.6474 Y30.5486
G01 X30.6542 Y30.5416
G01 X30.7148 Y30.4867
G01 X30.7223 Y30.4804
G01 X30.7932 Y30.4279
G01 X30.8689 Y30.3824
G01 X30.8776 Y30.3779
G01 X30.9486 Y30.3443
G01 X30.9606 Y30.3393
G01 X31.0407 Y30.3108
G01 X31.1295 Y30.2886
G01 X31.2201 Y30.2752
G01 X31.3083 Y30.2707
G01 X32.1115 Y30.2707
G01 X32.1997 Y30.2749
G01 X32.2094 Y30.2760
G01 X32.2935 Y30.2886
G01 X32.3823 Y30.3108
G01 X32.4685 Y30.3417
G01 X32.5454 Y30.3779
G01 X32.5569 Y30.3840
G01 X32.6298 Y30.4279
G01 X32.6982 Y30.4784
G01 X32.7082 Y30.4867
G01 X32.7664 Y30.5394
G01 X32.7756 Y30.5486
G01 X32.8326 Y30.6117
G01 X32.8834 Y30.6799
G01 X32.8906 Y30.6908
G01 X32.9342 Y30.7638
G01 X32.9734 Y30.8465
G01 X33.0042 Y30.9327
G01 X33.0264 Y31.0215
G01 X33.0399 Y31.1121
G01 X33.0444 Y31.2035
G01 X33.0399 Y31.2949
G01 X33.0276 Y31.3791
G01 X33.0258 Y31.3887
G01 X33.0042 Y31.4743
G01 X32.9757 Y31.5544
G01 X32.9707 Y31.5665
G01 X32.9371 Y31.6374
G01 X32.9310 Y31.6489
G01 X32.8871 Y31.7218
G01 X32.8326 Y31.7953
G01 X32.7711 Y31.8631
G01 X32.7082 Y31.9204
G01 X32.6982 Y31.9286
G01 X32.6351 Y31.9754
G01 X32.6243 Y31.9826
G01 X32.5513 Y32.0262
G01 X32.4685 Y32.0654
G01 X32.3885 Y32.0941
G01 X32.3760 Y32.0979
G01 X32.2935 Y32.1184
G01 X32.2029 Y32.1319
G01 X32.1115 Y32.1364
G01 X31.3083 Y32.1363
G01 X31.2201 Y32.1319
G01 X31.1295 Y32.1184
G01 X31.0407 Y32.0962
G01 X30.9606 Y32.0677
G01 X30.9486 Y32.0627
G01 X30.8776 Y32.0291
G01 X30.8689 Y32.0246
G01 X30.7932 Y31.9791
G01 X30.7223 Y31.9267
G01 X30.7148 Y31.9204
G01 X30.6542 Y31.8654
G01 X30.6474 Y31.8584
G01 X30.6276 Y31.8366
G01 X27.7739 Y31.8366
G01 X27.7738 Y32.0952
G01 X27.7732 Y32.1049
G01 X27.7719 Y32.1146
G01 X27.7681 Y32.1305
G01 X27.7650 Y32.1397
G01 X27.7611 Y32.1487
G01 X27.7566 Y32.1574
G01 X27.7515 Y32.1657
G01 X27.7416 Y32.1787
G01 X27.7350 Y32.1858
G01 X27.7278 Y32.1925
G01 X27.7202 Y32.1986
G01 X27.7121 Y32.2041
G01 X27.7036 Y32.2091
G01 X27.6948 Y32.2134
G01 X27.6858 Y32.2170
G01 X27.6764 Y32.2199
G01 X27.6605 Y32.2233
G01 X27.6508 Y32.2244
G01 X27.6410 Y32.2248
G01 X25.2345 Y32.2246
G01 X25.2248 Y32.2238
G01 X25.2151 Y32.2222
G01 X25.2056 Y32.2199
G01 X25.1963 Y32.2170
G01 X25.1813 Y32.2106
G01 X25.1727 Y32.2058
G01 X25.1645 Y32.2005
G01 X25.1567 Y32.1946
G01 X25.1494 Y32.1881
G01 X25.1383 Y32.1762
G01 X25.1324 Y32.1684
G01 X25.1271 Y32.1602
G01 X25.1223 Y32.1516
G01 X25.1183 Y32.1427
G01 X25.1149 Y32.1336
G01 X25.1114 Y32.1210
G01 X25.1096 Y32.1114
G01 X25.1083 Y32.0984
G01 X25.1082 Y31.9250
G01 X23.6654 Y31.9248
G01 X23.6163 Y31.9224
G01 X23.6034 Y31.9212
G01 X23.5484 Y31.9128
G01 X23.4944 Y31.8995
G01 X23.4819 Y31.8957
G01 X23.4296 Y31.8768
G01 X23.3764 Y31.8517
G01 X23.3678 Y31.8470
G01 X23.3257 Y31.8218
G01 X23.3148 Y31.8145
G01 X23.2703 Y31.7813
G01 X23.2266 Y31.7418
G01 X22.1148 Y30.6301
G01 X21.7553 Y30.6301
G01 X21.7474 Y30.6615
G01 X21.7447 Y30.6709
G01 X21.7172 Y30.7479
G01 X21.7136 Y30.7570
G01 X21.6757 Y30.8368
G01 X21.6304 Y30.9125
G01 X21.6249 Y30.9206
G01 X21.5781 Y30.9837
G01 X21.5699 Y30.9937
G01 X21.5126 Y31.0566
G01 X21.4497 Y31.1139
G01 X21.4423 Y31.1202
G01 X21.3713 Y31.1726
G01 X21.2928 Y31.2197
G01 X21.2100 Y31.2589
G01 X21.1300 Y31.2876
G01 X21.1175 Y31.2914
G01 X21.0414 Y31.3105
G01 X21.0286 Y31.3131
G01 X20.9444 Y31.3254
G01 X20.8530 Y31.3299
G01 X20.7616 Y31.3254
G01 X20.6774 Y31.3131
G01 X20.6647 Y31.3105
G01 X20.5885 Y31.2914
G01 X20.5760 Y31.2876
G01 X20.4960 Y31.2589
G01 X20.4133 Y31.2197
G01 X20.3347 Y31.1726
G01 X20.2638 Y31.1202
G01 X20.2563 Y31.1139
G01 X20.1981 Y31.0611
G01 X20.1889 Y31.0519
G01 X20.1319 Y30.9888
G01 X20.0811 Y30.9206
G01 X20.0756 Y30.9125
G01 X20.0303 Y30.8368
G01 X19.9925 Y30.7570
G01 X19.9888 Y30.7479
G01 X19.9613 Y30.6709
G01 X19.9586 Y30.6615
G01 X19.9507 Y30.6301
G01 X19.5913 Y30.6301
G01 X18.4381 Y31.7833
G01 X18.4381 Y39.6490
G01 X18.4355 Y39.7046
G01 X18.4343 Y39.7175
G01 X18.4259 Y39.7725
G01 X18.4118 Y39.8297
G01 X18.4088 Y39.8390
G01 X18.3899 Y39.8913
G01 X18.3663 Y39.9416
G01 X18.3601 Y39.9531
G01 X18.3314 Y40.0007
G01 X18.2984 Y40.0455
G01 X18.2901 Y40.0556
G01 X18.2527 Y40.0967
G01 X16.7263 Y41.6230
G01 X16.6826 Y41.6624
G01 X16.6327 Y41.6994
G01 X16.5795 Y41.7314
G01 X16.5263 Y41.7566
G01 X16.5172 Y41.7603
G01 X16.4648 Y41.7789
G01 X16.4045 Y41.7939
G01 X16.3431 Y41.8031
G01 X16.2843 Y41.8061
G01 X13.2330 Y41.8061
G01 X13.1710 Y41.8031
G01 X13.1095 Y41.7939
G01 X13.0492 Y41.7789
G01 X12.9968 Y41.7603
G01 X12.9848 Y41.7553
G01 X12.9346 Y41.7314
G01 X12.8813 Y41.6994
G01 X12.8314 Y41.6624
G01 X12.7853 Y41.6207
G01 X9.7373 Y38.5727
G01 X9.6956 Y38.5266
G01 X9.6586 Y38.4767
G01 X9.6267 Y38.4235
G01 X9.6001 Y38.3673
G01 X9.5792 Y38.3088
G01 X9.5641 Y38.2485
G01 X9.5550 Y38.1871
G01 X9.5520 Y38.1283
G01 X9.5519 Y32.4818
G01 X6.8585 Y29.7884
G01 X4.6210 Y29.7884
G00 Z2.0000
G00 X3.8321 Y29.6611
G01 F60.00
G01 Z-0.2000
G01 F120.00
G01 X3.8334 Y29.6356
G01 X3.8371 Y29.6104
G01 X3.8433 Y29.5856
G01 X3.8495 Y29.5677
G01 X3.8532 Y29.5586
G01 X3.8644 Y29.5357
G01 X3.8777 Y29.5140
G01 X3.8932 Y29.4937
G01 X3.9059 Y29.4796
G01 X3.9129 Y29.4728
G01 X3.9271 Y29.4602
G01 X3.9423 Y29.4487
G01 X3.9503 Y29.4432
G01 X3.9638 Y29.4351
G01 X3.9724 Y29.4304
G01 X3.9896 Y29.4222
G01 X4.0104 Y29.4144
G01 X4.0197 Y29.4115
G01 X4.0381 Y29.4068
G01 X4.0633 Y29.4028
G01 X4.0730 Y29.4019
G01 X4.0920 Y29.4012
G01 X4.1175 Y29.4024
G01 X4.1427 Y29.4062
G01 X4.1675 Y29.4124
G01 X4.1915 Y29.4210
G01 X4.2145 Y29.4319
G01 X4.2364 Y29.4450
G01 X4.2569 Y29.4602
G01 X4.2758 Y29.4773
G01 X4.2908 Y29.4937
G01 X4.3063 Y29.5140
G01 X4.3197 Y29.5357
G01 X4.3309 Y29.5586
G01 X4.3387 Y29.5794
G01 X4.3416 Y29.5888
G01 X4.3455 Y29.6040
G01 X4.3480 Y29.6168
G01 X4.3507 Y29.6356
G01 X4.3578 Y29.7079
G01 X4.3731 Y29.7582
G01 X4.3979 Y29.8046
G01 X4.4312 Y29.8453
G01 X4.4719 Y29.8787
G01 X4.5183 Y29.9035
G01 X4.5687 Y29.9187
G01 X4.6338 Y29.9251
G01 X6.7014 Y29.9252
G01 X6.7204 Y29.9261
G01 X6.7301 Y29.9272
G01 X6.7489 Y29.9301
G01 X6.7673 Y29.9346
G01 X6.7767 Y29.9373
G01 X6.7946 Y29.9437
G01 X6.8178 Y29.9543
G01 X6.8371 Y29.9655
G01 X6.8479 Y29.9727
G01 X6.8631 Y29.9841
G01 X6.8820 Y30.0013
G01 X7.4797 Y30.5990
G01 X7.4947 Y30.6154
G01 X7.5127 Y30.6373
G01 X7.5346 Y30.6553
G01 X7.5510 Y30.6704
G01 X7.9877 Y31.1070
G01 X8.0027 Y31.1234
G01 X8.0207 Y31.1453
G01 X8.0426 Y31.1633
G01 X8.0590 Y31.1784
G01 X9.3418 Y32.4611
G01 X9.3589 Y32.4800
G01 X9.3704 Y32.4952
G01 X9.3776 Y32.5060
G01 X9.3887 Y32.5253
G01 X9.3981 Y32.5454
G01 X9.4058 Y32.5664
G01 X9.4115 Y32.5878
G01 X9.4140 Y32.6006
G01 X9.4167 Y32.6194
G01 X9.4179 Y32.6449
G01 X9.4179 Y38.0746
G01 X9.4170 Y38.0968
G01 X9.4142 Y38.1250
G01 X9.4290 Y38.2754
G01 X9.4729 Y38.4200
G01 X9.5441 Y38.5532
G01 X9.6400 Y38.6700
G01 X9.6619 Y38.6881
G01 X9.6783 Y38.7031
G01 X12.6549 Y41.6798
G01 X12.6700 Y41.6962
G01 X12.6880 Y41.7180
G01 X12.8048 Y41.8139
G01 X12.9380 Y41.8851
G01 X13.0826 Y41.9290
G01 X13.2330 Y41.9438
G01 X13.2612 Y41.9411
G01 X13.2835 Y41.9401
G01 X16.2306 Y41.9401
G01 X16.2528 Y41.9411
G01 X16.2810 Y41.9438
G01 X16.4314 Y41.9290
G01 X16.5760 Y41.8851
G01 X16.7092 Y41.8139
G01 X16.8260 Y41.7180
G01 X16.8441 Y41.6961
G01 X16.8591 Y41.6797
G01 X18.3117 Y40.2271
G01 X18.3282 Y40.2121
G01 X18.3500 Y40.1940
G01 X18.4459 Y40.0772
G01 X18.5171 Y39.9440
G01 X18.5610 Y39.7994
G01 X18.5758 Y39.6490
G01 X18.5731 Y39.6208
G01 X18.5721 Y39.5986
G01 X18.5721 Y31.9464
G01 X18.5729 Y31.9274
G01 X18.5737 Y31.9177
G01 X18.5771 Y31.8957
G01 X18.5833 Y31.8710
G01 X18.5919 Y31.8469
G01 X18.5999 Y31.8297
G01 X18.6060 Y31.8182
G01 X18.6177 Y31.7993
G01 X18.6311 Y31.7815
G01 X18.6459 Y31.7650
G01 X19.5244 Y30.8864
G01 X19.5433 Y30.8693
G01 X19.5585 Y30.8579
G01 X19.5693 Y30.8506
G01 X19.5886 Y30.8395
G01 X19.6057 Y30.8314
G01 X19.6148 Y30.8278
G01 X19.6327 Y30.8215
G01 X19.6543 Y30.8160
G01 X19.6639 Y30.8142
G01 X19.6827 Y30.8116
G01 X19.7049 Y30.8104
G01 X19.7147 Y30.8105
G01 X19.7337 Y30.8116
G01 X19.7525 Y30.8142
G01 X19.7621 Y30.8160
G01 X19.7836 Y30.8215
G01 X19.8046 Y30.8289
G01 X19.8136 Y30.8327
G01 X19.8307 Y30.8410
G01 X19.8499 Y30.8523
G01 X19.8679 Y30.8653
G01 X19.8780 Y30.8736
G01 X19.8920 Y30.8864
G01 X19.9091 Y30.9053
G01 X19.9243 Y30.9258
G01 X19.9342 Y30.9420
G01 X19.9615 Y30.9927
G01 X20.0948 Y31.1552
G01 X20.2573 Y31.2886
G01 X20.4427 Y31.3876
G01 X20.6438 Y31.4487
G01 X20.8530 Y31.4693
G01 X21.0622 Y31.4487
G01 X21.2633 Y31.3876
G01 X21.4487 Y31.2886
G01 X21.6112 Y31.1552
G01 X21.7446 Y30.9927
G01 X21.7718 Y30.9420
G01 X21.7817 Y30.9258
G01 X21.7949 Y30.9079
G01 X21.8012 Y30.9004
G01 X21.8140 Y30.8864
G01 X21.8280 Y30.8736
G01 X21.8355 Y30.8673
G01 X21.8562 Y30.8523
G01 X21.8725 Y30.8426
G01 X21.8811 Y30.8381
G01 X21.8984 Y30.8301
G01 X21.9162 Y30.8236
G01 X21.9255 Y30.8206
G01 X21.9439 Y30.8160
G01 X21.9536 Y30.8142
G01 X21.9724 Y30.8116
G01 X21.9978 Y30.8103
G01 X22.0233 Y30.8116
G01 X22.0421 Y30.8142
G01 X22.0517 Y30.8160
G01 X22.0733 Y30.8215
G01 X22.0912 Y30.8278
G01 X22.1003 Y30.8314
G01 X22.1204 Y30.8410
G01 X22.1395 Y30.8523
G01 X22.1476 Y30.8579
G01 X22.1627 Y30.8693
G01 X22.1793 Y30.8842
G01 X23.0938 Y31.7986
G01 X23.1088 Y31.8150
G01 X23.1269 Y31.8369
G01 X23.2437 Y31.9328
G01 X23.3769 Y32.0040
G01 X23.5215 Y32.0479
G01 X23.6719 Y32.0627
G01 X23.7001 Y32.0600
G01 X23.7223 Y32.0590
G01 X24.7680 Y32.0590
G01 X24.7935 Y32.0606
G01 X24.8123 Y32.0634
G01 X24.8219 Y32.0654
G01 X24.8402 Y32.0702
G01 X24.8582 Y32.0764
G01 X24.8673 Y32.0801
G01 X24.8815 Y32.0867
G01 X24.8902 Y32.0912
G01 X24.9037 Y32.0993
G01 X24.9145 Y32.1065
G01 X24.9322 Y32.1201
G01 X24.9462 Y32.1328
G01 X24.9531 Y32.1398
G01 X24.9677 Y32.1566
G01 X24.9827 Y32.1772
G01 X24.9924 Y32.1935
G01 X25.0179 Y32.2410
G01 X25.0512 Y32.2817
G01 X25.0919 Y32.3150
G01 X25.1383 Y32.3398
G01 X25.1887 Y32.3551
G01 X25.2440 Y32.3606
G01 X25.2628 Y32.3634
G01 X25.2877 Y32.3693
G01 X25.3089 Y32.3765
G01 X25.3180 Y32.3802
G01 X25.3323 Y32.3869
G01 X25.3438 Y32.3931
G01 X25.3627 Y32.4049
G01 X25.3831 Y32.4205
G01 X25.4018 Y32.4380
G01 X25.4187 Y32.4572
G01 X25.4336 Y32.4780
G01 X25.4434 Y32.4944
G01 X25.4479 Y32.5032
G01 X25.4545 Y32.5175
G01 X25.4581 Y32.5266
G01 X25.4643 Y32.5446
G01 X25.4690 Y32.5631
G01 X25.4710 Y32.5727
G01 X25.4737 Y32.5916
G01 X25.4750 Y32.6139
G01 X25.4749 Y32.6270
G01 X25.4733 Y32.6493
G01 X25.4698 Y32.6713
G01 X25.4643 Y32.6930
G01 X25.4570 Y32.7141
G01 X25.4519 Y32.7261
G01 X25.4435 Y32.7432
G01 X25.4301 Y32.7651
G01 X25.4168 Y32.7830
G01 X25.4104 Y32.7905
G01 X25.3973 Y32.8044
G01 X25.3807 Y32.8193
G01 X25.3602 Y32.8346
G01 X25.3019 Y32.8728
G01 X25.1367 Y33.0347
G01 X25.0064 Y33.2256
G01 X24.9300 Y33.4050
G01 X25.1931 Y33.4050
G01 X25.2183 Y33.3522
G01 X25.2636 Y33.2764
G01 X25.2691 Y33.2683
G01 X25.3179 Y33.2027
G01 X25.3242 Y33.1952
G01 X25.3814 Y33.1323
G01 X25.4467 Y33.0729
G01 X25.4544 Y33.0668
G01 X25.5227 Y33.0163
G01 X25.6013 Y32.9692
G01 X25.6840 Y32.9301
G01 X25.7640 Y32.9013
G01 X25.7734 Y32.8983
G01 X25.8590 Y32.8770
G01 X25.9431 Y32.8643
G01 X25.9561 Y32.8631
G01 X26.0378 Y32.8591
G01 X26.8410 Y32.8591
G01 X26.9259 Y32.8631
G01 X26.9389 Y32.8643
G01 X27.0230 Y32.8770
G01 X27.1118 Y32.8992
G01 X27.1919 Y32.9277
G01 X27.2040 Y32.9327
G01 X27.2808 Y32.9692
G01 X27.3565 Y33.0145
