(G-CODE GENERATED BY FLATCAM v8.993 - www.flatcam.org - Version Date: 2020/06/05)

(Name: drill_mill_1)
(Type: G-code from Geometry)
(Units: MM)

(Created on quarta, 01 julho 2020 at 22:59)

(This preprocessor is the default preprocessor used by FlatCAM.)
(It is made to work with MACH3 compatible motion controllers.)

(TOOL DIAMETER: 1.0 mm)
(Feedrate_XY: 120.0 mm/min)
(Feedrate_Z: 60.0 mm/min)
(Feedrate rapids 1500.0 mm/min)

(Z_Cut: -1.8 mm)
(DepthPerCut: 0.6 mm <=>3 passes)
(Z_Move: 2.0 mm)
(Z Start: None mm)
(Z End: 15.0 mm)
(Steps per circle: 64)
(Preprocessor Geometry: default)

(X range:    5.8610 ...  110.0130  mm)
(Y range:    7.9590 ...   56.4630  mm)

(Spindle Speed: 12000 RPM)
G21
G90
G94



G01 F120.00
G00 Z2.0000

M03 S12000
G00 X6.3810 Y17.9960
G01 F60.00
G01 Z-0.6000
G01 F120.00
G01 X6.3798 Y17.9705
G01 X6.3760 Y17.9453
G01 X6.3698 Y17.9205
G01 X6.3612 Y17.8965
G01 X6.3503 Y17.8734
G01 X6.3372 Y17.8516
G01 X6.3220 Y17.8311
G01 X6.3049 Y17.8122
G01 X6.2860 Y17.7950
G01 X6.2655 Y17.7798
G01 X6.2436 Y17.7667
G01 X6.2205 Y17.7558
G01 X6.1965 Y17.7472
G01 X6.1717 Y17.7410
G01 X6.1465 Y17.7373
G01 X6.1210 Y17.7360
G01 X6.0955 Y17.7373
G01 X6.0703 Y17.7410
G01 X6.0455 Y17.7472
G01 X6.0215 Y17.7558
G01 X5.9984 Y17.7667
G01 X5.9766 Y17.7798
G01 X5.9561 Y17.7950
G01 X5.9372 Y17.8122
G01 X5.9200 Y17.8311
G01 X5.9048 Y17.8516
G01 X5.8917 Y17.8734
G01 X5.8808 Y17.8965
G01 X5.8722 Y17.9205
G01 X5.8660 Y17.9453
G01 X5.8623 Y17.9705
G01 X5.8610 Y17.9960
G01 X5.8623 Y18.0215
G01 X5.8660 Y18.0467
G01 X5.8722 Y18.0715
G01 X5.8808 Y18.0955
G01 X5.8917 Y18.1186
G01 X5.9048 Y18.1405
G01 X5.9200 Y18.1610
G01 X5.9372 Y18.1799
G01 X5.9561 Y18.1970
G01 X5.9766 Y18.2122
G01 X5.9984 Y18.2253
G01 X6.0215 Y18.2362
G01 X6.0455 Y18.2448
G01 X6.0703 Y18.2510
G01 X6.0955 Y18.2548
G01 X6.1210 Y18.2560
G01 X6.1465 Y18.2548
G01 X6.1717 Y18.2510
G01 X6.1965 Y18.2448
G01 X6.2205 Y18.2362
G01 X6.2436 Y18.2253
G01 X6.2655 Y18.2122
G01 X6.2860 Y18.1970
G01 X6.3049 Y18.1799
G01 X6.3220 Y18.1610
G01 X6.3372 Y18.1405
G01 X6.3503 Y18.1186
G01 X6.3612 Y18.0955
G01 X6.3698 Y18.0715
G01 X6.3760 Y18.0467
G01 X6.3798 Y18.0215
G01 X6.3810 Y17.9960
G00 X6.3810 Y17.9960
G01 F60.00
G01 Z-1.2000
G01 F120.00
G01 X6.3798 Y17.9705
G01 X6.3760 Y17.9453
G01 X6.3698 Y17.9205
G01 X6.3612 Y17.8965
G01 X6.3503 Y17.8734
G01 X6.3372 Y17.8516
G01 X6.3220 Y17.8311
G01 X6.3049 Y17.8122
G01 X6.2860 Y17.7950
G01 X6.2655 Y17.7798
G01 X6.2436 Y17.7667
G01 X6.2205 Y17.7558
G01 X6.1965 Y17.7472
G01 X6.1717 Y17.7410
G01 X6.1465 Y17.7373
G01 X6.1210 Y17.7360
G01 X6.0955 Y17.7373
G01 X6.0703 Y17.7410
G01 X6.0455 Y17.7472
G01 X6.0215 Y17.7558
G01 X5.9984 Y17.7667
G01 X5.9766 Y17.7798
G01 X5.9561 Y17.7950
G01 X5.9372 Y17.8122
G01 X5.9200 Y17.8311
G01 X5.9048 Y17.8516
G01 X5.8917 Y17.8734
G01 X5.8808 Y17.8965
G01 X5.8722 Y17.9205
G01 X5.8660 Y17.9453
G01 X5.8623 Y17.9705
G01 X5.8610 Y17.9960
G01 X5.8623 Y18.0215
G01 X5.8660 Y18.0467
G01 X5.8722 Y18.0715
G01 X5.8808 Y18.0955
G01 X5.8917 Y18.1186
G01 X5.9048 Y18.1405
G01 X5.9200 Y18.1610
G01 X5.9372 Y18.1799
G01 X5.9561 Y18.1970
G01 X5.9766 Y18.2122
G01 X5.9984 Y18.2253
G01 X6.0215 Y18.2362
G01 X6.0455 Y18.2448
G01 X6.0703 Y18.2510
G01 X6.0955 Y18.2548
G01 X6.1210 Y18.2560
G01 X6.1465 Y18.2548
G01 X6.1717 Y18.2510
G01 X6.1965 Y18.2448
G01 X6.2205 Y18.2362
G01 X6.2436 Y18.2253
G01 X6.2655 Y18.2122
G01 X6.2860 Y18.1970
G01 X6.3049 Y18.1799
G01 X6.3220 Y18.1610
G01 X6.3372 Y18.1405
G01 X6.3503 Y18.1186
G01 X6.3612 Y18.0955
G01 X6.3698 Y18.0715
G01 X6.3760 Y18.0467
G01 X6.3798 Y18.0215
G01 X6.3810 Y17.9960
G00 X6.3810 Y17.9960
G01 F60.00
G01 Z-1.8000
G01 F120.00
G01 X6.3798 Y17.9705
G01 X6.3760 Y17.9453
G01 X6.3698 Y17.9205
G01 X6.3612 Y17.8965
G01 X6.3503 Y17.8734
G01 X6.3372 Y17.8516
G01 X6.3220 Y17.8311
G01 X6.3049 Y17.8122
G01 X6.2860 Y17.7950
G01 X6.2655 Y17.7798
G01 X6.2436 Y17.7667
G01 X6.2205 Y17.7558
G01 X6.1965 Y17.7472
G01 X6.1717 Y17.7410
G01 X6.1465 Y17.7373
G01 X6.1210 Y17.7360
G01 X6.0955 Y17.7373
G01 X6.0703 Y17.7410
G01 X6.0455 Y17.7472
G01 X6.0215 Y17.7558
G01 X5.9984 Y17.7667
G01 X5.9766 Y17.7798
G01 X5.9561 Y17.7950
G01 X5.9372 Y17.8122
G01 X5.9200 Y17.8311
G01 X5.9048 Y17.8516
G01 X5.8917 Y17.8734
G01 X5.8808 Y17.8965
G01 X5.8722 Y17.9205
G01 X5.8660 Y17.9453
G01 X5.8623 Y17.9705
G01 X5.8610 Y17.9960
G01 X5.8623 Y18.0215
G01 X5.8660 Y18.0467
G01 X5.8722 Y18.0715
G01 X5.8808 Y18.0955
G01 X5.8917 Y18.1186
G01 X5.9048 Y18.1405
G01 X5.9200 Y18.1610
G01 X5.9372 Y18.1799
G01 X5.9561 Y18.1970
G01 X5.9766 Y18.2122
G01 X5.9984 Y18.2253
G01 X6.0215 Y18.2362
G01 X6.0455 Y18.2448
G01 X6.0703 Y18.2510
G01 X6.0955 Y18.2548
G01 X6.1210 Y18.2560
G01 X6.1465 Y18.2548
G01 X6.1717 Y18.2510
G01 X6.1965 Y18.2448
G01 X6.2205 Y18.2362
G01 X6.2436 Y18.2253
G01 X6.2655 Y18.2122
G01 X6.2860 Y18.1970
G01 X6.3049 Y18.1799
G01 X6.3220 Y18.1610
G01 X6.3372 Y18.1405
G01 X6.3503 Y18.1186
G01 X6.3612 Y18.0955
G01 X6.3698 Y18.0715
G01 X6.3760 Y18.0467
G01 X6.3798 Y18.0215
G01 X6.3810 Y17.9960
G00 Z2.0000
G00 X6.3810 Y23.0760
G01 F60.00
G01 Z-0.6000
G01 F120.00
G01 X6.3798 Y23.0505
G01 X6.3760 Y23.0253
G01 X6.3698 Y23.0005
G01 X6.3612 Y22.9765
G01 X6.3503 Y22.9534
G01 X6.3372 Y22.9316
G01 X6.3220 Y22.9111
G01 X6.3049 Y22.8922
G01 X6.2860 Y22.8750
G01 X6.2655 Y22.8598
G01 X6.2436 Y22.8467
G01 X6.2205 Y22.8358
G01 X6.1965 Y22.8272
G01 X6.1717 Y22.8210
G01 X6.1465 Y22.8173
G01 X6.1210 Y22.8160
G01 X6.0955 Y22.8173
G01 X6.0703 Y22.8210
G01 X6.0455 Y22.8272
G01 X6.0215 Y22.8358
G01 X5.9984 Y22.8467
G01 X5.9766 Y22.8598
G01 X5.9561 Y22.8750
G01 X5.9372 Y22.8922
G01 X5.9200 Y22.9111
G01 X5.9048 Y22.9316
G01 X5.8917 Y22.9534
G01 X5.8808 Y22.9765
G01 X5.8722 Y23.0005
G01 X5.8660 Y23.0253
G01 X5.8623 Y23.0505
G01 X5.8610 Y23.0760
G01 X5.8623 Y23.1015
G01 X5.8660 Y23.1267
G01 X5.8722 Y23.1515
G01 X5.8808 Y23.1755
G01 X5.8917 Y23.1986
G01 X5.9048 Y23.2205
G01 X5.9200 Y23.2410
G01 X5.9372 Y23.2599
G01 X5.9561 Y23.2770
G01 X5.9766 Y23.2922
G01 X5.9984 Y23.3053
G01 X6.0215 Y23.3162
G01 X6.0455 Y23.3248
G01 X6.0703 Y23.3310
G01 X6.0955 Y23.3348
G01 X6.1210 Y23.3360
G01 X6.1465 Y23.3348
G01 X6.1717 Y23.3310
G01 X6.1965 Y23.3248
G01 X6.2205 Y23.3162
G01 X6.2436 Y23.3053
G01 X6.2655 Y23.2922
G01 X6.2860 Y23.2770
G01 X6.3049 Y23.2599
G01 X6.3220 Y23.2410
G01 X6.3372 Y23.2205
G01 X6.3503 Y23.1986
G01 X6.3612 Y23.1755
G01 X6.3698 Y23.1515
G01 X6.3760 Y23.1267
G01 X6.3798 Y23.1015
G01 X6.3810 Y23.0760
G00 X6.3810 Y23.0760
G01 F60.00
G01 Z-1.2000
G01 F120.00
G01 X6.3798 Y23.0505
G01 X6.3760 Y23.0253
G01 X6.3698 Y23.0005
G01 X6.3612 Y22.9765
G01 X6.3503 Y22.9534
G01 X6.3372 Y22.9316
G01 X6.3220 Y22.9111
G01 X6.3049 Y22.8922
G01 X6.2860 Y22.8750
G01 X6.2655 Y22.8598
G01 X6.2436 Y22.8467
G01 X6.2205 Y22.8358
G01 X6.1965 Y22.8272
G01 X6.1717 Y22.8210
G01 X6.1465 Y22.8173
G01 X6.1210 Y22.8160
G01 X6.0955 Y22.8173
G01 X6.0703 Y22.8210
G01 X6.0455 Y22.8272
G01 X6.0215 Y22.8358
G01 X5.9984 Y22.8467
G01 X5.9766 Y22.8598
G01 X5.9561 Y22.8750
G01 X5.9372 Y22.8922
G01 X5.9200 Y22.9111
G01 X5.9048 Y22.9316
G01 X5.8917 Y22.9534
G01 X5.8808 Y22.9765
G01 X5.8722 Y23.0005
G01 X5.8660 Y23.0253
G01 X5.8623 Y23.0505
G01 X5.8610 Y23.0760
G01 X5.8623 Y23.1015
G01 X5.8660 Y23.1267
G01 X5.8722 Y23.1515
G01 X5.8808 Y23.1755
G01 X5.8917 Y23.1986
G01 X5.9048 Y23.2205
G01 X5.9200 Y23.2410
G01 X5.9372 Y23.2599
G01 X5.9561 Y23.2770
G01 X5.9766 Y23.2922
G01 X5.9984 Y23.3053
G01 X6.0215 Y23.3162
G01 X6.0455 Y23.3248
G01 X6.0703 Y23.3310
G01 X6.0955 Y23.3348
G01 X6.1210 Y23.3360
G01 X6.1465 Y23.3348
G01 X6.1717 Y23.3310
G01 X6.1965 Y23.3248
G01 X6.2205 Y23.3162
G01 X6.2436 Y23.3053
G01 X6.2655 Y23.2922
G01 X6.2860 Y23.2770
G01 X6.3049 Y23.2599
G01 X6.3220 Y23.2410
G01 X6.3372 Y23.2205
G01 X6.3503 Y23.1986
G01 X6.3612 Y23.1755
G01 X6.3698 Y23.1515
G01 X6.3760 Y23.1267
G01 X6.3798 Y23.1015
G01 X6.3810 Y23.0760
G00 X6.3810 Y23.0760
G01 F60.00
G01 Z-1.8000
G01 F120.00
G01 X6.3798 Y23.0505
G01 X6.3760 Y23.0253
G01 X6.3698 Y23.0005
G01 X6.3612 Y22.9765
G01 X6.3503 Y22.9534
G01 X6.3372 Y22.9316
G01 X6.3220 Y22.9111
G01 X6.3049 Y22.8922
G01 X6.2860 Y22.8750
G01 X6.2655 Y22.8598
G01 X6.2436 Y22.8467
G01 X6.2205 Y22.8358
G01 X6.1965 Y22.8272
G01 X6.1717 Y22.8210
G01 X6.1465 Y22.8173
G01 X6.1210 Y22.8160
G01 X6.0955 Y22.8173
G01 X6.0703 Y22.8210
G01 X6.0455 Y22.8272
G01 X6.0215 Y22.8358
G01 X5.9984 Y22.8467
G01 X5.9766 Y22.8598
G01 X5.9561 Y22.8750
G01 X5.9372 Y22.8922
G01 X5.9200 Y22.9111
G01 X5.9048 Y22.9316
G01 X5.8917 Y22.9534
G01 X5.8808 Y22.9765
G01 X5.8722 Y23.0005
G01 X5.8660 Y23.0253
G01 X5.8623 Y23.0505
G01 X5.8610 Y23.0760
G01 X5.8623 Y23.1015
G01 X5.8660 Y23.1267
G01 X5.8722 Y23.1515
G01 X5.8808 Y23.1755
G01 X5.8917 Y23.1986
G01 X5.9048 Y23.2205
G01 X5.9200 Y23.2410
G01 X5.9372 Y23.2599
G01 X5.9561 Y23.2770
G01 X5.9766 Y23.2922
G01 X5.9984 Y23.3053
G01 X6.0215 Y23.3162
G01 X6.0455 Y23.3248
G01 X6.0703 Y23.3310
G01 X6.0955 Y23.3348
G01 X6.1210 Y23.3360
G01 X6.1465 Y23.3348
G01 X6.1717 Y23.3310
G01 X6.1965 Y23.3248
G01 X6.2205 Y23.3162
G01 X6.2436 Y23.3053
G01 X6.2655 Y23.2922
G01 X6.2860 Y23.2770
G01 X6.3049 Y23.2599
G01 X6.3220 Y23.2410
G01 X6.3372 Y23.2205
G01 X6.3503 Y23.1986
G01 X6.3612 Y23.1755
G01 X6.3698 Y23.1515
G01 X6.3760 Y23.1267
G01 X6.3798 Y23.1015
G01 X6.3810 Y23.0760
G00 Z2.0000
G00 X6.3810 Y28.1560
G01 F60.00
G01 Z-0.6000
G01 F120.00
G01 X6.3798 Y28.1305
G01 X6.3760 Y28.1053
G01 X6.3698 Y28.0805
G01 X6.3612 Y28.0565
G01 X6.3503 Y28.0334
G01 X6.3372 Y28.0116
G01 X6.3220 Y27.9911
G01 X6.3049 Y27.9722
G01 X6.2860 Y27.9550
G01 X6.2655 Y27.9398
G01 X6.2436 Y27.9267
G01 X6.2205 Y27.9158
G01 X6.1965 Y27.9072
G01 X6.1717 Y27.9010
G01 X6.1465 Y27.8973
G01 X6.1210 Y27.8960
G01 X6.0955 Y27.8973
G01 X6.0703 Y27.9010
G01 X6.0455 Y27.9072
G01 X6.0215 Y27.9158
G01 X5.9984 Y27.9267
G01 X5.9766 Y27.9398
G01 X5.9561 Y27.9550
G01 X5.9372 Y27.9722
G01 X5.9200 Y27.9911
G01 X5.9048 Y28.0116
G01 X5.8917 Y28.0334
G01 X5.8808 Y28.0565
G01 X5.8722 Y28.0805
G01 X5.8660 Y28.1053
G01 X5.8623 Y28.1305
G01 X5.8610 Y28.1560
G01 X5.8623 Y28.1815
G01 X5.8660 Y28.2067
G01 X5.8722 Y28.2315
G01 X5.8808 Y28.2555
G01 X5.8917 Y28.2786
G01 X5.9048 Y28.3005
G01 X5.9200 Y28.3210
G01 X5.9372 Y28.3399
G01 X5.9561 Y28.3570
G01 X5.9766 Y28.3722
G01 X5.9984 Y28.3853
G01 X6.0215 Y28.3962
G01 X6.0455 Y28.4048
G01 X6.0703 Y28.4110
G01 X6.0955 Y28.4148
G01 X6.1210 Y28.4160
G01 X6.1465 Y28.4148
G01 X6.1717 Y28.4110
G01 X6.1965 Y28.4048
G01 X6.2205 Y28.3962
G01 X6.2436 Y28.3853
G01 X6.2655 Y28.3722
G01 X6.2860 Y28.3570
G01 X6.3049 Y28.3399
G01 X6.3220 Y28.3210
G01 X6.3372 Y28.3005
G01 X6.3503 Y28.2786
G01 X6.3612 Y28.2555
G01 X6.3698 Y28.2315
G01 X6.3760 Y28.2067
G01 X6.3798 Y28.1815
G01 X6.3810 Y28.1560
G00 X6.3810 Y28.1560
G01 F60.00
G01 Z-1.2000
G01 F120.00
G01 X6.3798 Y28.1305
G01 X6.3760 Y28.1053
G01 X6.3698 Y28.0805
G01 X6.3612 Y28.0565
G01 X6.3503 Y28.0334
G01 X6.3372 Y28.0116
G01 X6.3220 Y27.9911
G01 X6.3049 Y27.9722
G01 X6.2860 Y27.9550
G01 X6.2655 Y27.9398
G01 X6.2436 Y27.9267
G01 X6.2205 Y27.9158
G01 X6.1965 Y27.9072
G01 X6.1717 Y27.9010
G01 X6.1465 Y27.8973
G01 X6.1210 Y27.8960
G01 X6.0955 Y27.8973
G01 X6.0703 Y27.9010
G01 X6.0455 Y27.9072
G01 X6.0215 Y27.9158
G01 X5.9984 Y27.9267
G01 X5.9766 Y27.9398
G01 X5.9561 Y27.9550
G01 X5.9372 Y27.9722
G01 X5.9200 Y27.9911
G01 X5.9048 Y28.0116
G01 X5.8917 Y28.0334
G01 X5.8808 Y28.0565
G01 X5.8722 Y28.0805
G01 X5.8660 Y28.1053
G01 X5.8623 Y28.1305
G01 X5.8610 Y28.1560
G01 X5.8623 Y28.1815
G01 X5.8660 Y28.2067
G01 X5.8722 Y28.2315
G01 X5.8808 Y28.2555
G01 X5.8917 Y28.2786
G01 X5.9048 Y28.3005
G01 X5.9200 Y28.3210
G01 X5.9372 Y28.3399
G01 X5.9561 Y28.3570
G01 X5.9766 Y28.3722
G01 X5.9984 Y28.3853
G01 X6.0215 Y28.3962
G01 X6.0455 Y28.4048
G01 X6.0703 Y28.4110
G01 X6.0955 Y28.4148
G01 X6.1210 Y28.4160
G01 X6.1465 Y28.4148
G01 X6.1717 Y28.4110
G01 X6.1965 Y28.4048
G01 X6.2205 Y28.3962
G01 X6.2436 Y28.3853
G01 X6.2655 Y28.3722
G01 X6.2860 Y28.3570
G01 X6.3049 Y28.3399
G01 X6.3220 Y28.3210
G01 X6.3372 Y28.3005
G01 X6.3503 Y28.2786
G01 X6.3612 Y28.2555
G01 X6.3698 Y28.2315
G01 X6.3760 Y28.2067
G01 X6.3798 Y28.1815
G01 X6.3810 Y28.1560
G00 X6.3810 Y28.1560
G01 F60.00
G01 Z-1.8000
G01 F120.00
G01 X6.3798 Y28.1305
G01 X6.3760 Y28.1053
G01 X6.3698 Y28.0805
G01 X6.3612 Y28.0565
G01 X6.3503 Y28.0334
G01 X6.3372 Y28.0116
G01 X6.3220 Y27.9911
G01 X6.3049 Y27.9722
G01 X6.2860 Y27.9550
G01 X6.2655 Y27.9398
G01 X6.2436 Y27.9267
G01 X6.2205 Y27.9158
G01 X6.1965 Y27.9072
G01 X6.1717 Y27.9010
G01 X6.1465 Y27.8973
G01 X6.1210 Y27.8960
G01 X6.0955 Y27.8973
G01 X6.0703 Y27.9010
G01 X6.0455 Y27.9072
G01 X6.0215 Y27.9158
G01 X5.9984 Y27.9267
G01 X5.9766 Y27.9398
G01 X5.9561 Y27.9550
G01 X5.9372 Y27.9722
G01 X5.9200 Y27.9911
G01 X5.9048 Y28.0116
G01 X5.8917 Y28.0334
G01 X5.8808 Y28.0565
G01 X5.8722 Y28.0805
G01 X5.8660 Y28.1053
G01 X5.8623 Y28.1305
G01 X5.8610 Y28.1560
G01 X5.8623 Y28.1815
G01 X5.8660 Y28.2067
G01 X5.8722 Y28.2315
G01 X5.8808 Y28.2555
G01 X5.8917 Y28.2786
G01 X5.9048 Y28.3005
G01 X5.9200 Y28.3210
G01 X5.9372 Y28.3399
G01 X5.9561 Y28.3570
G01 X5.9766 Y28.3722
G01 X5.9984 Y28.3853
G01 X6.0215 Y28.3962
G01 X6.0455 Y28.4048
G01 X6.0703 Y28.4110
G01 X6.0955 Y28.4148
G01 X6.1210 Y28.4160
G01 X6.1465 Y28.4148
G01 X6.1717 Y28.4110
G01 X6.1965 Y28.4048
G01 X6.2205 Y28.3962
G01 X6.2436 Y28.3853
G01 X6.2655 Y28.3722
G01 X6.2860 Y28.3570
G01 X6.3049 Y28.3399
G01 X6.3220 Y28.3210
G01 X6.3372 Y28.3005
G01 X6.3503 Y28.2786
G01 X6.3612 Y28.2555
G01 X6.3698 Y28.2315
G01 X6.3760 Y28.2067
G01 X6.3798 Y28.1815
G01 X6.3810 Y28.1560
G00 Z2.0000
G00 X6.3810 Y37.6170
G01 F60.00
G01 Z-0.6000
G01 F120.00
G01 X6.3798 Y37.5915
G01 X6.3760 Y37.5663
G01 X6.3698 Y37.5415
G01 X6.3612 Y37.5175
G01 X6.3503 Y37.4944
G01 X6.3372 Y37.4726
G01 X6.3220 Y37.4521
G01 X6.3049 Y37.4332
G01 X6.2860 Y37.4160
G01 X6.2655 Y37.4008
G01 X6.2436 Y37.3877
G01 X6.2205 Y37.3768
G01 X6.1965 Y37.3682
G01 X6.1717 Y37.3620
G01 X6.1465 Y37.3583
G01 X6.1210 Y37.3570
G01 X6.0955 Y37.3583
G01 X6.0703 Y37.3620
G01 X6.0455 Y37.3682
G01 X6.0215 Y37.3768
G01 X5.9984 Y37.3877
G01 X5.9766 Y37.4008
G01 X5.9561 Y37.4160
G01 X5.9372 Y37.4332
G01 X5.9200 Y37.4521
G01 X5.9048 Y37.4726
G01 X5.8917 Y37.4944
G01 X5.8808 Y37.5175
G01 X5.8722 Y37.5415
G01 X5.8660 Y37.5663
G01 X5.8623 Y37.5915
G01 X5.8610 Y37.6170
G01 X5.8623 Y37.6425
G01 X5.8660 Y37.6677
G01 X5.8722 Y37.6925
G01 X5.8808 Y37.7165
G01 X5.8917 Y37.7396
G01 X5.9048 Y37.7615
G01 X5.9200 Y37.7820
G01 X5.9372 Y37.8009
G01 X5.9561 Y37.8180
G01 X5.9766 Y37.8332
G01 X5.9984 Y37.8463
G01 X6.0215 Y37.8572
G01 X6.0455 Y37.8658
G01 X6.0703 Y37.8720
G01 X6.0955 Y37.8758
G01 X6.1210 Y37.8770
G01 X6.1465 Y37.8758
G01 X6.1717 Y37.8720
G01 X6.1965 Y37.8658
G01 X6.2205 Y37.8572
G01 X6.2436 Y37.8463
G01 X6.2655 Y37.8332
G01 X6.2860 Y37.8180
G01 X6.3049 Y37.8009
G01 X6.3220 Y37.7820
G01 X6.3372 Y37.7615
G01 X6.3503 Y37.7396
G01 X6.3612 Y37.7165
G01 X6.3698 Y37.6925
G01 X6.3760 Y37.6677
G01 X6.3798 Y37.6425
G01 X6.3810 Y37.6170
G00 X6.3810 Y37.6170
G01 F60.00
G01 Z-1.2000
G01 F120.00
G01 X6.3798 Y37.5915
G01 X6.3760 Y37.5663
G01 X6.3698 Y37.5415
G01 X6.3612 Y37.5175
G01 X6.3503 Y37.4944
G01 X6.3372 Y37.4726
G01 X6.3220 Y37.4521
G01 X6.3049 Y37.4332
G01 X6.2860 Y37.4160
G01 X6.2655 Y37.4008
G01 X6.2436 Y37.3877
G01 X6.2205 Y37.3768
G01 X6.1965 Y37.3682
G01 X6.1717 Y37.3620
G01 X6.1465 Y37.3583
G01 X6.1210 Y37.3570
G01 X6.0955 Y37.3583
G01 X6.0703 Y37.3620
G01 X6.0455 Y37.3682
G01 X6.0215 Y37.3768
G01 X5.9984 Y37.3877
G01 X5.9766 Y37.4008
G01 X5.9561 Y37.4160
G01 X5.9372 Y37.4332
G01 X5.9200 Y37.4521
G01 X5.9048 Y37.4726
G01 X5.8917 Y37.4944
G01 X5.8808 Y37.5175
G01 X5.8722 Y37.5415
G01 X5.8660 Y37.5663
G01 X5.8623 Y37.5915
G01 X5.8610 Y37.6170
G01 X5.8623 Y37.6425
G01 X5.8660 Y37.6677
G01 X5.8722 Y37.6925
G01 X5.8808 Y37.7165
G01 X5.8917 Y37.7396
G01 X5.9048 Y37.7615
G01 X5.9200 Y37.7820
G01 X5.9372 Y37.8009
G01 X5.9561 Y37.8180
G01 X5.9766 Y37.8332
G01 X5.9984 Y37.8463
G01 X6.0215 Y37.8572
G01 X6.0455 Y37.8658
G01 X6.0703 Y37.8720
G01 X6.0955 Y37.8758
G01 X6.1210 Y37.8770
G01 X6.1465 Y37.8758
G01 X6.1717 Y37.8720
G01 X6.1965 Y37.8658
G01 X6.2205 Y37.8572
G01 X6.2436 Y37.8463
G01 X6.2655 Y37.8332
G01 X6.2860 Y37.8180
G01 X6.3049 Y37.8009
G01 X6.3220 Y37.7820
G01 X6.3372 Y37.7615
G01 X6.3503 Y37.7396
G01 X6.3612 Y37.7165
G01 X6.3698 Y37.6925
G01 X6.3760 Y37.6677
G01 X6.3798 Y37.6425
G01 X6.3810 Y37.6170
G00 X6.3810 Y37.6170
G01 F60.00
G01 Z-1.8000
G01 F120.00
G01 X6.3798 Y37.5915
G01 X6.3760 Y37.5663
G01 X6.3698 Y37.5415
G01 X6.3612 Y37.5175
G01 X6.3503 Y37.4944
G01 X6.3372 Y37.4726
G01 X6.3220 Y37.4521
G01 X6.3049 Y37.4332
G01 X6.2860 Y37.4160
G01 X6.2655 Y37.4008
G01 X6.2436 Y37.3877
G01 X6.2205 Y37.3768
G01 X6.1965 Y37.3682
G01 X6.1717 Y37.3620
G01 X6.1465 Y37.3583
G01 X6.1210 Y37.3570
G01 X6.0955 Y37.3583
G01 X6.0703 Y37.3620
G01 X6.0455 Y37.3682
G01 X6.0215 Y37.3768
G01 X5.9984 Y37.3877
G01 X5.9766 Y37.4008
G01 X5.9561 Y37.4160
G01 X5.9372 Y37.4332
G01 X5.9200 Y37.4521
G01 X5.9048 Y37.4726
G01 X5.8917 Y37.4944
G01 X5.8808 Y37.5175
G01 X5.8722 Y37.5415
G01 X5.8660 Y37.5663
G01 X5.8623 Y37.5915
G01 X5.8610 Y37.6170
G01 X5.8623 Y37.6425
G01 X5.8660 Y37.6677
G01 X5.8722 Y37.6925
G01 X5.8808 Y37.7165
G01 X5.8917 Y37.7396
G01 X5.9048 Y37.7615
G01 X5.9200 Y37.7820
G01 X5.9372 Y37.8009
G01 X5.9561 Y37.8180
G01 X5.9766 Y37.8332
G01 X5.9984 Y37.8463
G01 X6.0215 Y37.8572
G01 X6.0455 Y37.8658
G01 X6.0703 Y37.8720
G01 X6.0955 Y37.8758
G01 X6.1210 Y37.8770
G01 X6.1465 Y37.8758
G01 X6.1717 Y37.8720
G01 X6.1965 Y37.8658
G01 X6.2205 Y37.8572
G01 X6.2436 Y37.8463
G01 X6.2655 Y37.8332
G01 X6.2860 Y37.8180
G01 X6.3049 Y37.8009
G01 X6.3220 Y37.7820
G01 X6.3372 Y37.7615
G01 X6.3503 Y37.7396
G01 X6.3612 Y37.7165
G01 X6.3698 Y37.6925
G01 X6.3760 Y37.6677
G01 X6.3798 Y37.6425
G01 X6.3810 Y37.6170
G00 Z2.0000
G00 X6.3810 Y42.6970
G01 F60.00
G01 Z-0.6000
G01 F120.00
G01 X6.3798 Y42.6715
G01 X6.3760 Y42.6463
G01 X6.3698 Y42.6215
G01 X6.3612 Y42.5975
G01 X6.3503 Y42.5744
G01 X6.3372 Y42.5526
G01 X6.3220 Y42.5321
G01 X6.3049 Y42.5132
G01 X6.2860 Y42.4960
G01 X6.2655 Y42.4808
G01 X6.2436 Y42.4677
G01 X6.2205 Y42.4568
G01 X6.1965 Y42.4482
G01 X6.1717 Y42.4420
G01 X6.1465 Y42.4383
G01 X6.1210 Y42.4370
G01 X6.0955 Y42.4383
G01 X6.0703 Y42.4420
G01 X6.0455 Y42.4482
G01 X6.0215 Y42.4568
G01 X5.9984 Y42.4677
G01 X5.9766 Y42.4808
G01 X5.9561 Y42.4960
G01 X5.9372 Y42.5132
G01 X5.9200 Y42.5321
G01 X5.9048 Y42.5526
G01 X5.8917 Y42.5744
G01 X5.8808 Y42.5975
G01 X5.8722 Y42.6215
G01 X5.8660 Y42.6463
G01 X5.8623 Y42.6715
G01 X5.8610 Y42.6970
G01 X5.8623 Y42.7225
G01 X5.8660 Y42.7477
G01 X5.8722 Y42.7725
G01 X5.8808 Y42.7965
G01 X5.8917 Y42.8196
G01 X5.9048 Y42.8415
G01 X5.9200 Y42.8620
G01 X5.9372 Y42.8809
G01 X5.9561 Y42.8980
G01 X5.9766 Y42.9132
G01 X5.9984 Y42.9263
G01 X6.0215 Y42.9372
G01 X6.0455 Y42.9458
G01 X6.0703 Y42.9520
G01 X6.0955 Y42.9558
G01 X6.1210 Y42.9570
G01 X6.1465 Y42.9558
G01 X6.1717 Y42.9520
G01 X6.1965 Y42.9458
G01 X6.2205 Y42.9372
G01 X6.2436 Y42.9263
G01 X6.2655 Y42.9132
G01 X6.2860 Y42.8980
G01 X6.3049 Y42.8809
G01 X6.3220 Y42.8620
G01 X6.3372 Y42.8415
G01 X6.3503 Y42.8196
G01 X6.3612 Y42.7965
G01 X6.3698 Y42.7725
G01 X6.3760 Y42.7477
G01 X6.3798 Y42.7225
G01 X6.3810 Y42.6970
G00 X6.3810 Y42.6970
G01 F60.00
G01 Z-1.2000
G01 F120.00
G01 X6.3798 Y42.6715
G01 X6.3760 Y42.6463
G01 X6.3698 Y42.6215
G01 X6.3612 Y42.5975
G01 X6.3503 Y42.5744
G01 X6.3372 Y42.5526
G01 X6.3220 Y42.5321
G01 X6.3049 Y42.5132
G01 X6.2860 Y42.4960
G01 X6.2655 Y42.4808
G01 X6.2436 Y42.4677
G01 X6.2205 Y42.4568
G01 X6.1965 Y42.4482
G01 X6.1717 Y42.4420
G01 X6.1465 Y42.4383
G01 X6.1210 Y42.4370
G01 X6.0955 Y42.4383
G01 X6.0703 Y42.4420
G01 X6.0455 Y42.4482
G01 X6.0215 Y42.4568
G01 X5.9984 Y42.4677
G01 X5.9766 Y42.4808
G01 X5.9561 Y42.4960
G01 X5.9372 Y42.5132
G01 X5.9200 Y42.5321
G01 X5.9048 Y42.5526
G01 X5.8917 Y42.5744
G01 X5.8808 Y42.5975
G01 X5.8722 Y42.6215
G01 X5.8660 Y42.6463
G01 X5.8623 Y42.6715
G01 X5.8610 Y42.6970
G01 X5.8623 Y42.7225
G01 X5.8660 Y42.7477
G01 X5.8722 Y42.7725
G01 X5.8808 Y42.7965
G01 X5.8917 Y42.8196
G01 X5.9048 Y42.8415
G01 X5.9200 Y42.8620
G01 X5.9372 Y42.8809
G01 X5.9561 Y42.8980
G01 X5.9766 Y42.9132
G01 X5.9984 Y42.9263
G01 X6.0215 Y42.9372
G01 X6.0455 Y42.9458
G01 X6.0703 Y42.9520
G01 X6.0955 Y42.9558
G01 X6.1210 Y42.9570
G01 X6.1465 Y42.9558
G01 X6.1717 Y42.9520
G01 X6.1965 Y42.9458
G01 X6.2205 Y42.9372
G01 X6.2436 Y42.9263
G01 X6.2655 Y42.9132
G01 X6.2860 Y42.8980
G01 X6.3049 Y42.8809
G01 X6.3220 Y42.8620
G01 X6.3372 Y42.8415
G01 X6.3503 Y42.8196
G01 X6.3612 Y42.7965
G01 X6.3698 Y42.7725
G01 X6.3760 Y42.7477
G01 X6.3798 Y42.7225
G01 X6.3810 Y42.6970
G00 X6.3810 Y42.6970
G01 F60.00
G01 Z-1.8000
G01 F120.00
G01 X6.3798 Y42.6715
G01 X6.3760 Y42.6463
G01 X6.3698 Y42.6215
G01 X6.3612 Y42.5975
G01 X6.3503 Y42.5744
G01 X6.3372 Y42.5526
G01 X6.3220 Y42.5321
G01 X6.3049 Y42.5132
G01 X6.2860 Y42.4960
G01 X6.2655 Y42.4808
G01 X6.2436 Y42.4677
G01 X6.2205 Y42.4568
G01 X6.1965 Y42.4482
G01 X6.1717 Y42.4420
G01 X6.1465 Y42.4383
G01 X6.1210 Y42.4370
G01 X6.0955 Y42.4383
G01 X6.0703 Y42.4420
G01 X6.0455 Y42.4482
G01 X6.0215 Y42.4568
G01 X5.9984 Y42.4677
G01 X5.9766 Y42.4808
G01 X5.9561 Y42.4960
G01 X5.9372 Y42.5132
G01 X5.9200 Y42.5321
G01 X5.9048 Y42.5526
G01 X5.8917 Y42.5744
G01 X5.8808 Y42.5975
G01 X5.8722 Y42.6215
G01 X5.8660 Y42.6463
G01 X5.8623 Y42.6715
G01 X5.8610 Y42.6970
G01 X5.8623 Y42.7225
G01 X5.8660 Y42.7477
G01 X5.8722 Y42.7725
G01 X5.8808 Y42.7965
G01 X5.8917 Y42.8196
G01 X5.9048 Y42.8415
G01 X5.9200 Y42.8620
G01 X5.9372 Y42.8809
G01 X5.9561 Y42.8980
G01 X5.9766 Y42.9132
G01 X5.9984 Y42.9263
G01 X6.0215 Y42.9372
G01 X6.0455 Y42.9458
G01 X6.0703 Y42.9520
G01 X6.0955 Y42.9558
G01 X6.1210 Y42.9570
G01 X6.1465 Y42.9558
G01 X6.1717 Y42.9520
G01 X6.1965 Y42.9458
G01 X6.2205 Y42.9372
G01 X6.2436 Y42.9263
G01 X6.2655 Y42.9132
G01 X6.2860 Y42.8980
G01 X6.3049 Y42.8809
G01 X6.3220 Y42.8620
G01 X6.3372 Y42.8415
G01 X6.3503 Y42.8196
G01 X6.3612 Y42.7965
G01 X6.3698 Y42.7725
G01 X6.3760 Y42.7477
G01 X6.3798 Y42.7225
G01 X6.3810 Y42.6970
G00 Z2.0000
G00 X61.5430 Y11.7090
G01 F60.00
G01 Z-0.6000
G01 F120.00
G01 X61.5421 Y11.6993
G01 X61.5392 Y11.6899
G01 X61.5346 Y11.6812
G01 X61.5284 Y11.6737
G01 X61.5208 Y11.6674
G01 X61.5121 Y11.6628
G01 X61.5028 Y11.6600
G01 X61.4930 Y11.6590
G01 X61.4833 Y11.6600
G01 X61.4739 Y11.6628
G01 X61.4652 Y11.6674
G01 X61.4577 Y11.6737
G01 X61.4514 Y11.6812
G01 X61.4468 Y11.6899
G01 X61.4440 Y11.6993
G01 X61.4430 Y11.7090
G01 X61.4440 Y11.7188
G01 X61.4468 Y11.7281
G01 X61.4514 Y11.7368
G01 X61.4577 Y11.7444
G01 X61.4652 Y11.7506
G01 X61.4739 Y11.7552
G01 X61.4833 Y11.7581
G01 X61.4930 Y11.7590
G01 X61.5028 Y11.7581
G01 X61.5121 Y11.7552
G01 X61.5208 Y11.7506
G01 X61.5284 Y11.7444
G01 X61.5346 Y11.7368
G01 X61.5392 Y11.7281
G01 X61.5421 Y11.7188
G01 X61.5430 Y11.7090
G00 X61.5430 Y11.7090
G01 F60.00
G01 Z-1.2000
G01 F120.00
G01 X61.5421 Y11.6993
G01 X61.5392 Y11.6899
G01 X61.5346 Y11.6812
G01 X61.5284 Y11.6737
G01 X61.5208 Y11.6674
G01 X61.5121 Y11.6628
G01 X61.5028 Y11.6600
G01 X61.4930 Y11.6590
G01 X61.4833 Y11.6600
G01 X61.4739 Y11.6628
G01 X61.4652 Y11.6674
G01 X61.4577 Y11.6737
G01 X61.4514 Y11.6812
G01 X61.4468 Y11.6899
G01 X61.4440 Y11.6993
G01 X61.4430 Y11.7090
G01 X61.4440 Y11.7188
G01 X61.4468 Y11.7281
G01 X61.4514 Y11.7368
G01 X61.4577 Y11.7444
G01 X61.4652 Y11.7506
G01 X61.4739 Y11.7552
G01 X61.4833 Y11.7581
G01 X61.4930 Y11.7590
G01 X61.5028 Y11.7581
G01 X61.5121 Y11.7552
G01 X61.5208 Y11.7506
G01 X61.5284 Y11.7444
G01 X61.5346 Y11.7368
G01 X61.5392 Y11.7281
G01 X61.5421 Y11.7188
G01 X61.5430 Y11.7090
G00 X61.5430 Y11.7090
G01 F60.00
G01 Z-1.8000
G01 F120.00
G01 X61.5421 Y11.6993
G01 X61.5392 Y11.6899
G01 X61.5346 Y11.6812
G01 X61.5284 Y11.6737
G01 X61.5208 Y11.6674
G01 X61.5121 Y11.6628
G01 X61.5028 Y11.6600
G01 X61.4930 Y11.6590
G01 X61.4833 Y11.6600
G01 X61.4739 Y11.6628
G01 X61.4652 Y11.6674
G01 X61.4577 Y11.6737
G01 X61.4514 Y11.6812
G01 X61.4468 Y11.6899
G01 X61.4440 Y11.6993
G01 X61.4430 Y11.7090
G01 X61.4440 Y11.7188
G01 X61.4468 Y11.7281
G01 X61.4514 Y11.7368
G01 X61.4577 Y11.7444
G01 X61.4652 Y11.7506
G01 X61.4739 Y11.7552
G01 X61.4833 Y11.7581
G01 X61.4930 Y11.7590
G01 X61.5028 Y11.7581
G01 X61.5121 Y11.7552
G01 X61.5208 Y11.7506
G01 X61.5284 Y11.7444
G01 X61.5346 Y11.7368
G01 X61.5392 Y11.7281
G01 X61.5421 Y11.7188
G01 X61.5430 Y11.7090
G00 Z2.0000
G00 X64.9430 Y11.7090
G01 F60.00
G01 Z-0.6000
G01 F120.00
G01 X64.9421 Y11.6993
G01 X64.9392 Y11.6899
G01 X64.9346 Y11.6812
G01 X64.9284 Y11.6737
G01 X64.9208 Y11.6674
G01 X64.9121 Y11.6628
G01 X64.9028 Y11.6600
G01 X64.8930 Y11.6590
G01 X64.8833 Y11.6600
G01 X64.8739 Y11.6628
G01 X64.8652 Y11.6674
G01 X64.8577 Y11.6737
G01 X64.8514 Y11.6812
G01 X64.8468 Y11.6899
G01 X64.8440 Y11.6993
G01 X64.8430 Y11.7090
G01 X64.8440 Y11.7188
G01 X64.8468 Y11.7281
G01 X64.8514 Y11.7368
G01 X64.8577 Y11.7444
G01 X64.8652 Y11.7506
G01 X64.8739 Y11.7552
G01 X64.8833 Y11.7581
G01 X64.8930 Y11.7590
G01 X64.9028 Y11.7581
G01 X64.9121 Y11.7552
G01 X64.9208 Y11.7506
G01 X64.9284 Y11.7444
G01 X64.9346 Y11.7368
G01 X64.9392 Y11.7281
G01 X64.9421 Y11.7188
G01 X64.9430 Y11.7090
G00 X64.9430 Y11.7090
G01 F60.00
G01 Z-1.2000
G01 F120.00
G01 X64.9421 Y11.6993
G01 X64.9392 Y11.6899
G01 X64.9346 Y11.6812
G01 X64.9284 Y11.6737
G01 X64.9208 Y11.6674
G01 X64.9121 Y11.6628
G01 X64.9028 Y11.6600
G01 X64.8930 Y11.6590
G01 X64.8833 Y11.6600
G01 X64.8739 Y11.6628
G01 X64.8652 Y11.6674
G01 X64.8577 Y11.6737
G01 X64.8514 Y11.6812
G01 X64.8468 Y11.6899
G01 X64.8440 Y11.6993
G01 X64.8430 Y11.7090
G01 X64.8440 Y11.7188
G01 X64.8468 Y11.7281
G01 X64.8514 Y11.7368
G01 X64.8577 Y11.7444
G01 X64.8652 Y11.7506
G01 X64.8739 Y11.7552
G01 X64.8833 Y11.7581
G01 X64.8930 Y11.7590
G01 X64.9028 Y11.7581
G01 X64.9121 Y11.7552
G01 X64.9208 Y11.7506
G01 X64.9284 Y11.7444
G01 X64.9346 Y11.7368
G01 X64.9392 Y11.7281
G01 X64.9421 Y11.7188
G01 X64.9430 Y11.7090
G00 X64.9430 Y11.7090
G01 F60.00
G01 Z-1.8000
G01 F120.00
G01 X64.9421 Y11.6993
G01 X64.9392 Y11.6899
G01 X64.9346 Y11.6812
G01 X64.9284 Y11.6737
G01 X64.9208 Y11.6674
G01 X64.9121 Y11.6628
G01 X64.9028 Y11.6600
G01 X64.8930 Y11.6590
G01 X64.8833 Y11.6600
G01 X64.8739 Y11.6628
G01 X64.8652 Y11.6674
G01 X64.8577 Y11.6737
G01 X64.8514 Y11.6812
G01 X64.8468 Y11.6899
G01 X64.8440 Y11.6993
G01 X64.8430 Y11.7090
G01 X64.8440 Y11.7188
G01 X64.8468 Y11.7281
G01 X64.8514 Y11.7368
G01 X64.8577 Y11.7444
G01 X64.8652 Y11.7506
G01 X64.8739 Y11.7552
G01 X64.8833 Y11.7581
G01 X64.8930 Y11.7590
G01 X64.9028 Y11.7581
G01 X64.9121 Y11.7552
G01 X64.9208 Y11.7506
G01 X64.9284 Y11.7444
G01 X64.9346 Y11.7368
G01 X64.9392 Y11.7281
G01 X64.9421 Y11.7188
G01 X64.9430 Y11.7090
G00 Z2.0000
G00 X68.3430 Y11.7090
G01 F60.00
G01 Z-0.6000
G01 F120.00
G01 X68.3421 Y11.6993
G01 X68.3392 Y11.6899
G01 X68.3346 Y11.6812
G01 X68.3284 Y11.6737
G01 X68.3208 Y11.6674
G01 X68.3121 Y11.6628
G01 X68.3028 Y11.6600
G01 X68.2930 Y11.6590
G01 X68.2833 Y11.6600
G01 X68.2739 Y11.6628
G01 X68.2652 Y11.6674
G01 X68.2577 Y11.6737
G01 X68.2514 Y11.6812
G01 X68.2468 Y11.6899
G01 X68.2440 Y11.6993
G01 X68.2430 Y11.7090
G01 X68.2440 Y11.7188
G01 X68.2468 Y11.7281
G01 X68.2514 Y11.7368
G01 X68.2577 Y11.7444
G01 X68.2652 Y11.7506
G01 X68.2739 Y11.7552
G01 X68.2833 Y11.7581
G01 X68.2930 Y11.7590
G01 X68.3028 Y11.7581
G01 X68.3121 Y11.7552
G01 X68.3208 Y11.7506
G01 X68.3284 Y11.7444
G01 X68.3346 Y11.7368
G01 X68.3392 Y11.7281
G01 X68.3421 Y11.7188
G01 X68.3430 Y11.7090
G00 X68.3430 Y11.7090
G01 F60.00
G01 Z-1.2000
G01 F120.00
G01 X68.3421 Y11.6993
G01 X68.3392 Y11.6899
G01 X68.3346 Y11.6812
G01 X68.3284 Y11.6737
G01 X68.3208 Y11.6674
G01 X68.3121 Y11.6628
G01 X68.3028 Y11.6600
G01 X68.2930 Y11.6590
G01 X68.2833 Y11.6600
G01 X68.2739 Y11.6628
G01 X68.2652 Y11.6674
G01 X68.2577 Y11.6737
G01 X68.2514 Y11.6812
G01 X68.2468 Y11.6899
G01 X68.2440 Y11.6993
G01 X68.2430 Y11.7090
G01 X68.2440 Y11.7188
G01 X68.2468 Y11.7281
G01 X68.2514 Y11.7368
G01 X68.2577 Y11.7444
G01 X68.2652 Y11.7506
G01 X68.2739 Y11.7552
G01 X68.2833 Y11.7581
G01 X68.2930 Y11.7590
G01 X68.3028 Y11.7581
G01 X68.3121 Y11.7552
G01 X68.3208 Y11.7506
G01 X68.3284 Y11.7444
G01 X68.3346 Y11.7368
G01 X68.3392 Y11.7281
G01 X68.3421 Y11.7188
G01 X68.3430 Y11.7090
G00 X68.3430 Y11.7090
G01 F60.00
G01 Z-1.8000
G01 F120.00
G01 X68.3421 Y11.6993
G01 X68.3392 Y11.6899
G01 X68.3346 Y11.6812
G01 X68.3284 Y11.6737
G01 X68.3208 Y11.6674
G01 X68.3121 Y11.6628
G01 X68.3028 Y11.6600
G01 X68.2930 Y11.6590
G01 X68.2833 Y11.6600
G01 X68.2739 Y11.6628
G01 X68.2652 Y11.6674
G01 X68.2577 Y11.6737
G01 X68.2514 Y11.6812
G01 X68.2468 Y11.6899
G01 X68.2440 Y11.6993
G01 X68.2430 Y11.7090
G01 X68.2440 Y11.7188
G01 X68.2468 Y11.7281
G01 X68.2514 Y11.7368
G01 X68.2577 Y11.7444
G01 X68.2652 Y11.7506
G01 X68.2739 Y11.7552
G01 X68.2833 Y11.7581
G01 X68.2930 Y11.7590
G01 X68.3028 Y11.7581
G01 X68.3121 Y11.7552
G01 X68.3208 Y11.7506
G01 X68.3284 Y11.7444
G01 X68.3346 Y11.7368
G01 X68.3392 Y11.7281
G01 X68.3421 Y11.7188
G01 X68.3430 Y11.7090
G00 Z2.0000
G00 X66.6430 Y8.0090
G01 F60.00
G01 Z-0.6000
G01 F120.00
G01 X66.6421 Y7.9993
G01 X66.6392 Y7.9899
G01 X66.6346 Y7.9812
G01 X66.6284 Y7.9737
G01 X66.6208 Y7.9674
G01 X66.6121 Y7.9628
G01 X66.6028 Y7.9600
G01 X66.5930 Y7.9590
G01 X66.5833 Y7.9600
G01 X66.5739 Y7.9628
G01 X66.5652 Y7.9674
G01 X66.5577 Y7.9737
G01 X66.5514 Y7.9812
G01 X66.5468 Y7.9899
G01 X66.5440 Y7.9993
G01 X66.5430 Y8.0090
G01 X66.5440 Y8.0188
G01 X66.5468 Y8.0281
G01 X66.5514 Y8.0368
G01 X66.5577 Y8.0444
G01 X66.5652 Y8.0506
G01 X66.5739 Y8.0552
G01 X66.5833 Y8.0581
G01 X66.5930 Y8.0590
G01 X66.6028 Y8.0581
G01 X66.6121 Y8.0552
G01 X66.6208 Y8.0506
G01 X66.6284 Y8.0444
G01 X66.6346 Y8.0368
G01 X66.6392 Y8.0281
G01 X66.6421 Y8.0188
G01 X66.6430 Y8.0090
G00 X66.6430 Y8.0090
G01 F60.00
G01 Z-1.2000
G01 F120.00
G01 X66.6421 Y7.9993
G01 X66.6392 Y7.9899
G01 X66.6346 Y7.9812
G01 X66.6284 Y7.9737
G01 X66.6208 Y7.9674
G01 X66.6121 Y7.9628
G01 X66.6028 Y7.9600
G01 X66.5930 Y7.9590
G01 X66.5833 Y7.9600
G01 X66.5739 Y7.9628
G01 X66.5652 Y7.9674
G01 X66.5577 Y7.9737
G01 X66.5514 Y7.9812
G01 X66.5468 Y7.9899
G01 X66.5440 Y7.9993
G01 X66.5430 Y8.0090
G01 X66.5440 Y8.0188
G01 X66.5468 Y8.0281
G01 X66.5514 Y8.0368
G01 X66.5577 Y8.0444
G01 X66.5652 Y8.0506
G01 X66.5739 Y8.0552
G01 X66.5833 Y8.0581
G01 X66.5930 Y8.0590
G01 X66.6028 Y8.0581
G01 X66.6121 Y8.0552
G01 X66.6208 Y8.0506
G01 X66.6284 Y8.0444
G01 X66.6346 Y8.0368
G01 X66.6392 Y8.0281
G01 X66.6421 Y8.0188
G01 X66.6430 Y8.0090
G00 X66.6430 Y8.0090
G01 F60.00
G01 Z-1.8000
G01 F120.00
G01 X66.6421 Y7.9993
G01 X66.6392 Y7.9899
G01 X66.6346 Y7.9812
G01 X66.6284 Y7.9737
G01 X66.6208 Y7.9674
G01 X66.6121 Y7.9628
G01 X66.6028 Y7.9600
G01 X66.5930 Y7.9590
G01 X66.5833 Y7.9600
G01 X66.5739 Y7.9628
G01 X66.5652 Y7.9674
G01 X66.5577 Y7.9737
G01 X66.5514 Y7.9812
G01 X66.5468 Y7.9899
G01 X66.5440 Y7.9993
G01 X66.5430 Y8.0090
G01 X66.5440 Y8.0188
G01 X66.5468 Y8.0281
G01 X66.5514 Y8.0368
G01 X66.5577 Y8.0444
G01 X66.5652 Y8.0506
G01 X66.5739 Y8.0552
G01 X66.5833 Y8.0581
G01 X66.5930 Y8.0590
G01 X66.6028 Y8.0581
G01 X66.6121 Y8.0552
G01 X66.6208 Y8.0506
G01 X66.6284 Y8.0444
G01 X66.6346 Y8.0368
G01 X66.6392 Y8.0281
G01 X66.6421 Y8.0188
G01 X66.6430 Y8.0090
G00 Z2.0000
G00 X63.2430 Y8.0090
G01 F60.00
G01 Z-0.6000
G01 F120.00
G01 X63.2421 Y7.9993
G01 X63.2392 Y7.9899
G01 X63.2346 Y7.9812
G01 X63.2284 Y7.9737
G01 X63.2208 Y7.9674
G01 X63.2121 Y7.9628
G01 X63.2028 Y7.9600
G01 X63.1930 Y7.9590
G01 X63.1833 Y7.9600
G01 X63.1739 Y7.9628
G01 X63.1652 Y7.9674
G01 X63.1577 Y7.9737
G01 X63.1514 Y7.9812
G01 X63.1468 Y7.9899
G01 X63.1440 Y7.9993
G01 X63.1430 Y8.0090
G01 X63.1440 Y8.0188
G01 X63.1468 Y8.0281
G01 X63.1514 Y8.0368
G01 X63.1577 Y8.0444
G01 X63.1652 Y8.0506
G01 X63.1739 Y8.0552
G01 X63.1833 Y8.0581
G01 X63.1930 Y8.0590
G01 X63.2028 Y8.0581
G01 X63.2121 Y8.0552
G01 X63.2208 Y8.0506
G01 X63.2284 Y8.0444
G01 X63.2346 Y8.0368
G01 X63.2392 Y8.0281
G01 X63.2421 Y8.0188
G01 X63.2430 Y8.0090
G00 X63.2430 Y8.0090
G01 F60.00
G01 Z-1.2000
G01 F120.00
G01 X63.2421 Y7.9993
G01 X63.2392 Y7.9899
G01 X63.2346 Y7.9812
G01 X63.2284 Y7.9737
G01 X63.2208 Y7.9674
G01 X63.2121 Y7.9628
G01 X63.2028 Y7.9600
G01 X63.1930 Y7.9590
G01 X63.1833 Y7.9600
G01 X63.1739 Y7.9628
G01 X63.1652 Y7.9674
G01 X63.1577 Y7.9737
G01 X63.1514 Y7.9812
G01 X63.1468 Y7.9899
G01 X63.1440 Y7.9993
G01 X63.1430 Y8.0090
G01 X63.1440 Y8.0188
G01 X63.1468 Y8.0281
G01 X63.1514 Y8.0368
G01 X63.1577 Y8.0444
G01 X63.1652 Y8.0506
G01 X63.1739 Y8.0552
G01 X63.1833 Y8.0581
G01 X63.1930 Y8.0590
G01 X63.2028 Y8.0581
G01 X63.2121 Y8.0552
G01 X63.2208 Y8.0506
G01 X63.2284 Y8.0444
G01 X63.2346 Y8.0368
G01 X63.2392 Y8.0281
G01 X63.2421 Y8.0188
G01 X63.2430 Y8.0090
G00 X63.2430 Y8.0090
G01 F60.00
G01 Z-1.8000
G01 F120.00
G01 X63.2421 Y7.9993
G01 X63.2392 Y7.9899
G01 X63.2346 Y7.9812
G01 X63.2284 Y7.9737
G01 X63.2208 Y7.9674
G01 X63.2121 Y7.9628
G01 X63.2028 Y7.9600
G01 X63.1930 Y7.9590
G01 X63.1833 Y7.9600
G01 X63.1739 Y7.9628
G01 X63.1652 Y7.9674
G01 X63.1577 Y7.9737
G01 X63.1514 Y7.9812
G01 X63.1468 Y7.9899
G01 X63.1440 Y7.9993
G01 X63.1430 Y8.0090
G01 X63.1440 Y8.0188
G01 X63.1468 Y8.0281
G01 X63.1514 Y8.0368
G01 X63.1577 Y8.0444
G01 X63.1652 Y8.0506
G01 X63.1739 Y8.0552
G01 X63.1833 Y8.0581
G01 X63.1930 Y8.0590
G01 X63.2028 Y8.0581
G01 X63.2121 Y8.0552
G01 X63.2208 Y8.0506
G01 X63.2284 Y8.0444
G01 X63.2346 Y8.0368
G01 X63.2392 Y8.0281
G01 X63.2421 Y8.0188
G01 X63.2430 Y8.0090
G00 Z2.0000
G00 X72.2110 Y21.3610
G01 F60.00
G01 Z-0.6000
G01 F120.00
G01 X72.2101 Y21.3513
G01 X72.2072 Y21.3419
G01 X72.2026 Y21.3332
G01 X72.1964 Y21.3257
G01 X72.1888 Y21.3194
G01 X72.1801 Y21.3148
G01 X72.1708 Y21.3120
G01 X72.1610 Y21.3110
G01 X72.1513 Y21.3120
G01 X72.1419 Y21.3148
G01 X72.1332 Y21.3194
G01 X72.1257 Y21.3257
G01 X72.1194 Y21.3332
G01 X72.1148 Y21.3419
G01 X72.1120 Y21.3513
G01 X72.1110 Y21.3610
G01 X72.1120 Y21.3708
G01 X72.1148 Y21.3801
G01 X72.1194 Y21.3888
G01 X72.1257 Y21.3964
G01 X72.1332 Y21.4026
G01 X72.1419 Y21.4072
G01 X72.1513 Y21.4101
G01 X72.1610 Y21.4110
G01 X72.1708 Y21.4101
G01 X72.1801 Y21.4072
G01 X72.1888 Y21.4026
G01 X72.1964 Y21.3964
G01 X72.2026 Y21.3888
G01 X72.2072 Y21.3801
G01 X72.2101 Y21.3708
G01 X72.2110 Y21.3610
G00 X72.2110 Y21.3610
G01 F60.00
G01 Z-1.2000
G01 F120.00
G01 X72.2101 Y21.3513
G01 X72.2072 Y21.3419
G01 X72.2026 Y21.3332
G01 X72.1964 Y21.3257
G01 X72.1888 Y21.3194
G01 X72.1801 Y21.3148
G01 X72.1708 Y21.3120
G01 X72.1610 Y21.3110
G01 X72.1513 Y21.3120
G01 X72.1419 Y21.3148
G01 X72.1332 Y21.3194
G01 X72.1257 Y21.3257
G01 X72.1194 Y21.3332
G01 X72.1148 Y21.3419
G01 X72.1120 Y21.3513
G01 X72.1110 Y21.3610
G01 X72.1120 Y21.3708
G01 X72.1148 Y21.3801
G01 X72.1194 Y21.3888
G01 X72.1257 Y21.3964
G01 X72.1332 Y21.4026
G01 X72.1419 Y21.4072
G01 X72.1513 Y21.4101
G01 X72.1610 Y21.4110
G01 X72.1708 Y21.4101
G01 X72.1801 Y21.4072
G01 X72.1888 Y21.4026
G01 X72.1964 Y21.3964
G01 X72.2026 Y21.3888
G01 X72.2072 Y21.3801
G01 X72.2101 Y21.3708
G01 X72.2110 Y21.3610
G00 X72.2110 Y21.3610
G01 F60.00
G01 Z-1.8000
G01 F120.00
G01 X72.2101 Y21.3513
G01 X72.2072 Y21.3419
G01 X72.2026 Y21.3332
G01 X72.1964 Y21.3257
G01 X72.1888 Y21.3194
G01 X72.1801 Y21.3148
G01 X72.1708 Y21.3120
G01 X72.1610 Y21.3110
G01 X72.1513 Y21.3120
G01 X72.1419 Y21.3148
G01 X72.1332 Y21.3194
G01 X72.1257 Y21.3257
G01 X72.1194 Y21.3332
G01 X72.1148 Y21.3419
G01 X72.1120 Y21.3513
G01 X72.1110 Y21.3610
G01 X72.1120 Y21.3708
G01 X72.1148 Y21.3801
G01 X72.1194 Y21.3888
G01 X72.1257 Y21.3964
G01 X72.1332 Y21.4026
G01 X72.1419 Y21.4072
G01 X72.1513 Y21.4101
G01 X72.1610 Y21.4110
G01 X72.1708 Y21.4101
G01 X72.1801 Y21.4072
G01 X72.1888 Y21.4026
G01 X72.1964 Y21.3964
G01 X72.2026 Y21.3888
G01 X72.2072 Y21.3801
G01 X72.2101 Y21.3708
G01 X72.2110 Y21.3610
G00 Z2.0000
G00 X72.2110 Y25.9330
G01 F60.00
G01 Z-0.6000
G01 F120.00
G01 X72.2101 Y25.9233
G01 X72.2072 Y25.9139
G01 X72.2026 Y25.9052
G01 X72.1964 Y25.8977
G01 X72.1888 Y25.8914
G01 X72.1801 Y25.8868
G01 X72.1708 Y25.8840
G01 X72.1610 Y25.8830
G01 X72.1513 Y25.8840
G01 X72.1419 Y25.8868
G01 X72.1332 Y25.8914
G01 X72.1257 Y25.8977
G01 X72.1194 Y25.9052
G01 X72.1148 Y25.9139
G01 X72.1120 Y25.9233
G01 X72.1110 Y25.9330
G01 X72.1120 Y25.9428
G01 X72.1148 Y25.9521
G01 X72.1194 Y25.9608
G01 X72.1257 Y25.9684
G01 X72.1332 Y25.9746
G01 X72.1419 Y25.9792
G01 X72.1513 Y25.9821
G01 X72.1610 Y25.9830
G01 X72.1708 Y25.9821
G01 X72.1801 Y25.9792
G01 X72.1888 Y25.9746
G01 X72.1964 Y25.9684
G01 X72.2026 Y25.9608
G01 X72.2072 Y25.9521
G01 X72.2101 Y25.9428
G01 X72.2110 Y25.9330
G00 X72.2110 Y25.9330
G01 F60.00
G01 Z-1.2000
G01 F120.00
G01 X72.2101 Y25.9233
G01 X72.2072 Y25.9139
G01 X72.2026 Y25.9052
G01 X72.1964 Y25.8977
G01 X72.1888 Y25.8914
G01 X72.1801 Y25.8868
G01 X72.1708 Y25.8840
G01 X72.1610 Y25.8830
G01 X72.1513 Y25.8840
G01 X72.1419 Y25.8868
G01 X72.1332 Y25.8914
G01 X72.1257 Y25.8977
G01 X72.1194 Y25.9052
G01 X72.1148 Y25.9139
G01 X72.1120 Y25.9233
G01 X72.1110 Y25.9330
G01 X72.1120 Y25.9428
G01 X72.1148 Y25.9521
G01 X72.1194 Y25.9608
G01 X72.1257 Y25.9684
G01 X72.1332 Y25.9746
G01 X72.1419 Y25.9792
G01 X72.1513 Y25.9821
G01 X72.1610 Y25.9830
G01 X72.1708 Y25.9821
G01 X72.1801 Y25.9792
G01 X72.1888 Y25.9746
G01 X72.1964 Y25.9684
G01 X72.2026 Y25.9608
G01 X72.2072 Y25.9521
G01 X72.2101 Y25.9428
G01 X72.2110 Y25.9330
G00 X72.2110 Y25.9330
G01 F60.00
G01 Z-1.8000
G01 F120.00
G01 X72.2101 Y25.9233
G01 X72.2072 Y25.9139
G01 X72.2026 Y25.9052
G01 X72.1964 Y25.8977
G01 X72.1888 Y25.8914
G01 X72.1801 Y25.8868
G01 X72.1708 Y25.8840
G01 X72.1610 Y25.8830
G01 X72.1513 Y25.8840
G01 X72.1419 Y25.8868
G01 X72.1332 Y25.8914
G01 X72.1257 Y25.8977
G01 X72.1194 Y25.9052
G01 X72.1148 Y25.9139
G01 X72.1120 Y25.9233
G01 X72.1110 Y25.9330
G01 X72.1120 Y25.9428
G01 X72.1148 Y25.9521
G01 X72.1194 Y25.9608
G01 X72.1257 Y25.9684
G01 X72.1332 Y25.9746
G01 X72.1419 Y25.9792
G01 X72.1513 Y25.9821
G01 X72.1610 Y25.9830
G01 X72.1708 Y25.9821
G01 X72.1801 Y25.9792
G01 X72.1888 Y25.9746
G01 X72.1964 Y25.9684
G01 X72.2026 Y25.9608
G01 X72.2072 Y25.9521
G01 X72.2101 Y25.9428
G01 X72.2110 Y25.9330
G00 Z2.0000
G00 X82.3710 Y25.9330
G01 F60.00
G01 Z-0.6000
G01 F120.00
G01 X82.3701 Y25.9233
G01 X82.3672 Y25.9139
G01 X82.3626 Y25.9052
G01 X82.3564 Y25.8977
G01 X82.3488 Y25.8914
G01 X82.3401 Y25.8868
G01 X82.3308 Y25.8840
G01 X82.3210 Y25.8830
G01 X82.3113 Y25.8840
G01 X82.3019 Y25.8868
G01 X82.2932 Y25.8914
G01 X82.2857 Y25.8977
G01 X82.2794 Y25.9052
G01 X82.2748 Y25.9139
G01 X82.2720 Y25.9233
G01 X82.2710 Y25.9330
G01 X82.2720 Y25.9428
G01 X82.2748 Y25.9521
G01 X82.2794 Y25.9608
G01 X82.2857 Y25.9684
G01 X82.2932 Y25.9746
G01 X82.3019 Y25.9792
G01 X82.3113 Y25.9821
G01 X82.3210 Y25.9830
G01 X82.3308 Y25.9821
G01 X82.3401 Y25.9792
G01 X82.3488 Y25.9746
G01 X82.3564 Y25.9684
G01 X82.3626 Y25.9608
G01 X82.3672 Y25.9521
G01 X82.3701 Y25.9428
G01 X82.3710 Y25.9330
G00 X82.3710 Y25.9330
G01 F60.00
G01 Z-1.2000
G01 F120.00
G01 X82.3701 Y25.9233
G01 X82.3672 Y25.9139
G01 X82.3626 Y25.9052
G01 X82.3564 Y25.8977
G01 X82.3488 Y25.8914
G01 X82.3401 Y25.8868
G01 X82.3308 Y25.8840
G01 X82.3210 Y25.8830
G01 X82.3113 Y25.8840
G01 X82.3019 Y25.8868
G01 X82.2932 Y25.8914
G01 X82.2857 Y25.8977
G01 X82.2794 Y25.9052
G01 X82.2748 Y25.9139
G01 X82.2720 Y25.9233
G01 X82.2710 Y25.9330
G01 X82.2720 Y25.9428
G01 X82.2748 Y25.9521
G01 X82.2794 Y25.9608
G01 X82.2857 Y25.9684
G01 X82.2932 Y25.9746
G01 X82.3019 Y25.9792
G01 X82.3113 Y25.9821
G01 X82.3210 Y25.9830
G01 X82.3308 Y25.9821
G01 X82.3401 Y25.9792
G01 X82.3488 Y25.9746
G01 X82.3564 Y25.9684
G01 X82.3626 Y25.9608
G01 X82.3672 Y25.9521
G01 X82.3701 Y25.9428
G01 X82.3710 Y25.9330
G00 X82.3710 Y25.9330
G01 F60.00
G01 Z-1.8000
G01 F120.00
G01 X82.3701 Y25.9233
G01 X82.3672 Y25.9139
G01 X82.3626 Y25.9052
G01 X82.3564 Y25.8977
G01 X82.3488 Y25.8914
G01 X82.3401 Y25.8868
G01 X82.3308 Y25.8840
G01 X82.3210 Y25.8830
G01 X82.3113 Y25.8840
G01 X82.3019 Y25.8868
G01 X82.2932 Y25.8914
G01 X82.2857 Y25.8977
G01 X82.2794 Y25.9052
G01 X82.2748 Y25.9139
G01 X82.2720 Y25.9233
G01 X82.2710 Y25.9330
G01 X82.2720 Y25.9428
G01 X82.2748 Y25.9521
G01 X82.2794 Y25.9608
G01 X82.2857 Y25.9684
G01 X82.2932 Y25.9746
G01 X82.3019 Y25.9792
G01 X82.3113 Y25.9821
G01 X82.3210 Y25.9830
G01 X82.3308 Y25.9821
G01 X82.3401 Y25.9792
G01 X82.3488 Y25.9746
G01 X82.3564 Y25.9684
G01 X82.3626 Y25.9608
G01 X82.3672 Y25.9521
G01 X82.3701 Y25.9428
G01 X82.3710 Y25.9330
G00 Z2.0000
G00 X82.3710 Y21.3610
G01 F60.00
G01 Z-0.6000
G01 F120.00
G01 X82.3701 Y21.3513
G01 X82.3672 Y21.3419
G01 X82.3626 Y21.3332
G01 X82.3564 Y21.3257
G01 X82.3488 Y21.3194
G01 X82.3401 Y21.3148
G01 X82.3308 Y21.3120
G01 X82.3210 Y21.3110
G01 X82.3113 Y21.3120
G01 X82.3019 Y21.3148
G01 X82.2932 Y21.3194
G01 X82.2857 Y21.3257
G01 X82.2794 Y21.3332
G01 X82.2748 Y21.3419
G01 X82.2720 Y21.3513
G01 X82.2710 Y21.3610
G01 X82.2720 Y21.3708
G01 X82.2748 Y21.3801
G01 X82.2794 Y21.3888
G01 X82.2857 Y21.3964
G01 X82.2932 Y21.4026
G01 X82.3019 Y21.4072
G01 X82.3113 Y21.4101
G01 X82.3210 Y21.4110
G01 X82.3308 Y21.4101
G01 X82.3401 Y21.4072
G01 X82.3488 Y21.4026
G01 X82.3564 Y21.3964
G01 X82.3626 Y21.3888
G01 X82.3672 Y21.3801
G01 X82.3701 Y21.3708
G01 X82.3710 Y21.3610
G00 X82.3710 Y21.3610
G01 F60.00
G01 Z-1.2000
G01 F120.00
G01 X82.3701 Y21.3513
G01 X82.3672 Y21.3419
G01 X82.3626 Y21.3332
G01 X82.3564 Y21.3257
G01 X82.3488 Y21.3194
G01 X82.3401 Y21.3148
G01 X82.3308 Y21.3120
G01 X82.3210 Y21.3110
G01 X82.3113 Y21.3120
G01 X82.3019 Y21.3148
G01 X82.2932 Y21.3194
G01 X82.2857 Y21.3257
G01 X82.2794 Y21.3332
G01 X82.2748 Y21.3419
G01 X82.2720 Y21.3513
G01 X82.2710 Y21.3610
G01 X82.2720 Y21.3708
G01 X82.2748 Y21.3801
G01 X82.2794 Y21.3888
G01 X82.2857 Y21.3964
G01 X82.2932 Y21.4026
G01 X82.3019 Y21.4072
G01 X82.3113 Y21.4101
G01 X82.3210 Y21.4110
G01 X82.3308 Y21.4101
G01 X82.3401 Y21.4072
G01 X82.3488 Y21.4026
G01 X82.3564 Y21.3964
G01 X82.3626 Y21.3888
G01 X82.3672 Y21.3801
G01 X82.3701 Y21.3708
G01 X82.3710 Y21.3610
G00 X82.3710 Y21.3610
G01 F60.00
G01 Z-1.8000
G01 F120.00
G01 X82.3701 Y21.3513
G01 X82.3672 Y21.3419
G01 X82.3626 Y21.3332
G01 X82.3564 Y21.3257
G01 X82.3488 Y21.3194
G01 X82.3401 Y21.3148
G01 X82.3308 Y21.3120
G01 X82.3210 Y21.3110
G01 X82.3113 Y21.3120
G01 X82.3019 Y21.3148
G01 X82.2932 Y21.3194
G01 X82.2857 Y21.3257
G01 X82.2794 Y21.3332
G01 X82.2748 Y21.3419
G01 X82.2720 Y21.3513
G01 X82.2710 Y21.3610
G01 X82.2720 Y21.3708
G01 X82.2748 Y21.3801
G01 X82.2794 Y21.3888
G01 X82.2857 Y21.3964
G01 X82.2932 Y21.4026
G01 X82.3019 Y21.4072
G01 X82.3113 Y21.4101
G01 X82.3210 Y21.4110
G01 X82.3308 Y21.4101
G01 X82.3401 Y21.4072
G01 X82.3488 Y21.4026
G01 X82.3564 Y21.3964
G01 X82.3626 Y21.3888
G01 X82.3672 Y21.3801
G01 X82.3701 Y21.3708
G01 X82.3710 Y21.3610
G00 Z2.0000
G00 X86.9430 Y46.2110
G01 F60.00
G01 Z-0.6000
G01 F120.00
G01 X86.9421 Y46.2013
G01 X86.9392 Y46.1919
G01 X86.9346 Y46.1832
G01 X86.9284 Y46.1757
G01 X86.9208 Y46.1694
G01 X86.9121 Y46.1648
G01 X86.9028 Y46.1620
G01 X86.8930 Y46.1610
G01 X86.8833 Y46.1620
G01 X86.8739 Y46.1648
G01 X86.8652 Y46.1694
G01 X86.8577 Y46.1757
G01 X86.8514 Y46.1832
G01 X86.8468 Y46.1919
G01 X86.8440 Y46.2013
G01 X86.8430 Y46.2110
G01 X86.8440 Y46.2208
G01 X86.8468 Y46.2301
G01 X86.8514 Y46.2388
G01 X86.8577 Y46.2464
G01 X86.8652 Y46.2526
G01 X86.8739 Y46.2572
G01 X86.8833 Y46.2601
G01 X86.8930 Y46.2610
G01 X86.9028 Y46.2601
G01 X86.9121 Y46.2572
G01 X86.9208 Y46.2526
G01 X86.9284 Y46.2464
G01 X86.9346 Y46.2388
G01 X86.9392 Y46.2301
G01 X86.9421 Y46.2208
G01 X86.9430 Y46.2110
G00 X86.9430 Y46.2110
G01 F60.00
G01 Z-1.2000
G01 F120.00
G01 X86.9421 Y46.2013
G01 X86.9392 Y46.1919
G01 X86.9346 Y46.1832
G01 X86.9284 Y46.1757
G01 X86.9208 Y46.1694
G01 X86.9121 Y46.1648
G01 X86.9028 Y46.1620
G01 X86.8930 Y46.1610
G01 X86.8833 Y46.1620
G01 X86.8739 Y46.1648
G01 X86.8652 Y46.1694
G01 X86.8577 Y46.1757
G01 X86.8514 Y46.1832
G01 X86.8468 Y46.1919
G01 X86.8440 Y46.2013
G01 X86.8430 Y46.2110
G01 X86.8440 Y46.2208
G01 X86.8468 Y46.2301
G01 X86.8514 Y46.2388
G01 X86.8577 Y46.2464
G01 X86.8652 Y46.2526
G01 X86.8739 Y46.2572
G01 X86.8833 Y46.2601
G01 X86.8930 Y46.2610
G01 X86.9028 Y46.2601
G01 X86.9121 Y46.2572
G01 X86.9208 Y46.2526
G01 X86.9284 Y46.2464
G01 X86.9346 Y46.2388
G01 X86.9392 Y46.2301
G01 X86.9421 Y46.2208
G01 X86.9430 Y46.2110
G00 X86.9430 Y46.2110
G01 F60.00
G01 Z-1.8000
G01 F120.00
G01 X86.9421 Y46.2013
G01 X86.9392 Y46.1919
G01 X86.9346 Y46.1832
G01 X86.9284 Y46.1757
G01 X86.9208 Y46.1694
G01 X86.9121 Y46.1648
G01 X86.9028 Y46.1620
G01 X86.8930 Y46.1610
G01 X86.8833 Y46.1620
G01 X86.8739 Y46.1648
G01 X86.8652 Y46.1694
G01 X86.8577 Y46.1757
G01 X86.8514 Y46.1832
G01 X86.8468 Y46.1919
G01 X86.8440 Y46.2013
G01 X86.8430 Y46.2110
G01 X86.8440 Y46.2208
G01 X86.8468 Y46.2301
G01 X86.8514 Y46.2388
G01 X86.8577 Y46.2464
G01 X86.8652 Y46.2526
G01 X86.8739 Y46.2572
G01 X86.8833 Y46.2601
G01 X86.8930 Y46.2610
G01 X86.9028 Y46.2601
G01 X86.9121 Y46.2572
G01 X86.9208 Y46.2526
G01 X86.9284 Y46.2464
G01 X86.9346 Y46.2388
G01 X86.9392 Y46.2301
G01 X86.9421 Y46.2208
G01 X86.9430 Y46.2110
G00 Z2.0000
G00 X91.0070 Y46.2530
G01 F60.00
G01 Z-0.6000
G01 F120.00
G01 X91.0061 Y46.2433
G01 X91.0032 Y46.2339
G01 X90.9986 Y46.2252
G01 X90.9924 Y46.2177
G01 X90.9848 Y46.2114
G01 X90.9761 Y46.2068
G01 X90.9668 Y46.2040
G01 X90.9570 Y46.2030
G01 X90.9473 Y46.2040
G01 X90.9379 Y46.2068
G01 X90.9292 Y46.2114
G01 X90.9217 Y46.2177
G01 X90.9154 Y46.2252
G01 X90.9108 Y46.2339
G01 X90.9080 Y46.2433
G01 X90.9070 Y46.2530
G01 X90.9080 Y46.2628
G01 X90.9108 Y46.2721
G01 X90.9154 Y46.2808
G01 X90.9217 Y46.2884
G01 X90.9292 Y46.2946
G01 X90.9379 Y46.2992
G01 X90.9473 Y46.3021
G01 X90.9570 Y46.3030
G01 X90.9668 Y46.3021
G01 X90.9761 Y46.2992
G01 X90.9848 Y46.2946
G01 X90.9924 Y46.2884
G01 X90.9986 Y46.2808
G01 X91.0032 Y46.2721
G01 X91.0061 Y46.2628
G01 X91.0070 Y46.2530
G00 X91.0070 Y46.2530
G01 F60.00
G01 Z-1.2000
G01 F120.00
G01 X91.0061 Y46.2433
G01 X91.0032 Y46.2339
G01 X90.9986 Y46.2252
G01 X90.9924 Y46.2177
G01 X90.9848 Y46.2114
G01 X90.9761 Y46.2068
G01 X90.9668 Y46.2040
G01 X90.9570 Y46.2030
G01 X90.9473 Y46.2040
G01 X90.9379 Y46.2068
G01 X90.9292 Y46.2114
G01 X90.9217 Y46.2177
G01 X90.9154 Y46.2252
G01 X90.9108 Y46.2339
G01 X90.9080 Y46.2433
G01 X90.9070 Y46.2530
G01 X90.9080 Y46.2628
G01 X90.9108 Y46.2721
G01 X90.9154 Y46.2808
G01 X90.9217 Y46.2884
G01 X90.9292 Y46.2946
G01 X90.9379 Y46.2992
G01 X90.9473 Y46.3021
G01 X90.9570 Y46.3030
G01 X90.9668 Y46.3021
G01 X90.9761 Y46.2992
G01 X90.9848 Y46.2946
G01 X90.9924 Y46.2884
G01 X90.9986 Y46.2808
G01 X91.0032 Y46.2721
G01 X91.0061 Y46.2628
G01 X91.0070 Y46.2530
G00 X91.0070 Y46.2530
G01 F60.00
G01 Z-1.8000
G01 F120.00
G01 X91.0061 Y46.2433
G01 X91.0032 Y46.2339
G01 X90.9986 Y46.2252
G01 X90.9924 Y46.2177
G01 X90.9848 Y46.2114
G01 X90.9761 Y46.2068
G01 X90.9668 Y46.2040
G01 X90.9570 Y46.2030
G01 X90.9473 Y46.2040
G01 X90.9379 Y46.2068
G01 X90.9292 Y46.2114
G01 X90.9217 Y46.2177
G01 X90.9154 Y46.2252
G01 X90.9108 Y46.2339
G01 X90.9080 Y46.2433
G01 X90.9070 Y46.2530
G01 X90.9080 Y46.2628
G01 X90.9108 Y46.2721
G01 X90.9154 Y46.2808
G01 X90.9217 Y46.2884
G01 X90.9292 Y46.2946
G01 X90.9379 Y46.2992
G01 X90.9473 Y46.3021
G01 X90.9570 Y46.3030
G01 X90.9668 Y46.3021
G01 X90.9761 Y46.2992
G01 X90.9848 Y46.2946
G01 X90.9924 Y46.2884
G01 X90.9986 Y46.2808
G01 X91.0032 Y46.2721
G01 X91.0061 Y46.2628
G01 X91.0070 Y46.2530
G00 Z2.0000
G00 X91.0070 Y56.4130
G01 F60.00
G01 Z-0.6000
G01 F120.00
G01 X91.0061 Y56.4033
G01 X91.0032 Y56.3939
G01 X90.9986 Y56.3852
G01 X90.9924 Y56.3777
G01 X90.9848 Y56.3714
G01 X90.9761 Y56.3668
G01 X90.9668 Y56.3640
G01 X90.9570 Y56.3630
G01 X90.9473 Y56.3640
G01 X90.9379 Y56.3668
G01 X90.9292 Y56.3714
G01 X90.9217 Y56.3777
G01 X90.9154 Y56.3852
G01 X90.9108 Y56.3939
G01 X90.9080 Y56.4033
G01 X90.9070 Y56.4130
G01 X90.9080 Y56.4228
G01 X90.9108 Y56.4321
G01 X90.9154 Y56.4408
G01 X90.9217 Y56.4484
G01 X90.9292 Y56.4546
G01 X90.9379 Y56.4592
G01 X90.9473 Y56.4621
G01 X90.9570 Y56.4630
G01 X90.9668 Y56.4621
G01 X90.9761 Y56.4592
G01 X90.9848 Y56.4546
G01 X90.9924 Y56.4484
G01 X90.9986 Y56.4408
G01 X91.0032 Y56.4321
G01 X91.0061 Y56.4228
G01 X91.0070 Y56.4130
G00 X91.0070 Y56.4130
G01 F60.00
G01 Z-1.2000
G01 F120.00
G01 X91.0061 Y56.4033
G01 X91.0032 Y56.3939
G01 X90.9986 Y56.3852
G01 X90.9924 Y56.3777
G01 X90.9848 Y56.3714
G01 X90.9761 Y56.3668
G01 X90.9668 Y56.3640
G01 X90.9570 Y56.3630
G01 X90.9473 Y56.3640
G01 X90.9379 Y56.3668
G01 X90.9292 Y56.3714
G01 X90.9217 Y56.3777
G01 X90.9154 Y56.3852
G01 X90.9108 Y56.3939
G01 X90.9080 Y56.4033
G01 X90.9070 Y56.4130
G01 X90.9080 Y56.4228
G01 X90.9108 Y56.4321
G01 X90.9154 Y56.4408
G01 X90.9217 Y56.4484
G01 X90.9292 Y56.4546
G01 X90.9379 Y56.4592
G01 X90.9473 Y56.4621
G01 X90.9570 Y56.4630
G01 X90.9668 Y56.4621
G01 X90.9761 Y56.4592
G01 X90.9848 Y56.4546
G01 X90.9924 Y56.4484
G01 X90.9986 Y56.4408
G01 X91.0032 Y56.4321
G01 X91.0061 Y56.4228
G01 X91.0070 Y56.4130
G00 X91.0070 Y56.4130
G01 F60.00
G01 Z-1.8000
G01 F120.00
G01 X91.0061 Y56.4033
G01 X91.0032 Y56.3939
G01 X90.9986 Y56.3852
G01 X90.9924 Y56.3777
G01 X90.9848 Y56.3714
G01 X90.9761 Y56.3668
G01 X90.9668 Y56.3640
G01 X90.9570 Y56.3630
G01 X90.9473 Y56.3640
G01 X90.9379 Y56.3668
G01 X90.9292 Y56.3714
G01 X90.9217 Y56.3777
G01 X90.9154 Y56.3852
G01 X90.9108 Y56.3939
G01 X90.9080 Y56.4033
G01 X90.9070 Y56.4130
G01 X90.9080 Y56.4228
G01 X90.9108 Y56.4321
G01 X90.9154 Y56.4408
G01 X90.9217 Y56.4484
G01 X90.9292 Y56.4546
G01 X90.9379 Y56.4592
G01 X90.9473 Y56.4621
G01 X90.9570 Y56.4630
G01 X90.9668 Y56.4621
G01 X90.9761 Y56.4592
G01 X90.9848 Y56.4546
G01 X90.9924 Y56.4484
G01 X90.9986 Y56.4408
G01 X91.0032 Y56.4321
G01 X91.0061 Y56.4228
G01 X91.0070 Y56.4130
G00 Z2.0000
G00 X86.9430 Y56.3710
G01 F60.00
G01 Z-0.6000
G01 F120.00
G01 X86.9421 Y56.3613
G01 X86.9392 Y56.3519
G01 X86.9346 Y56.3432
G01 X86.9284 Y56.3357
G01 X86.9208 Y56.3294
G01 X86.9121 Y56.3248
G01 X86.9028 Y56.3220
G01 X86.8930 Y56.3210
G01 X86.8833 Y56.3220
G01 X86.8739 Y56.3248
G01 X86.8652 Y56.3294
G01 X86.8577 Y56.3357
G01 X86.8514 Y56.3432
G01 X86.8468 Y56.3519
G01 X86.8440 Y56.3613
G01 X86.8430 Y56.3710
G01 X86.8440 Y56.3808
G01 X86.8468 Y56.3901
G01 X86.8514 Y56.3988
G01 X86.8577 Y56.4064
G01 X86.8652 Y56.4126
G01 X86.8739 Y56.4172
G01 X86.8833 Y56.4201
G01 X86.8930 Y56.4210
G01 X86.9028 Y56.4201
G01 X86.9121 Y56.4172
G01 X86.9208 Y56.4126
G01 X86.9284 Y56.4064
G01 X86.9346 Y56.3988
G01 X86.9392 Y56.3901
G01 X86.9421 Y56.3808
G01 X86.9430 Y56.3710
G00 X86.9430 Y56.3710
G01 F60.00
G01 Z-1.2000
G01 F120.00
G01 X86.9421 Y56.3613
G01 X86.9392 Y56.3519
G01 X86.9346 Y56.3432
G01 X86.9284 Y56.3357
G01 X86.9208 Y56.3294
G01 X86.9121 Y56.3248
G01 X86.9028 Y56.3220
G01 X86.8930 Y56.3210
G01 X86.8833 Y56.3220
G01 X86.8739 Y56.3248
G01 X86.8652 Y56.3294
G01 X86.8577 Y56.3357
G01 X86.8514 Y56.3432
G01 X86.8468 Y56.3519
G01 X86.8440 Y56.3613
G01 X86.8430 Y56.3710
G01 X86.8440 Y56.3808
G01 X86.8468 Y56.3901
G01 X86.8514 Y56.3988
G01 X86.8577 Y56.4064
G01 X86.8652 Y56.4126
G01 X86.8739 Y56.4172
G01 X86.8833 Y56.4201
G01 X86.8930 Y56.4210
G01 X86.9028 Y56.4201
G01 X86.9121 Y56.4172
G01 X86.9208 Y56.4126
G01 X86.9284 Y56.4064
G01 X86.9346 Y56.3988
G01 X86.9392 Y56.3901
G01 X86.9421 Y56.3808
G01 X86.9430 Y56.3710
G00 X86.9430 Y56.3710
G01 F60.00
G01 Z-1.8000
G01 F120.00
G01 X86.9421 Y56.3613
G01 X86.9392 Y56.3519
G01 X86.9346 Y56.3432
G01 X86.9284 Y56.3357
G01 X86.9208 Y56.3294
G01 X86.9121 Y56.3248
G01 X86.9028 Y56.3220
G01 X86.8930 Y56.3210
G01 X86.8833 Y56.3220
G01 X86.8739 Y56.3248
G01 X86.8652 Y56.3294
G01 X86.8577 Y56.3357
G01 X86.8514 Y56.3432
G01 X86.8468 Y56.3519
G01 X86.8440 Y56.3613
G01 X86.8430 Y56.3710
G01 X86.8440 Y56.3808
G01 X86.8468 Y56.3901
G01 X86.8514 Y56.3988
G01 X86.8577 Y56.4064
G01 X86.8652 Y56.4126
G01 X86.8739 Y56.4172
G01 X86.8833 Y56.4201
G01 X86.8930 Y56.4210
G01 X86.9028 Y56.4201
G01 X86.9121 Y56.4172
G01 X86.9208 Y56.4126
G01 X86.9284 Y56.4064
G01 X86.9346 Y56.3988
G01 X86.9392 Y56.3901
G01 X86.9421 Y56.3808
G01 X86.9430 Y56.3710
G00 Z2.0000
G00 X78.8350 Y53.5090
G01 F60.00
G01 Z-0.6000
G01 F120.00
G01 X78.8341 Y53.4993
G01 X78.8312 Y53.4899
G01 X78.8266 Y53.4812
G01 X78.8204 Y53.4737
G01 X78.8128 Y53.4674
G01 X78.8041 Y53.4628
G01 X78.7948 Y53.4600
G01 X78.7850 Y53.4590
G01 X78.7753 Y53.4600
G01 X78.7659 Y53.4628
G01 X78.7572 Y53.4674
G01 X78.7497 Y53.4737
G01 X78.7434 Y53.4812
G01 X78.7388 Y53.4899
G01 X78.7360 Y53.4993
G01 X78.7350 Y53.5090
G01 X78.7360 Y53.5188
G01 X78.7388 Y53.5281
G01 X78.7434 Y53.5368
G01 X78.7497 Y53.5444
G01 X78.7572 Y53.5506
G01 X78.7659 Y53.5552
G01 X78.7753 Y53.5581
G01 X78.7850 Y53.5590
G01 X78.7948 Y53.5581
G01 X78.8041 Y53.5552
G01 X78.8128 Y53.5506
G01 X78.8204 Y53.5444
G01 X78.8266 Y53.5368
G01 X78.8312 Y53.5281
G01 X78.8341 Y53.5188
G01 X78.8350 Y53.5090
G00 X78.8350 Y53.5090
G01 F60.00
G01 Z-1.2000
G01 F120.00
G01 X78.8341 Y53.4993
G01 X78.8312 Y53.4899
G01 X78.8266 Y53.4812
G01 X78.8204 Y53.4737
G01 X78.8128 Y53.4674
G01 X78.8041 Y53.4628
G01 X78.7948 Y53.4600
G01 X78.7850 Y53.4590
G01 X78.7753 Y53.4600
G01 X78.7659 Y53.4628
G01 X78.7572 Y53.4674
G01 X78.7497 Y53.4737
G01 X78.7434 Y53.4812
G01 X78.7388 Y53.4899
G01 X78.7360 Y53.4993
G01 X78.7350 Y53.5090
G01 X78.7360 Y53.5188
G01 X78.7388 Y53.5281
G01 X78.7434 Y53.5368
G01 X78.7497 Y53.5444
G01 X78.7572 Y53.5506
G01 X78.7659 Y53.5552
G01 X78.7753 Y53.5581
G01 X78.7850 Y53.5590
G01 X78.7948 Y53.5581
G01 X78.8041 Y53.5552
G01 X78.8128 Y53.5506
G01 X78.8204 Y53.5444
G01 X78.8266 Y53.5368
G01 X78.8312 Y53.5281
G01 X78.8341 Y53.5188
G01 X78.8350 Y53.5090
G00 X78.8350 Y53.5090
G01 F60.00
G01 Z-1.8000
G01 F120.00
G01 X78.8341 Y53.4993
G01 X78.8312 Y53.4899
G01 X78.8266 Y53.4812
G01 X78.8204 Y53.4737
G01 X78.8128 Y53.4674
G01 X78.8041 Y53.4628
G01 X78.7948 Y53.4600
G01 X78.7850 Y53.4590
G01 X78.7753 Y53.4600
G01 X78.7659 Y53.4628
G01 X78.7572 Y53.4674
G01 X78.7497 Y53.4737
G01 X78.7434 Y53.4812
G01 X78.7388 Y53.4899
G01 X78.7360 Y53.4993
G01 X78.7350 Y53.5090
G01 X78.7360 Y53.5188
G01 X78.7388 Y53.5281
G01 X78.7434 Y53.5368
G01 X78.7497 Y53.5444
G01 X78.7572 Y53.5506
G01 X78.7659 Y53.5552
G01 X78.7753 Y53.5581
G01 X78.7850 Y53.5590
G01 X78.7948 Y53.5581
G01 X78.8041 Y53.5552
G01 X78.8128 Y53.5506
G01 X78.8204 Y53.5444
G01 X78.8266 Y53.5368
G01 X78.8312 Y53.5281
G01 X78.8341 Y53.5188
G01 X78.8350 Y53.5090
G00 Z2.0000
G00 X75.4350 Y53.5090
G01 F60.00
G01 Z-0.6000
G01 F120.00
G01 X75.4341 Y53.4993
G01 X75.4312 Y53.4899
G01 X75.4266 Y53.4812
G01 X75.4204 Y53.4737
G01 X75.4128 Y53.4674
G01 X75.4041 Y53.4628
G01 X75.3948 Y53.4600
G01 X75.3850 Y53.4590
G01 X75.3753 Y53.4600
G01 X75.3659 Y53.4628
G01 X75.3572 Y53.4674
G01 X75.3497 Y53.4737
G01 X75.3434 Y53.4812
G01 X75.3388 Y53.4899
G01 X75.3360 Y53.4993
G01 X75.3350 Y53.5090
G01 X75.3360 Y53.5188
G01 X75.3388 Y53.5281
G01 X75.3434 Y53.5368
G01 X75.3497 Y53.5444
G01 X75.3572 Y53.5506
G01 X75.3659 Y53.5552
G01 X75.3753 Y53.5581
G01 X75.3850 Y53.5590
G01 X75.3948 Y53.5581
G01 X75.4041 Y53.5552
G01 X75.4128 Y53.5506
G01 X75.4204 Y53.5444
G01 X75.4266 Y53.5368
G01 X75.4312 Y53.5281
G01 X75.4341 Y53.5188
G01 X75.4350 Y53.5090
G00 X75.4350 Y53.5090
G01 F60.00
G01 Z-1.2000
G01 F120.00
G01 X75.4341 Y53.4993
G01 X75.4312 Y53.4899
G01 X75.4266 Y53.4812
G01 X75.4204 Y53.4737
G01 X75.4128 Y53.4674
G01 X75.4041 Y53.4628
G01 X75.3948 Y53.4600
G01 X75.3850 Y53.4590
G01 X75.3753 Y53.4600
G01 X75.3659 Y53.4628
G01 X75.3572 Y53.4674
G01 X75.3497 Y53.4737
G01 X75.3434 Y53.4812
G01 X75.3388 Y53.4899
G01 X75.3360 Y53.4993
G01 X75.3350 Y53.5090
G01 X75.3360 Y53.5188
G01 X75.3388 Y53.5281
G01 X75.3434 Y53.5368
G01 X75.3497 Y53.5444
G01 X75.3572 Y53.5506
G01 X75.3659 Y53.5552
G01 X75.3753 Y53.5581
G01 X75.3850 Y53.5590
G01 X75.3948 Y53.5581
G01 X75.4041 Y53.5552
G01 X75.4128 Y53.5506
G01 X75.4204 Y53.5444
G01 X75.4266 Y53.5368
G01 X75.4312 Y53.5281
G01 X75.4341 Y53.5188
G01 X75.4350 Y53.5090
G00 X75.4350 Y53.5090
G01 F60.00
G01 Z-1.8000
G01 F120.00
G01 X75.4341 Y53.4993
G01 X75.4312 Y53.4899
G01 X75.4266 Y53.4812
G01 X75.4204 Y53.4737
G01 X75.4128 Y53.4674
G01 X75.4041 Y53.4628
G01 X75.3948 Y53.4600
G01 X75.3850 Y53.4590
G01 X75.3753 Y53.4600
G01 X75.3659 Y53.4628
G01 X75.3572 Y53.4674
G01 X75.3497 Y53.4737
G01 X75.3434 Y53.4812
G01 X75.3388 Y53.4899
G01 X75.3360 Y53.4993
G01 X75.3350 Y53.5090
G01 X75.3360 Y53.5188
G01 X75.3388 Y53.5281
G01 X75.3434 Y53.5368
G01 X75.3497 Y53.5444
G01 X75.3572 Y53.5506
G01 X75.3659 Y53.5552
G01 X75.3753 Y53.5581
G01 X75.3850 Y53.5590
G01 X75.3948 Y53.5581
G01 X75.4041 Y53.5552
G01 X75.4128 Y53.5506
G01 X75.4204 Y53.5444
G01 X75.4266 Y53.5368
G01 X75.4312 Y53.5281
G01 X75.4341 Y53.5188
G01 X75.4350 Y53.5090
G00 Z2.0000
G00 X73.7350 Y49.8090
G01 F60.00
G01 Z-0.6000
G01 F120.00
G01 X73.7341 Y49.7993
G01 X73.7312 Y49.7899
G01 X73.7266 Y49.7812
G01 X73.7204 Y49.7737
G01 X73.7128 Y49.7674
G01 X73.7041 Y49.7628
G01 X73.6948 Y49.7600
G01 X73.6850 Y49.7590
G01 X73.6753 Y49.7600
G01 X73.6659 Y49.7628
G01 X73.6572 Y49.7674
G01 X73.6497 Y49.7737
G01 X73.6434 Y49.7812
G01 X73.6388 Y49.7899
G01 X73.6360 Y49.7993
G01 X73.6350 Y49.8090
G01 X73.6360 Y49.8188
G01 X73.6388 Y49.8281
G01 X73.6434 Y49.8368
G01 X73.6497 Y49.8444
G01 X73.6572 Y49.8506
G01 X73.6659 Y49.8552
G01 X73.6753 Y49.8581
G01 X73.6850 Y49.8590
G01 X73.6948 Y49.8581
G01 X73.7041 Y49.8552
G01 X73.7128 Y49.8506
G01 X73.7204 Y49.8444
G01 X73.7266 Y49.8368
G01 X73.7312 Y49.8281
G01 X73.7341 Y49.8188
G01 X73.7350 Y49.8090
G00 X73.7350 Y49.8090
G01 F60.00
G01 Z-1.2000
G01 F120.00
G01 X73.7341 Y49.7993
G01 X73.7312 Y49.7899
G01 X73.7266 Y49.7812
G01 X73.7204 Y49.7737
G01 X73.7128 Y49.7674
G01 X73.7041 Y49.7628
G01 X73.6948 Y49.7600
G01 X73.6850 Y49.7590
G01 X73.6753 Y49.7600
G01 X73.6659 Y49.7628
G01 X73.6572 Y49.7674
G01 X73.6497 Y49.7737
G01 X73.6434 Y49.7812
G01 X73.6388 Y49.7899
G01 X73.6360 Y49.7993
G01 X73.6350 Y49.8090
G01 X73.6360 Y49.8188
G01 X73.6388 Y49.8281
G01 X73.6434 Y49.8368
G01 X73.6497 Y49.8444
G01 X73.6572 Y49.8506
G01 X73.6659 Y49.8552
G01 X73.6753 Y49.8581
G01 X73.6850 Y49.8590
G01 X73.6948 Y49.8581
G01 X73.7041 Y49.8552
G01 X73.7128 Y49.8506
G01 X73.7204 Y49.8444
G01 X73.7266 Y49.8368
G01 X73.7312 Y49.8281
G01 X73.7341 Y49.8188
G01 X73.7350 Y49.8090
G00 X73.7350 Y49.8090
G01 F60.00
G01 Z-1.8000
G01 F120.00
G01 X73.7341 Y49.7993
G01 X73.7312 Y49.7899
G01 X73.7266 Y49.7812
G01 X73.7204 Y49.7737
G01 X73.7128 Y49.7674
G01 X73.7041 Y49.7628
G01 X73.6948 Y49.7600
G01 X73.6850 Y49.7590
G01 X73.6753 Y49.7600
G01 X73.6659 Y49.7628
G01 X73.6572 Y49.7674
G01 X73.6497 Y49.7737
G01 X73.6434 Y49.7812
G01 X73.6388 Y49.7899
G01 X73.6360 Y49.7993
G01 X73.6350 Y49.8090
G01 X73.6360 Y49.8188
G01 X73.6388 Y49.8281
G01 X73.6434 Y49.8368
G01 X73.6497 Y49.8444
G01 X73.6572 Y49.8506
G01 X73.6659 Y49.8552
G01 X73.6753 Y49.8581
G01 X73.6850 Y49.8590
G01 X73.6948 Y49.8581
G01 X73.7041 Y49.8552
G01 X73.7128 Y49.8506
G01 X73.7204 Y49.8444
G01 X73.7266 Y49.8368
G01 X73.7312 Y49.8281
G01 X73.7341 Y49.8188
G01 X73.7350 Y49.8090
G00 Z2.0000
G00 X77.1350 Y49.8090
G01 F60.00
G01 Z-0.6000
G01 F120.00
G01 X77.1341 Y49.7993
G01 X77.1312 Y49.7899
G01 X77.1266 Y49.7812
G01 X77.1204 Y49.7737
G01 X77.1128 Y49.7674
G01 X77.1041 Y49.7628
G01 X77.0948 Y49.7600
G01 X77.0850 Y49.7590
G01 X77.0753 Y49.7600
G01 X77.0659 Y49.7628
G01 X77.0572 Y49.7674
G01 X77.0497 Y49.7737
G01 X77.0434 Y49.7812
G01 X77.0388 Y49.7899
G01 X77.0360 Y49.7993
G01 X77.0350 Y49.8090
G01 X77.0360 Y49.8188
G01 X77.0388 Y49.8281
G01 X77.0434 Y49.8368
G01 X77.0497 Y49.8444
G01 X77.0572 Y49.8506
G01 X77.0659 Y49.8552
G01 X77.0753 Y49.8581
G01 X77.0850 Y49.8590
G01 X77.0948 Y49.8581
G01 X77.1041 Y49.8552
G01 X77.1128 Y49.8506
G01 X77.1204 Y49.8444
G01 X77.1266 Y49.8368
G01 X77.1312 Y49.8281
G01 X77.1341 Y49.8188
G01 X77.1350 Y49.8090
G00 X77.1350 Y49.8090
G01 F60.00
G01 Z-1.2000
G01 F120.00
G01 X77.1341 Y49.7993
G01 X77.1312 Y49.7899
G01 X77.1266 Y49.7812
G01 X77.1204 Y49.7737
G01 X77.1128 Y49.7674
G01 X77.1041 Y49.7628
G01 X77.0948 Y49.7600
G01 X77.0850 Y49.7590
G01 X77.0753 Y49.7600
G01 X77.0659 Y49.7628
G01 X77.0572 Y49.7674
G01 X77.0497 Y49.7737
G01 X77.0434 Y49.7812
G01 X77.0388 Y49.7899
G01 X77.0360 Y49.7993
G01 X77.0350 Y49.8090
G01 X77.0360 Y49.8188
G01 X77.0388 Y49.8281
G01 X77.0434 Y49.8368
G01 X77.0497 Y49.8444
G01 X77.0572 Y49.8506
G01 X77.0659 Y49.8552
G01 X77.0753 Y49.8581
G01 X77.0850 Y49.8590
G01 X77.0948 Y49.8581
G01 X77.1041 Y49.8552
G01 X77.1128 Y49.8506
G01 X77.1204 Y49.8444
G01 X77.1266 Y49.8368
G01 X77.1312 Y49.8281
G01 X77.1341 Y49.8188
G01 X77.1350 Y49.8090
G00 X77.1350 Y49.8090
G01 F60.00
G01 Z-1.8000
G01 F120.00
G01 X77.1341 Y49.7993
G01 X77.1312 Y49.7899
G01 X77.1266 Y49.7812
G01 X77.1204 Y49.7737
G01 X77.1128 Y49.7674
G01 X77.1041 Y49.7628
G01 X77.0948 Y49.7600
G01 X77.0850 Y49.7590
G01 X77.0753 Y49.7600
G01 X77.0659 Y49.7628
G01 X77.0572 Y49.7674
G01 X77.0497 Y49.7737
G01 X77.0434 Y49.7812
G01 X77.0388 Y49.7899
G01 X77.0360 Y49.7993
G01 X77.0350 Y49.8090
G01 X77.0360 Y49.8188
G01 X77.0388 Y49.8281
G01 X77.0434 Y49.8368
G01 X77.0497 Y49.8444
G01 X77.0572 Y49.8506
G01 X77.0659 Y49.8552
G01 X77.0753 Y49.8581
G01 X77.0850 Y49.8590
G01 X77.0948 Y49.8581
G01 X77.1041 Y49.8552
G01 X77.1128 Y49.8506
G01 X77.1204 Y49.8444
G01 X77.1266 Y49.8368
G01 X77.1312 Y49.8281
G01 X77.1341 Y49.8188
G01 X77.1350 Y49.8090
G00 Z2.0000
G00 X80.5350 Y49.8090
G01 F60.00
G01 Z-0.6000
G01 F120.00
G01 X80.5341 Y49.7993
G01 X80.5312 Y49.7899
G01 X80.5266 Y49.7812
G01 X80.5204 Y49.7737
G01 X80.5128 Y49.7674
G01 X80.5041 Y49.7628
G01 X80.4948 Y49.7600
G01 X80.4850 Y49.7590
G01 X80.4753 Y49.7600
G01 X80.4659 Y49.7628
G01 X80.4572 Y49.7674
G01 X80.4497 Y49.7737
G01 X80.4434 Y49.7812
G01 X80.4388 Y49.7899
G01 X80.4360 Y49.7993
G01 X80.4350 Y49.8090
G01 X80.4360 Y49.8188
G01 X80.4388 Y49.8281
G01 X80.4434 Y49.8368
G01 X80.4497 Y49.8444
G01 X80.4572 Y49.8506
G01 X80.4659 Y49.8552
G01 X80.4753 Y49.8581
G01 X80.4850 Y49.8590
G01 X80.4948 Y49.8581
G01 X80.5041 Y49.8552
G01 X80.5128 Y49.8506
G01 X80.5204 Y49.8444
G01 X80.5266 Y49.8368
G01 X80.5312 Y49.8281
G01 X80.5341 Y49.8188
G01 X80.5350 Y49.8090
G00 X80.5350 Y49.8090
G01 F60.00
G01 Z-1.2000
G01 F120.00
G01 X80.5341 Y49.7993
G01 X80.5312 Y49.7899
G01 X80.5266 Y49.7812
G01 X80.5204 Y49.7737
G01 X80.5128 Y49.7674
G01 X80.5041 Y49.7628
G01 X80.4948 Y49.7600
G01 X80.4850 Y49.7590
G01 X80.4753 Y49.7600
G01 X80.4659 Y49.7628
G01 X80.4572 Y49.7674
G01 X80.4497 Y49.7737
G01 X80.4434 Y49.7812
G01 X80.4388 Y49.7899
G01 X80.4360 Y49.7993
G01 X80.4350 Y49.8090
G01 X80.4360 Y49.8188
G01 X80.4388 Y49.8281
G01 X80.4434 Y49.8368
G01 X80.4497 Y49.8444
G01 X80.4572 Y49.8506
G01 X80.4659 Y49.8552
G01 X80.4753 Y49.8581
G01 X80.4850 Y49.8590
G01 X80.4948 Y49.8581
G01 X80.5041 Y49.8552
G01 X80.5128 Y49.8506
G01 X80.5204 Y49.8444
G01 X80.5266 Y49.8368
G01 X80.5312 Y49.8281
G01 X80.5341 Y49.8188
G01 X80.5350 Y49.8090
G00 X80.5350 Y49.8090
G01 F60.00
G01 Z-1.8000
G01 F120.00
G01 X80.5341 Y49.7993
G01 X80.5312 Y49.7899
G01 X80.5266 Y49.7812
G01 X80.5204 Y49.7737
G01 X80.5128 Y49.7674
G01 X80.5041 Y49.7628
G01 X80.4948 Y49.7600
G01 X80.4850 Y49.7590
G01 X80.4753 Y49.7600
G01 X80.4659 Y49.7628
G01 X80.4572 Y49.7674
G01 X80.4497 Y49.7737
G01 X80.4434 Y49.7812
G01 X80.4388 Y49.7899
G01 X80.4360 Y49.7993
G01 X80.4350 Y49.8090
G01 X80.4360 Y49.8188
G01 X80.4388 Y49.8281
G01 X80.4434 Y49.8368
G01 X80.4497 Y49.8444
G01 X80.4572 Y49.8506
G01 X80.4659 Y49.8552
G01 X80.4753 Y49.8581
G01 X80.4850 Y49.8590
G01 X80.4948 Y49.8581
G01 X80.5041 Y49.8552
G01 X80.5128 Y49.8506
G01 X80.5204 Y49.8444
G01 X80.5266 Y49.8368
G01 X80.5312 Y49.8281
G01 X80.5341 Y49.8188
G01 X80.5350 Y49.8090
G00 Z2.0000
G00 X110.0130 Y30.5050
G01 F60.00
G01 Z-0.6000
G01 F120.00
G01 X110.0118 Y30.4795
G01 X110.0080 Y30.4543
G01 X110.0018 Y30.4295
G01 X109.9932 Y30.4055
G01 X109.9823 Y30.3824
G01 X109.9692 Y30.3606
G01 X109.9540 Y30.3401
G01 X109.9369 Y30.3212
G01 X109.9180 Y30.3040
G01 X109.8975 Y30.2888
G01 X109.8756 Y30.2757
G01 X109.8525 Y30.2648
G01 X109.8285 Y30.2562
G01 X109.8037 Y30.2500
G01 X109.7785 Y30.2463
G01 X109.7530 Y30.2450
G01 X109.7275 Y30.2463
G01 X109.7023 Y30.2500
G01 X109.6775 Y30.2562
G01 X109.6535 Y30.2648
G01 X109.6304 Y30.2757
G01 X109.6086 Y30.2888
G01 X109.5881 Y30.3040
G01 X109.5692 Y30.3212
G01 X109.5520 Y30.3401
G01 X109.5368 Y30.3606
G01 X109.5237 Y30.3824
G01 X109.5128 Y30.4055
G01 X109.5042 Y30.4295
G01 X109.4980 Y30.4543
G01 X109.4943 Y30.4795
G01 X109.4930 Y30.5050
G01 X109.4943 Y30.5305
G01 X109.4980 Y30.5557
G01 X109.5042 Y30.5805
G01 X109.5128 Y30.6045
G01 X109.5237 Y30.6276
G01 X109.5368 Y30.6495
G01 X109.5520 Y30.6700
G01 X109.5692 Y30.6889
G01 X109.5881 Y30.7060
G01 X109.6086 Y30.7212
G01 X109.6304 Y30.7343
G01 X109.6535 Y30.7452
G01 X109.6775 Y30.7538
G01 X109.7023 Y30.7600
G01 X109.7275 Y30.7638
G01 X109.7530 Y30.7650
G01 X109.7785 Y30.7638
G01 X109.8037 Y30.7600
G01 X109.8285 Y30.7538
G01 X109.8525 Y30.7452
G01 X109.8756 Y30.7343
G01 X109.8975 Y30.7212
G01 X109.9180 Y30.7060
G01 X109.9369 Y30.6889
G01 X109.9540 Y30.6700
G01 X109.9692 Y30.6495
G01 X109.9823 Y30.6276
G01 X109.9932 Y30.6045
G01 X110.0018 Y30.5805
G01 X110.0080 Y30.5557
G01 X110.0118 Y30.5305
G01 X110.0130 Y30.5050
G00 X110.0130 Y30.5050
G01 F60.00
G01 Z-1.2000
G01 F120.00
G01 X110.0118 Y30.4795
G01 X110.0080 Y30.4543
G01 X110.0018 Y30.4295
G01 X109.9932 Y30.4055
G01 X109.9823 Y30.3824
G01 X109.9692 Y30.3606
G01 X109.9540 Y30.3401
G01 X109.9369 Y30.3212
G01 X109.9180 Y30.3040
G01 X109.8975 Y30.2888
G01 X109.8756 Y30.2757
G01 X109.8525 Y30.2648
G01 X109.8285 Y30.2562
G01 X109.8037 Y30.2500
G01 X109.7785 Y30.2463
G01 X109.7530 Y30.2450
G01 X109.7275 Y30.2463
G01 X109.7023 Y30.2500
G01 X109.6775 Y30.2562
G01 X109.6535 Y30.2648
G01 X109.6304 Y30.2757
G01 X109.6086 Y30.2888
G01 X109.5881 Y30.3040
G01 X109.5692 Y30.3212
G01 X109.5520 Y30.3401
G01 X109.5368 Y30.3606
G01 X109.5237 Y30.3824
G01 X109.5128 Y30.4055
G01 X109.5042 Y30.4295
G01 X109.4980 Y30.4543
G01 X109.4943 Y30.4795
G01 X109.4930 Y30.5050
G01 X109.4943 Y30.5305
G01 X109.4980 Y30.5557
G01 X109.5042 Y30.5805
G01 X109.5128 Y30.6045
G01 X109.5237 Y30.6276
G01 X109.5368 Y30.6495
G01 X109.5520 Y30.6700
G01 X109.5692 Y30.6889
G01 X109.5881 Y30.7060
G01 X109.6086 Y30.7212
G01 X109.6304 Y30.7343
G01 X109.6535 Y30.7452
G01 X109.6775 Y30.7538
G01 X109.7023 Y30.7600
G01 X109.7275 Y30.7638
G01 X109.7530 Y30.7650
G01 X109.7785 Y30.7638
G01 X109.8037 Y30.7600
G01 X109.8285 Y30.7538
G01 X109.8525 Y30.7452
G01 X109.8756 Y30.7343
G01 X109.8975 Y30.7212
G01 X109.9180 Y30.7060
G01 X109.9369 Y30.6889
G01 X109.9540 Y30.6700
G01 X109.9692 Y30.6495
G01 X109.9823 Y30.6276
G01 X109.9932 Y30.6045
G01 X110.0018 Y30.5805
G01 X110.0080 Y30.5557
G01 X110.0118 Y30.5305
G01 X110.0130 Y30.5050
G00 X110.0130 Y30.5050
G01 F60.00
G01 Z-1.8000
G01 F120.00
G01 X110.0118 Y30.4795
G01 X110.0080 Y30.4543
G01 X110.0018 Y30.4295
G01 X109.9932 Y30.4055
G01 X109.9823 Y30.3824
G01 X109.9692 Y30.3606
G01 X109.9540 Y30.3401
G01 X109.9369 Y30.3212
G01 X109.9180 Y30.3040
G01 X109.8975 Y30.2888
G01 X109.8756 Y30.2757
G01 X109.8525 Y30.2648
G01 X109.8285 Y30.2562
G01 X109.8037 Y30.2500
G01 X109.7785 Y30.2463
G01 X109.7530 Y30.2450
G01 X109.7275 Y30.2463
G01 X109.7023 Y30.2500
G01 X109.6775 Y30.2562
G01 X109.6535 Y30.2648
G01 X109.6304 Y30.2757
G01 X109.6086 Y30.2888
G01 X109.5881 Y30.3040
G01 X109.5692 Y30.3212
G01 X109.5520 Y30.3401
G01 X109.5368 Y30.3606
G01 X109.5237 Y30.3824
G01 X109.5128 Y30.4055
G01 X109.5042 Y30.4295
G01 X109.4980 Y30.4543
G01 X109.4943 Y30.4795
G01 X109.4930 Y30.5050
G01 X109.4943 Y30.5305
G01 X109.4980 Y30.5557
G01 X109.5042 Y30.5805
G01 X109.5128 Y30.6045
G01 X109.5237 Y30.6276
G01 X109.5368 Y30.6495
G01 X109.5520 Y30.6700
G01 X109.5692 Y30.6889
G01 X109.5881 Y30.7060
G01 X109.6086 Y30.7212
G01 X109.6304 Y30.7343
G01 X109.6535 Y30.7452
G01 X109.6775 Y30.7538
G01 X109.7023 Y30.7600
G01 X109.7275 Y30.7638
G01 X109.7530 Y30.7650
G01 X109.7785 Y30.7638
G01 X109.8037 Y30.7600
G01 X109.8285 Y30.7538
G01 X109.8525 Y30.7452
G01 X109.8756 Y30.7343
G01 X109.8975 Y30.7212
G01 X109.9180 Y30.7060
G01 X109.9369 Y30.6889
G01 X109.9540 Y30.6700
G01 X109.9692 Y30.6495
G01 X109.9823 Y30.6276
G01 X109.9932 Y30.6045
G01 X110.0018 Y30.5805
G01 X110.0080 Y30.5557
G01 X110.0118 Y30.5305
G01 X110.0130 Y30.5050
G00 Z2.0000
G00 X110.0130 Y25.4250
G01 F60.00
G01 Z-0.6000
G01 F120.00
G01 X110.0118 Y25.3995
G01 X110.0080 Y25.3743
G01 X110.0018 Y25.3495
G01 X109.9932 Y25.3255
G01 X109.9823 Y25.3024
G01 X109.9692 Y25.2806
G01 X109.9540 Y25.2601
G01 X109.9369 Y25.2412
G01 X109.9180 Y25.2240
G01 X109.8975 Y25.2088
G01 X109.8756 Y25.1957
G01 X109.8525 Y25.1848
G01 X109.8285 Y25.1762
G01 X109.8037 Y25.1700
G01 X109.7785 Y25.1663
G01 X109.7530 Y25.1650
G01 X109.7275 Y25.1663
G01 X109.7023 Y25.1700
G01 X109.6775 Y25.1762
G01 X109.6535 Y25.1848
G01 X109.6304 Y25.1957
G01 X109.6086 Y25.2088
G01 X109.5881 Y25.2240
G01 X109.5692 Y25.2412
G01 X109.5520 Y25.2601
G01 X109.5368 Y25.2806
G01 X109.5237 Y25.3024
G01 X109.5128 Y25.3255
G01 X109.5042 Y25.3495
G01 X109.4980 Y25.3743
G01 X109.4943 Y25.3995
G01 X109.4930 Y25.4250
G01 X109.4943 Y25.4505
G01 X109.4980 Y25.4757
G01 X109.5042 Y25.5005
G01 X109.5128 Y25.5245
G01 X109.5237 Y25.5476
G01 X109.5368 Y25.5695
G01 X109.5520 Y25.5900
G01 X109.5692 Y25.6089
G01 X109.5881 Y25.6260
G01 X109.6086 Y25.6412
G01 X109.6304 Y25.6543
G01 X109.6535 Y25.6652
G01 X109.6775 Y25.6738
G01 X109.7023 Y25.6800
G01 X109.7275 Y25.6838
G01 X109.7530 Y25.6850
G01 X109.7785 Y25.6838
G01 X109.8037 Y25.6800
G01 X109.8285 Y25.6738
G01 X109.8525 Y25.6652
G01 X109.8756 Y25.6543
G01 X109.8975 Y25.6412
G01 X109.9180 Y25.6260
G01 X109.9369 Y25.6089
G01 X109.9540 Y25.5900
G01 X109.9692 Y25.5695
G01 X109.9823 Y25.5476
G01 X109.9932 Y25.5245
G01 X110.0018 Y25.5005
G01 X110.0080 Y25.4757
G01 X110.0118 Y25.4505
G01 X110.0130 Y25.4250
G00 X110.0130 Y25.4250
G01 F60.00
G01 Z-1.2000
G01 F120.00
G01 X110.0118 Y25.3995
G01 X110.0080 Y25.3743
G01 X110.0018 Y25.3495
G01 X109.9932 Y25.3255
G01 X109.9823 Y25.3024
G01 X109.9692 Y25.2806
G01 X109.9540 Y25.2601
G01 X109.9369 Y25.2412
G01 X109.9180 Y25.2240
G01 X109.8975 Y25.2088
G01 X109.8756 Y25.1957
G01 X109.8525 Y25.1848
G01 X109.8285 Y25.1762
G01 X109.8037 Y25.1700
G01 X109.7785 Y25.1663
G01 X109.7530 Y25.1650
G01 X109.7275 Y25.1663
G01 X109.7023 Y25.1700
G01 X109.6775 Y25.1762
G01 X109.6535 Y25.1848
G01 X109.6304 Y25.1957
G01 X109.6086 Y25.2088
G01 X109.5881 Y25.2240
G01 X109.5692 Y25.2412
G01 X109.5520 Y25.2601
G01 X109.5368 Y25.2806
G01 X109.5237 Y25.3024
G01 X109.5128 Y25.3255
G01 X109.5042 Y25.3495
G01 X109.4980 Y25.3743
G01 X109.4943 Y25.3995
G01 X109.4930 Y25.4250
G01 X109.4943 Y25.4505
G01 X109.4980 Y25.4757
G01 X109.5042 Y25.5005
G01 X109.5128 Y25.5245
G01 X109.5237 Y25.5476
G01 X109.5368 Y25.5695
G01 X109.5520 Y25.5900
G01 X109.5692 Y25.6089
G01 X109.5881 Y25.6260
G01 X109.6086 Y25.6412
G01 X109.6304 Y25.6543
G01 X109.6535 Y25.6652
G01 X109.6775 Y25.6738
G01 X109.7023 Y25.6800
G01 X109.7275 Y25.6838
G01 X109.7530 Y25.6850
G01 X109.7785 Y25.6838
G01 X109.8037 Y25.6800
G01 X109.8285 Y25.6738
G01 X109.8525 Y25.6652
G01 X109.8756 Y25.6543
G01 X109.8975 Y25.6412
G01 X109.9180 Y25.6260
G01 X109.9369 Y25.6089
G01 X109.9540 Y25.5900
G01 X109.9692 Y25.5695
G01 X109.9823 Y25.5476
G01 X109.9932 Y25.5245
G01 X110.0018 Y25.5005
G01 X110.0080 Y25.4757
G01 X110.0118 Y25.4505
G01 X110.0130 Y25.4250
G00 X110.0130 Y25.4250
G01 F60.00
G01 Z-1.8000
G01 F120.00
G01 X110.0118 Y25.3995
G01 X110.0080 Y25.3743
G01 X110.0018 Y25.3495
G01 X109.9932 Y25.3255
G01 X109.9823 Y25.3024
G01 X109.9692 Y25.2806
G01 X109.9540 Y25.2601
G01 X109.9369 Y25.2412
G01 X109.9180 Y25.2240
G01 X109.8975 Y25.2088
G01 X109.8756 Y25.1957
G01 X109.8525 Y25.1848
G01 X109.8285 Y25.1762
G01 X109.8037 Y25.1700
G01 X109.7785 Y25.1663
G01 X109.7530 Y25.1650
G01 X109.7275 Y25.1663
G01 X109.7023 Y25.1700
G01 X109.6775 Y25.1762
G01 X109.6535 Y25.1848
G01 X109.6304 Y25.1957
G01 X109.6086 Y25.2088
G01 X109.5881 Y25.2240
G01 X109.5692 Y25.2412
G01 X109.5520 Y25.2601
G01 X109.5368 Y25.2806
G01 X109.5237 Y25.3024
G01 X109.5128 Y25.3255
G01 X109.5042 Y25.3495
G01 X109.4980 Y25.3743
G01 X109.4943 Y25.3995
G01 X109.4930 Y25.4250
G01 X109.4943 Y25.4505
G01 X109.4980 Y25.4757
G01 X109.5042 Y25.5005
G01 X109.5128 Y25.5245
G01 X109.5237 Y25.5476
G01 X109.5368 Y25.5695
G01 X109.5520 Y25.5900
G01 X109.5692 Y25.6089
G01 X109.5881 Y25.6260
G01 X109.6086 Y25.6412
G01 X109.6304 Y25.6543
G01 X109.6535 Y25.6652
G01 X109.6775 Y25.6738
G01 X109.7023 Y25.6800
G01 X109.7275 Y25.6838
G01 X109.7530 Y25.6850
G01 X109.7785 Y25.6838
G01 X109.8037 Y25.6800
G01 X109.8285 Y25.6738
G01 X109.8525 Y25.6652
G01 X109.8756 Y25.6543
G01 X109.8975 Y25.6412
G01 X109.9180 Y25.6260
G01 X109.9369 Y25.6089
G01 X109.9540 Y25.5900
G01 X109.9692 Y25.5695
G01 X109.9823 Y25.5476
G01 X109.9932 Y25.5245
G01 X110.0018 Y25.5005
G01 X110.0080 Y25.4757
G01 X110.0118 Y25.4505
G01 X110.0130 Y25.4250
G00 Z2.0000
M05
G00 Z2.0000
G00 Z15.00

