(G-CODE GENERATED BY FLATCAM v8.993 - www.flatcam.org - Version Date: 2020/06/05)

(Name: drill_0.8)
(Type: G-code from Excellon)
(Units: MM)

(Created on quinta, 02 julho 2020 at 10:39)

(This preprocessor is the default preprocessor used by FlatCAM.)
(It is made to work with MACH3 compatible motion controllers.)


(TOOLS DIAMETER: )
(Tool: 1 -> Dia: 0.8)
(Tool: 2 -> Dia: 1.1)
(Tool: 3 -> Dia: 1.52)

(FEEDRATE Z: )
(Tool: 1 -> Feedrate: 300)
(Tool: 2 -> Feedrate: 300)
(Tool: 3 -> Feedrate: 300)

(FEEDRATE RAPIDS: )
(Tool: 1 -> Feedrate Rapids: 1500)
(Tool: 2 -> Feedrate Rapids: 1500)
(Tool: 3 -> Feedrate Rapids: 1500)

(Z_CUT: )
(Tool: 1 -> Z_Cut: -1.8)
(Tool: 2 -> Z_Cut: -1.8)
(Tool: 3 -> Z_Cut: -1.8)

(Tools Offset: )
(Tool: 1 -> Offset Z: -0.0)
(Tool: 2 -> Offset Z: -0.0)
(Tool: 3 -> Offset Z: -0.0)

(Z_MOVE: )
(Tool: 1 -> Z_Move: 2)
(Tool: 2 -> Z_Move: 2)
(Tool: 3 -> Z_Move: 2)

(Z Start: None mm)
(Z End: 2.0 mm)
(Steps per circle: 64)
(Preprocessor Excellon: default)

(X range:    5.3610 ...  110.5130  mm)
(Y range:    4.7050 ...   56.9630  mm)

(Spindle Speed: 12000.0 RPM)
G21
G90
G94



G00 Z2.0000

G01 F300.00
M03 S12000
G00 X91.9730 Y5.1050
G01 Z-1.8000
G01 Z0
G00 Z2.0000
G00 X93.4970 Y10.6930
G01 Z-1.8000
G01 Z0
G00 Z2.0000
G00 X99.5930 Y5.1050
G01 Z-1.8000
G01 Z0
G00 Z2.0000
G00 X104.6730 Y15.7730
G01 Z-1.8000
G01 Z0
G00 Z2.0000
G00 X100.4820 Y20.9800
G01 Z-1.8000
G01 Z0
G00 Z2.0000
G00 X100.4820 Y25.5520
G01 Z-1.8000
G01 Z0
G00 Z2.0000
G00 X97.0530 Y34.4420
G01 Z-1.8000
G01 Z0
G00 Z2.0000
G00 X97.0530 Y40.2840
G01 Z-1.8000
G01 Z0
G00 Z2.0000
G00 X101.8790 Y45.4040
G01 Z-1.8000
G01 Z0
G00 Z2.0000
G00 X101.8790 Y47.9040
G01 Z-1.8000
G01 Z0
G00 Z2.0000
G00 X97.0530 Y47.9040
G01 Z-1.8000
G01 Z0
G00 Z2.0000
G00 X92.8620 Y40.6650
G01 Z-1.8000
G01 Z0
G00 Z2.0000
G00 X85.2420 Y40.6650
G01 Z-1.8000
G01 Z0
G00 Z2.0000
G00 X77.2410 Y41.2530
G01 Z-1.8000
G01 Z0
G00 Z2.0000
G00 X73.1770 Y41.2530
G01 Z-1.8000
G01 Z0
G00 Z2.0000
G00 X77.2410 Y46.2530
G01 Z-1.8000
G01 Z0
G00 Z2.0000
G00 X73.1770 Y46.2530
G01 Z-1.8000
G01 Z0
G00 Z2.0000
G00 X64.5410 Y46.2530
G01 Z-1.8000
G01 Z0
G00 Z2.0000
G00 X64.5410 Y53.3650
G01 Z-1.8000
G01 Z0
G00 Z2.0000
G00 X54.8250 Y43.7130
G01 Z-1.8000
G01 Z0
G00 Z2.0000
G00 X54.8890 Y38.6330
G01 Z-1.8000
G01 Z0
G00 Z2.0000
G00 X50.3170 Y34.9970
G01 Z-1.8000
G01 Z0
G00 Z2.0000
G00 X47.2690 Y38.6330
G01 Z-1.8000
G01 Z0
G00 Z2.0000
G00 X47.2050 Y43.7130
G01 Z-1.8000
G01 Z0
G00 Z2.0000
G00 X39.3310 Y38.8230
G01 Z-1.8000
G01 Z0
G00 Z2.0000
G00 X39.3310 Y36.2840
G01 Z-1.8000
G01 Z0
G00 Z2.0000
G00 X44.7290 Y33.7920
G01 Z-1.8000
G01 Z0
G00 Z2.0000
G00 X44.7290 Y31.2920
G01 Z-1.8000
G01 Z0
G00 Z2.0000
G00 X39.3310 Y33.7430
G01 Z-1.8000
G01 Z0
G00 Z2.0000
G00 X39.3310 Y31.2040
G01 Z-1.8000
G01 Z0
G00 Z2.0000
G00 X39.3310 Y28.6630
G01 Z-1.8000
G01 Z0
G00 Z2.0000
G00 X39.3310 Y26.1230
G01 Z-1.8000
G01 Z0
G00 Z2.0000
G00 X39.3310 Y23.5830
G01 Z-1.8000
G01 Z0
G00 Z2.0000
G00 X31.7110 Y23.5830
G01 Z-1.8000
G01 Z0
G00 Z2.0000
G00 X31.7110 Y26.1230
G01 Z-1.8000
G01 Z0
G00 Z2.0000
G00 X31.7110 Y28.6630
G01 Z-1.8000
G01 Z0
G00 Z2.0000
G00 X31.7110 Y31.2040
G01 Z-1.8000
G01 Z0
G00 Z2.0000
G00 X31.7110 Y33.7430
G01 Z-1.8000
G01 Z0
G00 Z2.0000
G00 X26.4410 Y31.2920
G01 Z-1.8000
G01 Z0
G00 Z2.0000
G00 X20.8530 Y29.9970
G01 Z-1.8000
G01 Z0
G00 Z2.0000
G00 X20.8530 Y34.9970
G01 Z-1.8000
G01 Z0
G00 Z2.0000
G00 X26.4410 Y33.7920
G01 Z-1.8000
G01 Z0
G00 Z2.0000
G00 X31.7110 Y36.2840
G01 Z-1.8000
G01 Z0
G00 Z2.0000
G00 X31.7110 Y38.8230
G01 Z-1.8000
G01 Z0
G00 Z2.0000
G00 X33.5530 Y46.7610
G01 Z-1.8000
G01 Z0
G00 Z2.0000
G00 X25.9330 Y46.7610
G01 Z-1.8000
G01 Z0
G00 Z2.0000
G00 X26.4410 Y43.2050
G01 Z-1.8000
G01 Z0
G00 Z2.0000
G00 X26.4410 Y38.2050
G01 Z-1.8000
G01 Z0
G00 Z2.0000
G00 X22.3770 Y38.6330
G01 Z-1.8000
G01 Z0
G00 Z2.0000
G00 X22.3770 Y43.7130
G01 Z-1.8000
G01 Z0
G00 Z2.0000
G00 X14.7570 Y43.7130
G01 Z-1.8000
G01 Z0
G00 Z2.0000
G00 X14.7570 Y38.6330
G01 Z-1.8000
G01 Z0
G00 Z2.0000
G00 X14.7570 Y25.9330
G01 Z-1.8000
G01 Z0
G00 Z2.0000
G00 X22.3770 Y25.9330
G01 Z-1.8000
G01 Z0
G00 Z2.0000
G00 X26.9490 Y20.8530
G01 Z-1.8000
G01 Z0
G00 Z2.0000
G00 X26.9490 Y15.8530
G01 Z-1.8000
G01 Z0
G00 Z2.0000
G00 X31.5210 Y15.7730
G01 Z-1.8000
G01 Z0
G00 Z2.0000
G00 X31.5210 Y11.7090
G01 Z-1.8000
G01 Z0
G00 Z2.0000
G00 X39.1410 Y11.7090
G01 Z-1.8000
G01 Z0
G00 Z2.0000
G00 X43.7130 Y11.7890
G01 Z-1.8000
G01 Z0
G00 Z2.0000
G00 X39.1410 Y15.7730
G01 Z-1.8000
G01 Z0
G00 Z2.0000
G00 X43.7130 Y16.7890
G01 Z-1.8000
G01 Z0
G00 Z2.0000
G00 X47.2690 Y26.4410
G01 Z-1.8000
G01 Z0
G00 Z2.0000
G00 X50.3170 Y29.9970
G01 Z-1.8000
G01 Z0
G00 Z2.0000
G00 X54.8890 Y26.4410
G01 Z-1.8000
G01 Z0
G00 Z2.0000
G00 X55.9050 Y32.0290
G01 Z-1.8000
G01 Z0
G00 Z2.0000
G00 X60.9050 Y32.0290
G01 Z-1.8000
G01 Z0
G00 Z2.0000
G00 X65.0490 Y18.2730
G01 Z-1.8000
G01 Z0
G00 Z2.0000
G00 X65.0490 Y15.7730
G01 Z-1.8000
G01 Z0
G00 Z2.0000
G00 X76.7330 Y16.2810
G01 Z-1.8000
G01 Z0
G00 Z2.0000
G00 X79.2330 Y16.2810
G01 Z-1.8000
G01 Z0
G00 Z2.0000
G00 X79.2730 Y30.5050
G01 Z-1.8000
G01 Z0
G00 Z2.0000
G00 X92.0530 Y34.4420
G01 Z-1.8000
G01 Z0
G00 Z2.0000
G00 X91.9730 Y30.5050
G01 Z-1.8000
G01 Z0
G00 Z2.0000
G00 X92.8620 Y25.5520
G01 Z-1.8000
G01 Z0
G00 Z2.0000
G00 X92.8620 Y20.9800
G01 Z-1.8000
G01 Z0
G00 Z2.0000
G00 X91.9730 Y15.7730
G01 Z-1.8000
G01 Z0
G00 Z2.0000
G00 X88.3770 Y15.7730
G01 Z-1.8000
G01 Z0
G00 Z2.0000
G00 X85.8770 Y15.7730
G01 Z-1.8000
G01 Z0
G00 Z2.0000
G00 X85.8770 Y10.6930
G01 Z-1.8000
G01 Z0
G00 Z2.0000
G00 X85.8770 Y5.1050
G01 Z-1.8000
G01 Z0
G00 Z2.0000
G00 X88.3770 Y5.1050
G01 Z-1.8000
G01 Z0
G00 Z2.0000
G01 F300.00
M03 S12000
G00 X73.6850 Y49.8090
G01 Z-1.8000
G01 Z0
G00 Z2.0000
G00 X77.0850 Y49.8090
G01 Z-1.8000
G01 Z0
G00 Z2.0000
G00 X75.3850 Y53.5090
G01 Z-1.8000
G01 Z0
G00 Z2.0000
G00 X78.7850 Y53.5090
G01 Z-1.8000
G01 Z0
G00 Z2.0000
G00 X80.4850 Y49.8090
G01 Z-1.8000
G01 Z0
G00 Z2.0000
G00 X86.8930 Y56.3710
G01 Z-1.8000
G01 Z0
G00 Z2.0000
G00 X90.9570 Y56.4130
G01 Z-1.8000
G01 Z0
G00 Z2.0000
G00 X90.9570 Y46.2530
G01 Z-1.8000
G01 Z0
G00 Z2.0000
G00 X86.8930 Y46.2110
G01 Z-1.8000
G01 Z0
G00 Z2.0000
G00 X82.3210 Y25.9330
G01 Z-1.8000
G01 Z0
G00 Z2.0000
G00 X82.3210 Y21.3610
G01 Z-1.8000
G01 Z0
G00 Z2.0000
G00 X66.5930 Y8.0090
G01 Z-1.8000
G01 Z0
G00 Z2.0000
G00 X63.1930 Y8.0090
G01 Z-1.8000
G01 Z0
G00 Z2.0000
G00 X61.4930 Y11.7090
G01 Z-1.8000
G01 Z0
G00 Z2.0000
G00 X64.8930 Y11.7090
G01 Z-1.8000
G01 Z0
G00 Z2.0000
G00 X68.2930 Y11.7090
G01 Z-1.8000
G01 Z0
G00 Z2.0000
G00 X72.1610 Y21.3610
G01 Z-1.8000
G01 Z0
G00 Z2.0000
G00 X72.1610 Y25.9330
G01 Z-1.8000
G01 Z0
G00 Z2.0000
G01 F300.00
M03 S12000
G00 X109.7530 Y25.4250
G01 Z-1.8000
G01 Z0
G00 Z2.0000
G00 X109.7530 Y30.5050
G01 Z-1.8000
G01 Z0
G00 Z2.0000
G00 X6.1210 Y42.6970
G01 Z-1.8000
G01 Z0
G00 Z2.0000
G00 X6.1210 Y37.6170
G01 Z-1.8000
G01 Z0
G00 Z2.0000
G00 X6.1210 Y28.1560
G01 Z-1.8000
G01 Z0
G00 Z2.0000
G00 X6.1210 Y23.0760
G01 Z-1.8000
G01 Z0
G00 Z2.0000
G00 X6.1210 Y17.9960
G01 Z-1.8000
G01 Z0
G00 Z2.0000
M05
G00 Z2.00

