(G-CODE GENERATED BY FLATCAM v8.993 - www.flatcam.org - Version Date: 2020/06/05)

(Name: drill_mill_1_b)
(Type: G-code from Geometry)
(Units: MM)

(Created on quarta, 01 julho 2020 at 23:00)

(This preprocessor is the default preprocessor used by FlatCAM.)
(It is made to work with MACH3 compatible motion controllers.)

(TOOL DIAMETER: 1.0 mm)
(Feedrate_XY: 120.0 mm/min)
(Feedrate_Z: 60.0 mm/min)
(Feedrate rapids 1500.0 mm/min)

(Z_Cut: -1.8 mm)
(DepthPerCut: 0.6 mm <=>3 passes)
(Z_Move: 2.0 mm)
(Z Start: None mm)
(Z End: 15.0 mm)
(Steps per circle: 64)
(Preprocessor Geometry: default)

(X range:    4.0050 ...  110.8530  mm)
(Y range:    4.0050 ...   55.9890  mm)

(Spindle Speed: 12000 RPM)
G21
G90
G94



G01 F120.00
G00 Z2.0000

M03 S12000
G00 X6.2050 Y5.1050
G01 F60.00
G01 Z-0.6000
G01 F120.00
G01 X6.1997 Y4.9972
G01 X6.1839 Y4.8904
G01 X6.1576 Y4.7857
G01 X6.1213 Y4.6841
G01 X6.0751 Y4.5865
G01 X6.0196 Y4.4939
G01 X5.9553 Y4.4072
G01 X5.8828 Y4.3272
G01 X5.8028 Y4.2547
G01 X5.7161 Y4.1904
G01 X5.6235 Y4.1349
G01 X5.5260 Y4.0887
G01 X5.4243 Y4.0524
G01 X5.3196 Y4.0261
G01 X5.2128 Y4.0103
G01 X5.1050 Y4.0050
G01 X4.9972 Y4.0103
G01 X4.8904 Y4.0261
G01 X4.7857 Y4.0524
G01 X4.6841 Y4.0887
G01 X4.5865 Y4.1349
G01 X4.4939 Y4.1904
G01 X4.4072 Y4.2547
G01 X4.3272 Y4.3272
G01 X4.2547 Y4.4072
G01 X4.1904 Y4.4939
G01 X4.1349 Y4.5865
G01 X4.0887 Y4.6841
G01 X4.0524 Y4.7857
G01 X4.0261 Y4.8904
G01 X4.0103 Y4.9972
G01 X4.0050 Y5.1050
G01 X4.0103 Y5.2128
G01 X4.0261 Y5.3196
G01 X4.0524 Y5.4243
G01 X4.0887 Y5.5260
G01 X4.1349 Y5.6235
G01 X4.1904 Y5.7161
G01 X4.2547 Y5.8028
G01 X4.3272 Y5.8828
G01 X4.4072 Y5.9553
G01 X4.4939 Y6.0196
G01 X4.5865 Y6.0751
G01 X4.6841 Y6.1213
G01 X4.7857 Y6.1576
G01 X4.8904 Y6.1839
G01 X4.9972 Y6.1997
G01 X5.1050 Y6.2050
G01 X5.2128 Y6.1997
G01 X5.3196 Y6.1839
G01 X5.4243 Y6.1576
G01 X5.5260 Y6.1213
G01 X5.6235 Y6.0751
G01 X5.7161 Y6.0196
G01 X5.8028 Y5.9553
G01 X5.8828 Y5.8828
G01 X5.9553 Y5.8028
G01 X6.0196 Y5.7161
G01 X6.0751 Y5.6235
G01 X6.1213 Y5.5260
G01 X6.1576 Y5.4243
G01 X6.1839 Y5.3196
G01 X6.1997 Y5.2128
G01 X6.2050 Y5.1050
G00 X6.2050 Y5.1050
G01 F60.00
G01 Z-1.2000
G01 F120.00
G01 X6.1997 Y4.9972
G01 X6.1839 Y4.8904
G01 X6.1576 Y4.7857
G01 X6.1213 Y4.6841
G01 X6.0751 Y4.5865
G01 X6.0196 Y4.4939
G01 X5.9553 Y4.4072
G01 X5.8828 Y4.3272
G01 X5.8028 Y4.2547
G01 X5.7161 Y4.1904
G01 X5.6235 Y4.1349
G01 X5.5260 Y4.0887
G01 X5.4243 Y4.0524
G01 X5.3196 Y4.0261
G01 X5.2128 Y4.0103
G01 X5.1050 Y4.0050
G01 X4.9972 Y4.0103
G01 X4.8904 Y4.0261
G01 X4.7857 Y4.0524
G01 X4.6841 Y4.0887
G01 X4.5865 Y4.1349
G01 X4.4939 Y4.1904
G01 X4.4072 Y4.2547
G01 X4.3272 Y4.3272
G01 X4.2547 Y4.4072
G01 X4.1904 Y4.4939
G01 X4.1349 Y4.5865
G01 X4.0887 Y4.6841
G01 X4.0524 Y4.7857
G01 X4.0261 Y4.8904
G01 X4.0103 Y4.9972
G01 X4.0050 Y5.1050
G01 X4.0103 Y5.2128
G01 X4.0261 Y5.3196
G01 X4.0524 Y5.4243
G01 X4.0887 Y5.5260
G01 X4.1349 Y5.6235
G01 X4.1904 Y5.7161
G01 X4.2547 Y5.8028
G01 X4.3272 Y5.8828
G01 X4.4072 Y5.9553
G01 X4.4939 Y6.0196
G01 X4.5865 Y6.0751
G01 X4.6841 Y6.1213
G01 X4.7857 Y6.1576
G01 X4.8904 Y6.1839
G01 X4.9972 Y6.1997
G01 X5.1050 Y6.2050
G01 X5.2128 Y6.1997
G01 X5.3196 Y6.1839
G01 X5.4243 Y6.1576
G01 X5.5260 Y6.1213
G01 X5.6235 Y6.0751
G01 X5.7161 Y6.0196
G01 X5.8028 Y5.9553
G01 X5.8828 Y5.8828
G01 X5.9553 Y5.8028
G01 X6.0196 Y5.7161
G01 X6.0751 Y5.6235
G01 X6.1213 Y5.5260
G01 X6.1576 Y5.4243
G01 X6.1839 Y5.3196
G01 X6.1997 Y5.2128
G01 X6.2050 Y5.1050
G00 X6.2050 Y5.1050
G01 F60.00
G01 Z-1.8000
G01 F120.00
G01 X6.1997 Y4.9972
G01 X6.1839 Y4.8904
G01 X6.1576 Y4.7857
G01 X6.1213 Y4.6841
G01 X6.0751 Y4.5865
G01 X6.0196 Y4.4939
G01 X5.9553 Y4.4072
G01 X5.8828 Y4.3272
G01 X5.8028 Y4.2547
G01 X5.7161 Y4.1904
G01 X5.6235 Y4.1349
G01 X5.5260 Y4.0887
G01 X5.4243 Y4.0524
G01 X5.3196 Y4.0261
G01 X5.2128 Y4.0103
G01 X5.1050 Y4.0050
G01 X4.9972 Y4.0103
G01 X4.8904 Y4.0261
G01 X4.7857 Y4.0524
G01 X4.6841 Y4.0887
G01 X4.5865 Y4.1349
G01 X4.4939 Y4.1904
G01 X4.4072 Y4.2547
G01 X4.3272 Y4.3272
G01 X4.2547 Y4.4072
G01 X4.1904 Y4.4939
G01 X4.1349 Y4.5865
G01 X4.0887 Y4.6841
G01 X4.0524 Y4.7857
G01 X4.0261 Y4.8904
G01 X4.0103 Y4.9972
G01 X4.0050 Y5.1050
G01 X4.0103 Y5.2128
G01 X4.0261 Y5.3196
G01 X4.0524 Y5.4243
G01 X4.0887 Y5.5260
G01 X4.1349 Y5.6235
G01 X4.1904 Y5.7161
G01 X4.2547 Y5.8028
G01 X4.3272 Y5.8828
G01 X4.4072 Y5.9553
G01 X4.4939 Y6.0196
G01 X4.5865 Y6.0751
G01 X4.6841 Y6.1213
G01 X4.7857 Y6.1576
G01 X4.8904 Y6.1839
G01 X4.9972 Y6.1997
G01 X5.1050 Y6.2050
G01 X5.2128 Y6.1997
G01 X5.3196 Y6.1839
G01 X5.4243 Y6.1576
G01 X5.5260 Y6.1213
G01 X5.6235 Y6.0751
G01 X5.7161 Y6.0196
G01 X5.8028 Y5.9553
G01 X5.8828 Y5.8828
G01 X5.9553 Y5.8028
G01 X6.0196 Y5.7161
G01 X6.0751 Y5.6235
G01 X6.1213 Y5.5260
G01 X6.1576 Y5.4243
G01 X6.1839 Y5.3196
G01 X6.1997 Y5.2128
G01 X6.2050 Y5.1050
G00 Z2.0000
G00 X6.2050 Y54.8890
G01 F60.00
G01 Z-0.6000
G01 F120.00
G01 X6.1997 Y54.7812
G01 X6.1839 Y54.6744
G01 X6.1576 Y54.5697
G01 X6.1213 Y54.4681
G01 X6.0751 Y54.3705
G01 X6.0196 Y54.2779
G01 X5.9553 Y54.1912
G01 X5.8828 Y54.1112
G01 X5.8028 Y54.0387
G01 X5.7161 Y53.9744
G01 X5.6235 Y53.9189
G01 X5.5260 Y53.8727
G01 X5.4243 Y53.8364
G01 X5.3196 Y53.8101
G01 X5.2128 Y53.7943
G01 X5.1050 Y53.7890
G01 X4.9972 Y53.7943
G01 X4.8904 Y53.8101
G01 X4.7857 Y53.8364
G01 X4.6841 Y53.8727
G01 X4.5865 Y53.9189
G01 X4.4939 Y53.9744
G01 X4.4072 Y54.0387
G01 X4.3272 Y54.1112
G01 X4.2547 Y54.1912
G01 X4.1904 Y54.2779
G01 X4.1349 Y54.3705
G01 X4.0887 Y54.4681
G01 X4.0524 Y54.5697
G01 X4.0261 Y54.6744
G01 X4.0103 Y54.7812
G01 X4.0050 Y54.8890
G01 X4.0103 Y54.9968
G01 X4.0261 Y55.1036
G01 X4.0524 Y55.2083
G01 X4.0887 Y55.3100
G01 X4.1349 Y55.4075
G01 X4.1904 Y55.5001
G01 X4.2547 Y55.5868
G01 X4.3272 Y55.6668
G01 X4.4072 Y55.7393
G01 X4.4939 Y55.8036
G01 X4.5865 Y55.8591
G01 X4.6841 Y55.9053
G01 X4.7857 Y55.9416
G01 X4.8904 Y55.9679
G01 X4.9972 Y55.9837
G01 X5.1050 Y55.9890
G01 X5.2128 Y55.9837
G01 X5.3196 Y55.9679
G01 X5.4243 Y55.9416
G01 X5.5260 Y55.9053
G01 X5.6235 Y55.8591
G01 X5.7161 Y55.8036
G01 X5.8028 Y55.7393
G01 X5.8828 Y55.6668
G01 X5.9553 Y55.5868
G01 X6.0196 Y55.5001
G01 X6.0751 Y55.4075
G01 X6.1213 Y55.3100
G01 X6.1576 Y55.2083
G01 X6.1839 Y55.1036
G01 X6.1997 Y54.9968
G01 X6.2050 Y54.8890
G00 X6.2050 Y54.8890
G01 F60.00
G01 Z-1.2000
G01 F120.00
G01 X6.1997 Y54.7812
G01 X6.1839 Y54.6744
G01 X6.1576 Y54.5697
G01 X6.1213 Y54.4681
G01 X6.0751 Y54.3705
G01 X6.0196 Y54.2779
G01 X5.9553 Y54.1912
G01 X5.8828 Y54.1112
G01 X5.8028 Y54.0387
G01 X5.7161 Y53.9744
G01 X5.6235 Y53.9189
G01 X5.5260 Y53.8727
G01 X5.4243 Y53.8364
G01 X5.3196 Y53.8101
G01 X5.2128 Y53.7943
G01 X5.1050 Y53.7890
G01 X4.9972 Y53.7943
G01 X4.8904 Y53.8101
G01 X4.7857 Y53.8364
G01 X4.6841 Y53.8727
G01 X4.5865 Y53.9189
G01 X4.4939 Y53.9744
G01 X4.4072 Y54.0387
G01 X4.3272 Y54.1112
G01 X4.2547 Y54.1912
G01 X4.1904 Y54.2779
G01 X4.1349 Y54.3705
G01 X4.0887 Y54.4681
G01 X4.0524 Y54.5697
G01 X4.0261 Y54.6744
G01 X4.0103 Y54.7812
G01 X4.0050 Y54.8890
G01 X4.0103 Y54.9968
G01 X4.0261 Y55.1036
G01 X4.0524 Y55.2083
G01 X4.0887 Y55.3100
G01 X4.1349 Y55.4075
G01 X4.1904 Y55.5001
G01 X4.2547 Y55.5868
G01 X4.3272 Y55.6668
G01 X4.4072 Y55.7393
G01 X4.4939 Y55.8036
G01 X4.5865 Y55.8591
G01 X4.6841 Y55.9053
G01 X4.7857 Y55.9416
G01 X4.8904 Y55.9679
G01 X4.9972 Y55.9837
G01 X5.1050 Y55.9890
G01 X5.2128 Y55.9837
G01 X5.3196 Y55.9679
G01 X5.4243 Y55.9416
G01 X5.5260 Y55.9053
G01 X5.6235 Y55.8591
G01 X5.7161 Y55.8036
G01 X5.8028 Y55.7393
G01 X5.8828 Y55.6668
G01 X5.9553 Y55.5868
G01 X6.0196 Y55.5001
G01 X6.0751 Y55.4075
G01 X6.1213 Y55.3100
G01 X6.1576 Y55.2083
G01 X6.1839 Y55.1036
G01 X6.1997 Y54.9968
G01 X6.2050 Y54.8890
G00 X6.2050 Y54.8890
G01 F60.00
G01 Z-1.8000
G01 F120.00
G01 X6.1997 Y54.7812
G01 X6.1839 Y54.6744
G01 X6.1576 Y54.5697
G01 X6.1213 Y54.4681
G01 X6.0751 Y54.3705
G01 X6.0196 Y54.2779
G01 X5.9553 Y54.1912
G01 X5.8828 Y54.1112
G01 X5.8028 Y54.0387
G01 X5.7161 Y53.9744
G01 X5.6235 Y53.9189
G01 X5.5260 Y53.8727
G01 X5.4243 Y53.8364
G01 X5.3196 Y53.8101
G01 X5.2128 Y53.7943
G01 X5.1050 Y53.7890
G01 X4.9972 Y53.7943
G01 X4.8904 Y53.8101
G01 X4.7857 Y53.8364
G01 X4.6841 Y53.8727
G01 X4.5865 Y53.9189
G01 X4.4939 Y53.9744
G01 X4.4072 Y54.0387
G01 X4.3272 Y54.1112
G01 X4.2547 Y54.1912
G01 X4.1904 Y54.2779
G01 X4.1349 Y54.3705
G01 X4.0887 Y54.4681
G01 X4.0524 Y54.5697
G01 X4.0261 Y54.6744
G01 X4.0103 Y54.7812
G01 X4.0050 Y54.8890
G01 X4.0103 Y54.9968
G01 X4.0261 Y55.1036
G01 X4.0524 Y55.2083
G01 X4.0887 Y55.3100
G01 X4.1349 Y55.4075
G01 X4.1904 Y55.5001
G01 X4.2547 Y55.5868
G01 X4.3272 Y55.6668
G01 X4.4072 Y55.7393
G01 X4.4939 Y55.8036
G01 X4.5865 Y55.8591
G01 X4.6841 Y55.9053
G01 X4.7857 Y55.9416
G01 X4.8904 Y55.9679
G01 X4.9972 Y55.9837
G01 X5.1050 Y55.9890
G01 X5.2128 Y55.9837
G01 X5.3196 Y55.9679
G01 X5.4243 Y55.9416
G01 X5.5260 Y55.9053
G01 X5.6235 Y55.8591
G01 X5.7161 Y55.8036
G01 X5.8028 Y55.7393
G01 X5.8828 Y55.6668
G01 X5.9553 Y55.5868
G01 X6.0196 Y55.5001
G01 X6.0751 Y55.4075
G01 X6.1213 Y55.3100
G01 X6.1576 Y55.2083
G01 X6.1839 Y55.1036
G01 X6.1997 Y54.9968
G01 X6.2050 Y54.8890
G00 Z2.0000
G00 X110.8530 Y54.8890
G01 F60.00
G01 Z-0.6000
G01 F120.00
G01 X110.8477 Y54.7812
G01 X110.8319 Y54.6744
G01 X110.8056 Y54.5697
G01 X110.7693 Y54.4681
G01 X110.7231 Y54.3705
G01 X110.6676 Y54.2779
G01 X110.6033 Y54.1912
G01 X110.5308 Y54.1112
G01 X110.4508 Y54.0387
G01 X110.3641 Y53.9744
G01 X110.2715 Y53.9189
G01 X110.1740 Y53.8727
G01 X110.0723 Y53.8364
G01 X109.9676 Y53.8101
G01 X109.8608 Y53.7943
G01 X109.7530 Y53.7890
G01 X109.6452 Y53.7943
G01 X109.5384 Y53.8101
G01 X109.4337 Y53.8364
G01 X109.3321 Y53.8727
G01 X109.2345 Y53.9189
G01 X109.1419 Y53.9744
G01 X109.0552 Y54.0387
G01 X108.9752 Y54.1112
G01 X108.9027 Y54.1912
G01 X108.8384 Y54.2779
G01 X108.7829 Y54.3705
G01 X108.7367 Y54.4681
G01 X108.7004 Y54.5697
G01 X108.6741 Y54.6744
G01 X108.6583 Y54.7812
G01 X108.6530 Y54.8890
G01 X108.6583 Y54.9968
G01 X108.6741 Y55.1036
G01 X108.7004 Y55.2083
G01 X108.7367 Y55.3100
G01 X108.7829 Y55.4075
G01 X108.8384 Y55.5001
G01 X108.9027 Y55.5868
G01 X108.9752 Y55.6668
G01 X109.0552 Y55.7393
G01 X109.1419 Y55.8036
G01 X109.2345 Y55.8591
G01 X109.3321 Y55.9053
G01 X109.4337 Y55.9416
G01 X109.5384 Y55.9679
G01 X109.6452 Y55.9837
G01 X109.7530 Y55.9890
G01 X109.8608 Y55.9837
G01 X109.9676 Y55.9679
G01 X110.0723 Y55.9416
G01 X110.1740 Y55.9053
G01 X110.2715 Y55.8591
G01 X110.3641 Y55.8036
G01 X110.4508 Y55.7393
G01 X110.5308 Y55.6668
G01 X110.6033 Y55.5868
G01 X110.6676 Y55.5001
G01 X110.7231 Y55.4075
G01 X110.7693 Y55.3100
G01 X110.8056 Y55.2083
G01 X110.8319 Y55.1036
G01 X110.8477 Y54.9968
G01 X110.8530 Y54.8890
G00 X110.8530 Y54.8890
G01 F60.00
G01 Z-1.2000
G01 F120.00
G01 X110.8477 Y54.7812
G01 X110.8319 Y54.6744
G01 X110.8056 Y54.5697
G01 X110.7693 Y54.4681
G01 X110.7231 Y54.3705
G01 X110.6676 Y54.2779
G01 X110.6033 Y54.1912
G01 X110.5308 Y54.1112
G01 X110.4508 Y54.0387
G01 X110.3641 Y53.9744
G01 X110.2715 Y53.9189
G01 X110.1740 Y53.8727
G01 X110.0723 Y53.8364
G01 X109.9676 Y53.8101
G01 X109.8608 Y53.7943
G01 X109.7530 Y53.7890
G01 X109.6452 Y53.7943
G01 X109.5384 Y53.8101
G01 X109.4337 Y53.8364
G01 X109.3321 Y53.8727
G01 X109.2345 Y53.9189
G01 X109.1419 Y53.9744
G01 X109.0552 Y54.0387
G01 X108.9752 Y54.1112
G01 X108.9027 Y54.1912
G01 X108.8384 Y54.2779
G01 X108.7829 Y54.3705
G01 X108.7367 Y54.4681
G01 X108.7004 Y54.5697
G01 X108.6741 Y54.6744
G01 X108.6583 Y54.7812
G01 X108.6530 Y54.8890
G01 X108.6583 Y54.9968
G01 X108.6741 Y55.1036
G01 X108.7004 Y55.2083
G01 X108.7367 Y55.3100
G01 X108.7829 Y55.4075
G01 X108.8384 Y55.5001
G01 X108.9027 Y55.5868
G01 X108.9752 Y55.6668
G01 X109.0552 Y55.7393
G01 X109.1419 Y55.8036
G01 X109.2345 Y55.8591
G01 X109.3321 Y55.9053
G01 X109.4337 Y55.9416
G01 X109.5384 Y55.9679
G01 X109.6452 Y55.9837
G01 X109.7530 Y55.9890
G01 X109.8608 Y55.9837
G01 X109.9676 Y55.9679
G01 X110.0723 Y55.9416
G01 X110.1740 Y55.9053
G01 X110.2715 Y55.8591
G01 X110.3641 Y55.8036
G01 X110.4508 Y55.7393
G01 X110.5308 Y55.6668
G01 X110.6033 Y55.5868
G01 X110.6676 Y55.5001
G01 X110.7231 Y55.4075
G01 X110.7693 Y55.3100
G01 X110.8056 Y55.2083
G01 X110.8319 Y55.1036
G01 X110.8477 Y54.9968
G01 X110.8530 Y54.8890
G00 X110.8530 Y54.8890
G01 F60.00
G01 Z-1.8000
G01 F120.00
G01 X110.8477 Y54.7812
G01 X110.8319 Y54.6744
G01 X110.8056 Y54.5697
G01 X110.7693 Y54.4681
G01 X110.7231 Y54.3705
G01 X110.6676 Y54.2779
G01 X110.6033 Y54.1912
G01 X110.5308 Y54.1112
G01 X110.4508 Y54.0387
G01 X110.3641 Y53.9744
G01 X110.2715 Y53.9189
G01 X110.1740 Y53.8727
G01 X110.0723 Y53.8364
G01 X109.9676 Y53.8101
G01 X109.8608 Y53.7943
G01 X109.7530 Y53.7890
G01 X109.6452 Y53.7943
G01 X109.5384 Y53.8101
G01 X109.4337 Y53.8364
G01 X109.3321 Y53.8727
G01 X109.2345 Y53.9189
G01 X109.1419 Y53.9744
G01 X109.0552 Y54.0387
G01 X108.9752 Y54.1112
G01 X108.9027 Y54.1912
G01 X108.8384 Y54.2779
G01 X108.7829 Y54.3705
G01 X108.7367 Y54.4681
G01 X108.7004 Y54.5697
G01 X108.6741 Y54.6744
G01 X108.6583 Y54.7812
G01 X108.6530 Y54.8890
G01 X108.6583 Y54.9968
G01 X108.6741 Y55.1036
G01 X108.7004 Y55.2083
G01 X108.7367 Y55.3100
G01 X108.7829 Y55.4075
G01 X108.8384 Y55.5001
G01 X108.9027 Y55.5868
G01 X108.9752 Y55.6668
G01 X109.0552 Y55.7393
G01 X109.1419 Y55.8036
G01 X109.2345 Y55.8591
G01 X109.3321 Y55.9053
G01 X109.4337 Y55.9416
G01 X109.5384 Y55.9679
G01 X109.6452 Y55.9837
G01 X109.7530 Y55.9890
G01 X109.8608 Y55.9837
G01 X109.9676 Y55.9679
G01 X110.0723 Y55.9416
G01 X110.1740 Y55.9053
G01 X110.2715 Y55.8591
G01 X110.3641 Y55.8036
G01 X110.4508 Y55.7393
G01 X110.5308 Y55.6668
G01 X110.6033 Y55.5868
G01 X110.6676 Y55.5001
G01 X110.7231 Y55.4075
G01 X110.7693 Y55.3100
G01 X110.8056 Y55.2083
G01 X110.8319 Y55.1036
G01 X110.8477 Y54.9968
G01 X110.8530 Y54.8890
G00 Z2.0000
G00 X110.8530 Y5.1050
G01 F60.00
G01 Z-0.6000
G01 F120.00
G01 X110.8477 Y4.9972
G01 X110.8319 Y4.8904
G01 X110.8056 Y4.7857
G01 X110.7693 Y4.6841
G01 X110.7231 Y4.5865
G01 X110.6676 Y4.4939
G01 X110.6033 Y4.4072
G01 X110.5308 Y4.3272
G01 X110.4508 Y4.2547
G01 X110.3641 Y4.1904
G01 X110.2715 Y4.1349
G01 X110.1740 Y4.0887
G01 X110.0723 Y4.0524
G01 X109.9676 Y4.0261
G01 X109.8608 Y4.0103
G01 X109.7530 Y4.0050
G01 X109.6452 Y4.0103
G01 X109.5384 Y4.0261
G01 X109.4337 Y4.0524
G01 X109.3321 Y4.0887
G01 X109.2345 Y4.1349
G01 X109.1419 Y4.1904
G01 X109.0552 Y4.2547
G01 X108.9752 Y4.3272
G01 X108.9027 Y4.4072
G01 X108.8384 Y4.4939
G01 X108.7829 Y4.5865
G01 X108.7367 Y4.6841
G01 X108.7004 Y4.7857
G01 X108.6741 Y4.8904
G01 X108.6583 Y4.9972
G01 X108.6530 Y5.1050
G01 X108.6583 Y5.2128
G01 X108.6741 Y5.3196
G01 X108.7004 Y5.4243
G01 X108.7367 Y5.5260
G01 X108.7829 Y5.6235
G01 X108.8384 Y5.7161
G01 X108.9027 Y5.8028
G01 X108.9752 Y5.8828
G01 X109.0552 Y5.9553
G01 X109.1419 Y6.0196
G01 X109.2345 Y6.0751
G01 X109.3321 Y6.1213
G01 X109.4337 Y6.1576
G01 X109.5384 Y6.1839
G01 X109.6452 Y6.1997
G01 X109.7530 Y6.2050
G01 X109.8608 Y6.1997
G01 X109.9676 Y6.1839
G01 X110.0723 Y6.1576
G01 X110.1740 Y6.1213
G01 X110.2715 Y6.0751
G01 X110.3641 Y6.0196
G01 X110.4508 Y5.9553
G01 X110.5308 Y5.8828
G01 X110.6033 Y5.8028
G01 X110.6676 Y5.7161
G01 X110.7231 Y5.6235
G01 X110.7693 Y5.5260
G01 X110.8056 Y5.4243
G01 X110.8319 Y5.3196
G01 X110.8477 Y5.2128
G01 X110.8530 Y5.1050
G00 X110.8530 Y5.1050
G01 F60.00
G01 Z-1.2000
G01 F120.00
G01 X110.8477 Y4.9972
G01 X110.8319 Y4.8904
G01 X110.8056 Y4.7857
G01 X110.7693 Y4.6841
G01 X110.7231 Y4.5865
G01 X110.6676 Y4.4939
G01 X110.6033 Y4.4072
G01 X110.5308 Y4.3272
G01 X110.4508 Y4.2547
G01 X110.3641 Y4.1904
G01 X110.2715 Y4.1349
G01 X110.1740 Y4.0887
G01 X110.0723 Y4.0524
G01 X109.9676 Y4.0261
G01 X109.8608 Y4.0103
G01 X109.7530 Y4.0050
G01 X109.6452 Y4.0103
G01 X109.5384 Y4.0261
G01 X109.4337 Y4.0524
G01 X109.3321 Y4.0887
G01 X109.2345 Y4.1349
G01 X109.1419 Y4.1904
G01 X109.0552 Y4.2547
G01 X108.9752 Y4.3272
G01 X108.9027 Y4.4072
G01 X108.8384 Y4.4939
G01 X108.7829 Y4.5865
G01 X108.7367 Y4.6841
G01 X108.7004 Y4.7857
G01 X108.6741 Y4.8904
G01 X108.6583 Y4.9972
G01 X108.6530 Y5.1050
G01 X108.6583 Y5.2128
G01 X108.6741 Y5.3196
G01 X108.7004 Y5.4243
G01 X108.7367 Y5.5260
G01 X108.7829 Y5.6235
G01 X108.8384 Y5.7161
G01 X108.9027 Y5.8028
G01 X108.9752 Y5.8828
G01 X109.0552 Y5.9553
G01 X109.1419 Y6.0196
G01 X109.2345 Y6.0751
G01 X109.3321 Y6.1213
G01 X109.4337 Y6.1576
G01 X109.5384 Y6.1839
G01 X109.6452 Y6.1997
G01 X109.7530 Y6.2050
G01 X109.8608 Y6.1997
G01 X109.9676 Y6.1839
G01 X110.0723 Y6.1576
G01 X110.1740 Y6.1213
G01 X110.2715 Y6.0751
G01 X110.3641 Y6.0196
G01 X110.4508 Y5.9553
G01 X110.5308 Y5.8828
G01 X110.6033 Y5.8028
G01 X110.6676 Y5.7161
G01 X110.7231 Y5.6235
G01 X110.7693 Y5.5260
G01 X110.8056 Y5.4243
G01 X110.8319 Y5.3196
G01 X110.8477 Y5.2128
G01 X110.8530 Y5.1050
G00 X110.8530 Y5.1050
G01 F60.00
G01 Z-1.8000
G01 F120.00
G01 X110.8477 Y4.9972
G01 X110.8319 Y4.8904
G01 X110.8056 Y4.7857
G01 X110.7693 Y4.6841
G01 X110.7231 Y4.5865
G01 X110.6676 Y4.4939
G01 X110.6033 Y4.4072
G01 X110.5308 Y4.3272
G01 X110.4508 Y4.2547
G01 X110.3641 Y4.1904
G01 X110.2715 Y4.1349
G01 X110.1740 Y4.0887
G01 X110.0723 Y4.0524
G01 X109.9676 Y4.0261
G01 X109.8608 Y4.0103
G01 X109.7530 Y4.0050
G01 X109.6452 Y4.0103
G01 X109.5384 Y4.0261
G01 X109.4337 Y4.0524
G01 X109.3321 Y4.0887
G01 X109.2345 Y4.1349
G01 X109.1419 Y4.1904
G01 X109.0552 Y4.2547
G01 X108.9752 Y4.3272
G01 X108.9027 Y4.4072
G01 X108.8384 Y4.4939
G01 X108.7829 Y4.5865
G01 X108.7367 Y4.6841
G01 X108.7004 Y4.7857
G01 X108.6741 Y4.8904
G01 X108.6583 Y4.9972
G01 X108.6530 Y5.1050
G01 X108.6583 Y5.2128
G01 X108.6741 Y5.3196
G01 X108.7004 Y5.4243
G01 X108.7367 Y5.5260
G01 X108.7829 Y5.6235
G01 X108.8384 Y5.7161
G01 X108.9027 Y5.8028
G01 X108.9752 Y5.8828
G01 X109.0552 Y5.9553
G01 X109.1419 Y6.0196
G01 X109.2345 Y6.0751
G01 X109.3321 Y6.1213
G01 X109.4337 Y6.1576
G01 X109.5384 Y6.1839
G01 X109.6452 Y6.1997
G01 X109.7530 Y6.2050
G01 X109.8608 Y6.1997
G01 X109.9676 Y6.1839
G01 X110.0723 Y6.1576
G01 X110.1740 Y6.1213
G01 X110.2715 Y6.0751
G01 X110.3641 Y6.0196
G01 X110.4508 Y5.9553
G01 X110.5308 Y5.8828
G01 X110.6033 Y5.8028
G01 X110.6676 Y5.7161
G01 X110.7231 Y5.6235
G01 X110.7693 Y5.5260
G01 X110.8056 Y5.4243
G01 X110.8319 Y5.3196
G01 X110.8477 Y5.2128
G01 X110.8530 Y5.1050
G00 Z2.0000
M05
G00 Z2.0000
G00 Z15.00

