(G-CODE GENERATED BY FLATCAM v8.993 - www.flatcam.org - Version Date: 2020/06/05)

(Name: edge)
(Type: G-code from Geometry)
(Units: MM)

(Created on quinta, 02 julho 2020 at 10:39)

(This preprocessor is the default preprocessor used by FlatCAM.)
(It is made to work with MACH3 compatible motion controllers.)

(TOOL DIAMETER: 1.0 mm)
(Feedrate_XY: 120.0 mm/min)
(Feedrate_Z: 60.0 mm/min)
(Feedrate rapids 1500.0 mm/min)

(Z_Cut: -1.8 mm)
(DepthPerCut: 0.6 mm <=>3 passes)
(Z_Move: 2.0 mm)
(Z Start: None mm)
(Z End: 15.0 mm)
(Steps per circle: 64)
(Preprocessor Geometry: default)

(X range:   -0.6000 ...  115.4580  mm)
(Y range:   -0.6000 ...   60.5940  mm)

(Spindle Speed: 12000 RPM)
G21
G90
G94



G01 F120.00
G00 Z2.0000

M03 S12000
G00 X56.9290 Y-0.6000
G01 F60.00
G01 Z-0.6000
G01 F120.00
G01 X0.0000 Y-0.6000
G01 X-0.0588 Y-0.5971
G01 X-0.1171 Y-0.5885
G01 X-0.1742 Y-0.5742
G01 X-0.2296 Y-0.5543
G01 X-0.2828 Y-0.5292
G01 X-0.3333 Y-0.4989
G01 X-0.3806 Y-0.4638
G01 X-0.4243 Y-0.4243
G01 X-0.4638 Y-0.3806
G01 X-0.4989 Y-0.3333
G01 X-0.5292 Y-0.2828
G01 X-0.5543 Y-0.2296
G01 X-0.5742 Y-0.1742
G01 X-0.5885 Y-0.1171
G01 X-0.5971 Y-0.0588
G01 X-0.6000 Y0.0000
G01 X-0.6000 Y59.9940
G01 X-0.5971 Y60.0528
G01 X-0.5885 Y60.1111
G01 X-0.5742 Y60.1682
G01 X-0.5543 Y60.2236
G01 X-0.5292 Y60.2769
G01 X-0.4989 Y60.3274
G01 X-0.4638 Y60.3747
G01 X-0.4243 Y60.4183
G01 X-0.3806 Y60.4578
G01 X-0.3333 Y60.4929
G01 X-0.2828 Y60.5232
G01 X-0.2296 Y60.5484
G01 X-0.1742 Y60.5682
G01 X-0.1171 Y60.5825
G01 X-0.0588 Y60.5911
G01 X0.0000 Y60.5940
G01 X56.9290 Y60.5940
G00 X56.9290 Y60.5940
G01 F60.00
G01 Z-1.2000
G01 F120.00
G01 X0.0000 Y60.5940
G01 X-0.0588 Y60.5911
G01 X-0.1171 Y60.5825
G01 X-0.1742 Y60.5682
G01 X-0.2296 Y60.5484
G01 X-0.2828 Y60.5232
G01 X-0.3333 Y60.4929
G01 X-0.3806 Y60.4578
G01 X-0.4243 Y60.4183
G01 X-0.4638 Y60.3747
G01 X-0.4989 Y60.3274
G01 X-0.5292 Y60.2769
G01 X-0.5543 Y60.2236
G01 X-0.5742 Y60.1682
G01 X-0.5885 Y60.1111
G01 X-0.5971 Y60.0528
G01 X-0.6000 Y59.9940
G01 X-0.6000 Y0.0000
G01 X-0.5971 Y-0.0588
G01 X-0.5885 Y-0.1171
G01 X-0.5742 Y-0.1742
G01 X-0.5543 Y-0.2296
G01 X-0.5292 Y-0.2828
G01 X-0.4989 Y-0.3333
G01 X-0.4638 Y-0.3806
G01 X-0.4243 Y-0.4243
G01 X-0.3806 Y-0.4638
G01 X-0.3333 Y-0.4989
G01 X-0.2828 Y-0.5292
G01 X-0.2296 Y-0.5543
G01 X-0.1742 Y-0.5742
G01 X-0.1171 Y-0.5885
G01 X-0.0588 Y-0.5971
G01 X0.0000 Y-0.6000
G01 X56.9290 Y-0.6000
G00 X56.9290 Y-0.6000
G01 F60.00
G01 Z-1.8000
G01 F120.00
G01 X0.0000 Y-0.6000
G01 X-0.0588 Y-0.5971
G01 X-0.1171 Y-0.5885
G01 X-0.1742 Y-0.5742
G01 X-0.2296 Y-0.5543
G01 X-0.2828 Y-0.5292
G01 X-0.3333 Y-0.4989
G01 X-0.3806 Y-0.4638
G01 X-0.4243 Y-0.4243
G01 X-0.4638 Y-0.3806
G01 X-0.4989 Y-0.3333
G01 X-0.5292 Y-0.2828
G01 X-0.5543 Y-0.2296
G01 X-0.5742 Y-0.1742
G01 X-0.5885 Y-0.1171
G01 X-0.5971 Y-0.0588
G01 X-0.6000 Y0.0000
G01 X-0.6000 Y59.9940
G01 X-0.5971 Y60.0528
G01 X-0.5885 Y60.1111
G01 X-0.5742 Y60.1682
G01 X-0.5543 Y60.2236
G01 X-0.5292 Y60.2769
G01 X-0.4989 Y60.3274
G01 X-0.4638 Y60.3747
G01 X-0.4243 Y60.4183
G01 X-0.3806 Y60.4578
G01 X-0.3333 Y60.4929
G01 X-0.2828 Y60.5232
G01 X-0.2296 Y60.5484
G01 X-0.1742 Y60.5682
G01 X-0.1171 Y60.5825
G01 X-0.0588 Y60.5911
G01 X0.0000 Y60.5940
G01 X56.9290 Y60.5940
G00 Z2.0000
G00 X58.1290 Y60.5940
G01 F60.00
G01 Z-0.6000
G01 F120.00
G01 X114.8580 Y60.5940
G01 X114.9168 Y60.5911
G01 X114.9751 Y60.5825
G01 X115.0322 Y60.5682
G01 X115.0876 Y60.5484
G01 X115.1409 Y60.5232
G01 X115.1914 Y60.4929
G01 X115.2387 Y60.4578
G01 X115.2823 Y60.4183
G01 X115.3218 Y60.3747
G01 X115.3569 Y60.3274
G01 X115.3872 Y60.2769
G01 X115.4124 Y60.2236
G01 X115.4322 Y60.1682
G01 X115.4465 Y60.1111
G01 X115.4551 Y60.0528
G01 X115.4580 Y59.9940
G01 X115.4580 Y0.0000
G01 X115.4551 Y-0.0588
G01 X115.4465 Y-0.1171
G01 X115.4322 Y-0.1742
G01 X115.4124 Y-0.2296
G01 X115.3872 Y-0.2828
G01 X115.3569 Y-0.3333
G01 X115.3218 Y-0.3806
G01 X115.2823 Y-0.4243
G01 X115.2387 Y-0.4638
G01 X115.1914 Y-0.4989
G01 X115.1409 Y-0.5292
G01 X115.0876 Y-0.5543
G01 X115.0322 Y-0.5742
G01 X114.9751 Y-0.5885
G01 X114.9168 Y-0.5971
G01 X114.8580 Y-0.6000
G00 X114.8580 Y-0.6000
G01 F60.00
G01 Z-1.2000
G01 F120.00
G01 X114.9168 Y-0.5971
G01 X114.9751 Y-0.5885
G01 X115.0322 Y-0.5742
G01 X115.0876 Y-0.5543
G01 X115.1409 Y-0.5292
G01 X115.1914 Y-0.4989
G01 X115.2387 Y-0.4638
G01 X115.2823 Y-0.4243
G01 X115.3218 Y-0.3806
G01 X115.3569 Y-0.3333
G01 X115.3872 Y-0.2828
G01 X115.4124 Y-0.2296
G01 X115.4322 Y-0.1742
G01 X115.4465 Y-0.1171
G01 X115.4551 Y-0.0588
G01 X115.4580 Y0.0000
G01 X115.4580 Y59.9940
G01 X115.4551 Y60.0528
G01 X115.4465 Y60.1111
G01 X115.4322 Y60.1682
G01 X115.4124 Y60.2236
G01 X115.3872 Y60.2769
G01 X115.3569 Y60.3274
G01 X115.3218 Y60.3747
G01 X115.2823 Y60.4183
G01 X115.2387 Y60.4578
G01 X115.1914 Y60.4929
G01 X115.1409 Y60.5232
G01 X115.0876 Y60.5484
G01 X115.0322 Y60.5682
G01 X114.9751 Y60.5825
G01 X114.9168 Y60.5911
G01 X114.8580 Y60.5940
G01 X58.1290 Y60.5940
G00 X58.1290 Y60.5940
G01 F60.00
G01 Z-1.8000
G01 F120.00
G01 X114.8580 Y60.5940
G01 X114.9168 Y60.5911
G01 X114.9751 Y60.5825
G01 X115.0322 Y60.5682
G01 X115.0876 Y60.5484
G01 X115.1409 Y60.5232
G01 X115.1914 Y60.4929
G01 X115.2387 Y60.4578
G01 X115.2823 Y60.4183
G01 X115.3218 Y60.3747
G01 X115.3569 Y60.3274
G01 X115.3872 Y60.2769
G01 X115.4124 Y60.2236
G01 X115.4322 Y60.1682
G01 X115.4465 Y60.1111
G01 X115.4551 Y60.0528
G01 X115.4580 Y59.9940
G01 X115.4580 Y0.0000
G01 X115.4551 Y-0.0588
G01 X115.4465 Y-0.1171
G01 X115.4322 Y-0.1742
G01 X115.4124 Y-0.2296
G01 X115.3872 Y-0.2828
G01 X115.3569 Y-0.3333
G01 X115.3218 Y-0.3806
G01 X115.2823 Y-0.4243
G01 X115.2387 Y-0.4638
G01 X115.1914 Y-0.4989
G01 X115.1409 Y-0.5292
G01 X115.0876 Y-0.5543
G01 X115.0322 Y-0.5742
G01 X114.9751 Y-0.5885
G01 X114.9168 Y-0.5971
G01 X114.8580 Y-0.6000
G00 Z2.0000
G00 X114.8580 Y-0.6000
G01 F60.00
G01 Z-0.6000
G01 F120.00
G01 X58.1290 Y-0.6000
G00 X58.1290 Y-0.6000
G01 F60.00
G01 Z-1.2000
G01 F120.00
G01 X114.8580 Y-0.6000
G00 X114.8580 Y-0.6000
G01 F60.00
G01 Z-1.8000
G01 F120.00
G01 X58.1290 Y-0.6000
G00 Z2.0000
M05
G00 Z2.0000
G00 Z15.00

